Assets/HMP LUTs/LUTs/HMPLUTs_Graeme.cube
TITLE "Generated by Resolve"
LUT_3D_SIZE 9
0 0 0
0 0 0
0 0 0
0.182452 0 0
0.813611 0 0
1 0.175372 0.0990616
1 0.218631 0.123186
1 0.463691 0.399542
1 1 1
0 0 0
0 0 0
0 0 0
0.182345 0 0
0.832792 0 0
1 0.215976 0.10103
1 0.255451 0.10782
1 0.500511 0.384176
1 1 1
0 0 0
0 0 0
0 0 0
0.182498 0 0
0.855894 0 0
1 0.272251 0.102602
1 0.306691 0.0864424
1 0.551369 0.363714
1 1 1
0 0.150088 0
0 0.147402 0
0 0.145357 0
0.193423 0.152743 0
0.903914 0.169299 0
1 0.440269 0.0976425
1 0.463188 0.0212863
1 0.708766 0.29633
1 1 1
0 0.803326 0
0 0.805325 0
0 0.806607 0
0.180179 0.802991 0
0.921447 0.782879 0
1 0.91136 0
1 0.94374 0
1 1 0.119875
1 1 1
0 1 0
0 1 0
0.0267643 1 0
0.280827 1 0
0.986633 1 0
1 1 0
1 1 0
1 1 0.134829
1 1 1
0 1 0
0.0536202 1 0
0.136584 1 0
0.391714 1 0
1 1 0
1 1 0
1 1 0
1 1 0.260456
1 1 1
0.336049 1 0.324392
0.394369 1 0.318486
0.476066 1 0.310124
0.738567 1 0.281147
1 1 0.236698
1 1 0.266438
1 1 0.360082
1 1 0.647837
1 1 1
1 1 1
1 1 1
1 1 1
1 1 1
1 1 1
1 1 1
1 1 1
1 1 1
1 1 1
0 0 0
0 0 0
0 0 0
0.178424 0 0
0.835386 0 0
1 0.174777 0.160418
1 0.215427 0.205646
1 0.460472 0.482002
1 1 1
0 0 0
0 0 0
0 0 0
0.176928 0 0
0.853803 0 0
1 0.215625 0.163073
1 0.252247 0.19028
1 0.497307 0.466636
1 1 1
0 0 0
0 0 0
0 0 0
0.174853 0 0
0.875334 0 0
1 0.271794 0.165133
1 0.303471 0.168887
1 0.548165 0.446174
1 1 1
0 0.144594 0
0 0.14023 0
0 0.135958 0
0.181003 0.141924 0
0.918425 0.165286 0
1 0.439384 0.161532
1 0.459983 0.103746
1 0.705547 0.37879
1 1 1
0 0.806836 0
0 0.808164 0
0 0.808591 0
0.174105 0.802991 0
0.928405 0.783261 0
1 0.90927 0.0579232
1 0.940536 0
1 1 0.20235
1 1 1
0 1 0
0 1 0
0.0235752 1 0
0.277638 1 0
0.983429 1 0
1 1 0
1 1 0
1 1 0.217304
1 1 1
0 1 0.0284123
0.0504311 1 0.0221714
0.133394 1 0.0134737
0.388525 1 0
1 1 0
1 1 0
1 1 0.0512703
1 1 0.342931
1 1 1
0.333074 1 0.403998
0.391394 1 0.398108
0.473106 1 0.389746
0.735607 1 0.360739
1 1 0.316243
1 1 0.345846
1 1 0.438056
1 1 0.729427
1 1 1
1 1 1
1 1 1
1 1 1
1 1 1
1 1 1
1 1 1
1 1 1
1 1 1
1 1 1
0 0 0
0 0 0
0 0 0
0.173632 0 0
0.858106 0 0
1 0.17438 0.246433
1 0.210956 0.320363
1 0.456245 0.59379
1 1 1
0 0 0
0 0 0
0 0 0
0.170092 0 0
0.87422 0 0
1 0.215061 0.249531
1 0.247791 0.304997
1 0.493065 0.578408
1 1 1
0 0 0
0 0 0
0 0 0
0.164172 0 0
0.893187 0 0
1 0.27071 0.251926
1 0.299016 0.283619
1 0.543938 0.557931
1 1 1
0 0.138857 0
0 0.13254 0
0 0.124712 0
0.160189 0.123812 0
0.929824 0.161074 0
1 0.438178 0.250614
1 0.455512 0.218463
1 0.70132 0.490517
1 1 1
0 0.808759 0
0 0.809262 0
0 0.808713 0
0.169558 0.80177 0
0.932525 0.781613 0
1 0.906142 0.15172
1 0.936065 0.0328527
1 1 0.314
1 1 1
0 1 0.0216526
0 1 0.0153964
0.0191348 1 0.00669871
0.273213 1 0
0.978973 1 0
1 1 0
1 1 0.0403754
1 1 0.328176
1 1 1
0 1 0.143145
0.0459907 1 0.136904
0.128969 1 0.128206
0.3841 1 0.101198
1 1 0.0444495
1 1 0.071107
1 1 0.16318
1 1 0.45272
1 1 1
0.328801 1 0.516808
0.387091 1 0.510933
0.468818 1 0.502586
0.731289 1 0.47364
1 1 0.429313
1 1 0.459464
1 1 0.55404
1 1 0.849195
1 1 1
1 1 1
1 1 1
1 1 1
1 1 1
1 1 1
1 1 1
1 1 1
1 1 1
1 1 1
0 0 0.237446
0 0 0.23476
0 0 0.231388
0.175265 0 0.230442
0.8851 0 0.258091
1 0.172107 0.510704
1 0.197116 0.673732
1 0.44184 0.954253
1 1 1
0 0 0.23714
0 0 0.233417
0 0 0.228412
0.171328 0 0.225055
0.897963 0 0.261158
1 0.21239 0.515282
1 0.233936 0.658396
1 0.47866 0.938918
1 1 1
0 0 0.236744
0 0 0.23122
0 0 0.223331
0.162631 0 0.21442
0.911543 0 0.263661
1 0.267903 0.520195
1 0.285161 0.637064
1 0.529519 0.918517
1 1 1
0 0.147906 0.245029
0 0.140505 0.234836
0 0.128161 0.21799
0.134524 0.10164 0.181979
0.933776 0.153628 0.263966
1 0.433494 0.524361
1 0.441642 0.572045
1 0.6869 0.851225
1 1 1
0 0.806699 0.254429
0 0.805966 0.250111
0 0.803723 0.245258
0.16846 0.791394 0.237385
0.924559 0.772107 0.196323
1 0.896376 0.441459
1 0.922148 0.386908
1 1 0.675212
1 1 1
0 1 0.374487
0 1 0.368246
0.00541695 1 0.359579
0.259495 1 0.332937
0.965179 1 0.27274
1 1 0.300023
1 1 0.395239
1 1 0.690684
1 1 1
0 1 0.498421
0.0320897 1 0.49218
0.115053 1 0.483513
0.370199 1 0.45658
1 1 0.400244
1 1 0.428687
1 1 0.523186
1 1 0.817563
1 1 1
0.314137 1 0.881636
0.372396 1 0.875776
0.45417 1 0.867399
0.716594 1 0.838437
1 1 0.794079
1 1 0.824033
1 1 0.917128
1 1 1
1 1 1
1 1 1
1 1 1
1 1 1
1 1 1
1 1 1
1 1 1
1 1 1
1 1 1
1 1 1
0 0 0.828824
0 0 0.850935
0 0 0.879286
0.179416 0 0.9364
0.825437 0 0.947021
1 0.179065 1
1 0.176196 1
1 0.424552 1
1 1 1
0 0 0.849409
0 0 0.872587
0 0 0.901503
0.185687 0 0.963455
0.856138 0 0.982742
1 0.21828 1
1 0.213046 1
1 0.461402 1
1 1 1
0 0 0.876005
0 0 0.90193
0 0 0.93402
0.191943 0 0.994553
0.891188 0 1
1 0.272435 1
1 0.264286 1
1 0.51223 1
1 1 1
0 0.159762 0.960678
0 0.160067 0.98555
0 0.15967 1
0.198688 0.155184 1
0.942672 0.155032 1
1 0.43389 1
1 0.420874 1
1 0.669749 1
1 1 1
0 0.784939 1
0 0.791012 1
0 0.795895 1
0.147616 0.790799 1
0.744717 0.614725 0.877379
1 0.854658 1
1 0.901579 1
1 1 1
1 1 1
0 1 1
0 1 1
0 1 1
0.238376 1 1
0.665675 1 0.8663
1 1 0.822278
1 1 1
1 1 1
1 1 1
0 1 1
0.0131075 1 1
0.0960861 1 1
0.351324 1 1
1 1 1
1 1 1
1 1 1
1 1 1
1 1 1
0.302174 1 1
0.360281 1 1
0.442252 1 1
0.70457 1 1
1 1 1
1 1 1
1 1 1
1 1 1
1 1 1
1 1 1
1 1 1
1 1 1
1 1 1
1 1 1
1 1 1
1 1 1
1 1 1
1 1 1
0 0 1
0.00737011 0 1
0.071046 0 1
0.269108 0.00582895 1
0.852934 0.046479 1
1 0.253834 1
1 0.198123 1
1 0.446693 1
1 1 1
0 0.0336614 1
0.0156405 0.0359503 1
0.0800336 0.0392615 1
0.279164 0.0492409 1
0.865171 0.0893568 1
1 0.290242 1
1 0.234958 1
1 0.483528 1
1 1 1
0 0.0942702 1
0.0272984 0.0966049 1
0.092195 0.0999619 1
0.292546 0.10988 1
0.881392 0.148836 1
1 0.340642 1
1 0.286213 1
1 0.534279 1
1 1 1
0.012726 0.282002 1
0.0598306 0.284199 1
0.125826 0.287327 1
0.329244 0.296147 1
0.923674 0.328176 1
1 0.487922 1
1 0.442832 1
1 0.691936 1
1 1 1
0.0472267 0.854597 1
0.0954299 0.854261 1
0.16289 0.853834 1
0.370199 0.850965 1
0.960708 0.844831 1
1 0.900938 1
1 0.92343 1
1 1 1
1 1 1
0 1 1
0 1 1
0.00691234 1 1
0.260777 1 1
0.865904 1 1
1 1 1
1 1 1
1 1 1
1 1 1
0 1 1
0.0359655 1 1
0.118242 1 1
0.37435 1 1
1 1 1
1 1 1
1 1 1
1 1 1
1 1 1
0.325277 1 1
0.3832 1 1
0.465431 1 1
0.727611 1 1
1 1 1
1 1 1
1 1 1
1 1 1
1 1 1
1 1 1
1 1 1
1 1 1
1 1 1
1 1 1
1 1 1
1 1 1
1 1 1
1 1 1
0.295033 0.326955 1
0.343664 0.326238 1
0.411673 0.325185 1
0.620798 0.320546 1
1 0.312032 1
1 0.337179 1
1 0.265904 1
1 0.514473 1
1 1 1
0.294423 0.365911 1
0.343389 0.365286 1
0.411261 0.363775 1
0.620768 0.358602 1
1 0.346975 1
1 0.36405 1
1 0.302754 1
1 0.551308 1
1 1 1
0.292821 0.420203 1
0.341527 0.418967 1
0.409674 0.417304 1
0.619104 0.410864 1
1 0.394522 1
1 0.400122 1
1 0.354009 1
1 0.602075 1
1 1 1
0.278294 0.580972 1
0.327169 0.579034 1
0.395102 0.575936 1
0.603128 0.564584 1
1 0.533547 1
1 0.499275 1
1 0.510719 1
1 0.759747 1
1 1 1
0.128786 1 1
0.177859 1 1
0.246113 1 1
0.457938 0.995605 1
1 0.932052 1
1 0.91191 1
1 0.990784 1
1 1 1
1 1 1
0 1 1
0 1 1
0.0773327 1 1
0.33167 1 1
1 1 1
1 1 1
1 1 1
1 1 1
1 1 1
0.0467384 1 1
0.106386 1 1
0.188525 1 1
0.445243 1 1
1 1 1
1 1 1
1 1 1
1 1 1
1 1 1
0.395697 1 1
0.45362 1 1
0.53608 1 1
0.798459 1 1
1 1 1
1 1 1
1 1 1
1 1 1
1 1 1
1 1 1
1 1 1
1 1 1
1 1 1
1 1 1
1 1 1
1 1 1
1 1 1
1 1 1
0.43917 0.477012 1
0.498787 0.470665 1
0.58172 0.461814 1
0.83621 0.434501 1
1 0.374426 1
1 0.397223 1
1 0.477028 1
1 0.725597 1
1 1 1
0.423697 0.513817 1
0.483314 0.507469 1
0.566247 0.498619 1
0.820752 0.47129 1
1 0.411276 1
1 0.434058 1
1 0.513863 1
1 0.762432 1
1 1 1
0.402167 0.565042 1
0.461784 0.558679 1
0.544701 0.549828 1
0.799252 0.522499 1
1 0.462516 1
1 0.485313 1
1 0.564843 1
1 0.813107 1
1 1 1
0.336385 0.721538 1
0.395987 0.71519 1
0.478904 0.70634 1
0.733486 0.679011 1
1 0.619181 1
1 0.641962 1
1 0.721935 1
1 0.971054 1
1 1 1
0.150118 1 1
0.209735 1 1
0.292699 1 1
0.547173 1 1
1 1 1
1 1 1
1 1 1
1 1 1
1 1 1
0.15404 1 1
0.213687 1 1
0.296666 1 1
0.552026 1 1
1 1 1
1 1 1
1 1 1
1 1 1
1 1 1
0.266072 1 1
0.325719 1 1
0.406989 1 1
0.665309 1 1
1 1 1
1 1 1
1 1 1
1 1 1
1 1 1
0.61503 1 1
0.672496 1 1
0.755505 1 1
1 1 1
1 1 1
1 1 1
1 1 1
1 1 1
1 1 1
1 1 1
1 1 1
1 1 1
1 1 1
1 1 1
1 1 1
1 1 1
1 1 1
1 1 1
1 1 1
1 1 1
1 1 1
1 1 1
1 1 1
1 1 1
1 1 1
1 1 1
1 1 1
1 1 1
1 1 1
1 1 1
1 1 1
1 1 1
1 1 1
1 1 1
1 1 1
1 1 1
1 1 1
1 1 1
1 1 1
1 1 1
1 1 1
1 1 1
1 1 1
1 1 1
1 1 1
0.999893 1 1
1 1 1
1 1 1
1 1 1
1 1 1
1 1 1
1 1 1
1 1 1
1 1 1
0.824842 1 1
0.884489 1 1
0.965255 1 1
1 1 1
1 1 1
1 1 1
1 1 1
1 1 1
1 1 1
0.837171 1 1
0.896819 1 1
0.97731 1 1
1 1 1
1 1 1
1 1 1
1 1 1
1 1 1
1 1 1
0.949203 1 1
1 1 1
1 1 1
1 1 1
1 1 1
1 1 1
1 1 1
1 1 1
1 1 1
1 1 1
1 1 1
1 1 1
1 1 1
1 1 1
1 1 1
1 1 1
1 1 1
1 1 1
1 1 1
1 1 1
1 1 1
1 1 1
1 1 1
1 1 1
1 1 1
1 1 1
1 1 1
