Assets/HMP LUTs/LUTs/HMPLUTs_Chocolata.cube
TITLE "Generated by Resolve"
LUT_3D_SIZE 9
0 0 0
0 0 0
0 0 0
0.205966 0 0
1 0 0
1 0 0.848447
1 0 1
1 0 1
1 0 1
0 0 0
0 0 0
0 0 0
0.20116 0 0
1 0 0
1 0 0.858732
1 0 1
1 0 1
1 0 1
0 0 0
0 0 0
0 0 0
0.19498 0 0
1 0 0.0119631
1 0 0.868696
1 0 1
1 0 1
1 0 1
0 0.176761 0
0 0.175097 0
0 0.171542 0
0.160342 0.15552 0
1 0.11812 0.0609903
1 0 0.878767
1 0 1
1 0 1
1 0 1
0 1 0.38909
0 1 0.390326
0 0.98996 0.389944
0.028748 0.940337 0.379507
0.905547 0.877623 0.476356
1 0.666453 1
1 0.260029 1
1 0 1
1 0 1
0 1 1
0 1 1
0 1 1
0 1 1
0.135653 1 1
1 1 1
1 1 1
1 1 1
1 0.806882 1
0 1 1
0 1 1
0 1 1
0 1 1
0 1 1
1 1 1
1 1 1
1 1 1
1 1 1
0 1 1
0 1 1
0 1 1
0 1 1
0 1 1
0 1 1
1 1 1
1 1 1
1 1 1
0 1 1
0 1 1
0 1 1
0 1 1
0 1 1
0 1 1
0 1 1
1 1 1
1 1 1
0 0 0
0 0 0
0 0 0
0.204761 0 0
1 0 0.0123598
1 0 0.899916
1 0 1
1 0 1
1 0 1
0 0 0
0 0 0
0 0 0
0.200092 0 0
1 0 0.0373846
1 0 0.910857
1 0 1
1 0 1
1 0 1
0 0 0
0 0 0
0 0 0
0.194522 0 0
1 0 0.0651102
1 0 0.920775
1 0 1
1 0 1
1 0 1
0 0.175616 0
0 0.173907 0
0 0.170306 0
0.159014 0.154192 0
1 0.116625 0.113573
1 0 0.930694
1 0 1
1 0 1
1 0 1
0 1 0.440818
0 0.999222 0.442039
0 0.987259 0.441627
0.0272068 0.93756 0.431128
0.902617 0.874754 0.527611
1 0.663203 1
1 0.256214 1
1 0 1
1 0 1
0 1 1
0 1 1
0 1 1
0 1 1
0.131853 1 1
1 1 1
1 1 1
1 1 1
1 0.79855 1
0 1 1
0 1 1
0 1 1
0 1 1
0 1 1
1 1 1
1 1 1
1 1 1
1 1 1
0 1 1
0 1 1
0 1 1
0 1 1
0 1 1
0 1 1
1 1 1
1 1 1
1 1 1
0 1 1
0 1 1
0 1 1
0 1 1
0 1 1
0 1 1
0 1 1
1 1 1
1 1 1
0 0 0
0 0 0
0 0 0
0.202625 0 0
1 0 0.0972152
1 0 0.982406
1 0 1
1 0 1
1 0 1
0 0 0
0 0 0
0 0 0
0.198169 0 0
1 0 0.121706
1 0 0.992599
1 0 1
1 0 1
1 0 1
0 0 0
0 0 0
0 0 0
0.193774 0 0
1 0 0.148959
1 0 1
1 0 1
1 0 1
1 0 1
0 0.17351 0.0268101
0 0.171771 0.0332036
0 0.168093 0.0412451
0.156634 0.151812 0.0599222
1 0.114076 0.196612
1 0 1
1 0 1
1 0 1
1 0 1
0 1 0.522316
0 0.994232 0.523507
0 0.982238 0.523079
0.0246738 0.932433 0.512459
0.897276 0.869505 0.608316
1 0.657404 1
1 0.249546 1
1 0 1
1 0 1
0 1 1
0 1 1
0 1 1
0 1 1
0.125231 1 1
1 1 1
1 1 1
1 1 1
1 0.784848 1
0 1 1
0 1 1
0 1 1
0 1 1
0 1 1
1 1 1
1 1 1
1 1 1
1 1 1
0 1 1
0 1 1
0 1 1
0 1 1
0 1 1
0 1 1
1 1 1
1 1 1
1 1 1
0 1 1
0 1 1
0 1 1
0 1 1
0 1 1
0 1 1
0 1 1
1 1 1
1 1 1
0 0 0.135058
0 0 0.140551
0 0 0.147921
0.194507 0 0.169802
1 0 0.385092
1 0 1
1 0 1
1 0 1
1 0 1
0 0 0.156039
0 0 0.162081
0 0 0.170382
0.190875 0 0.196811
1 0 0.408133
1 0 1
1 0 1
1 0 1
1 0 1
0 0 0.188037
0 0 0.195438
0 0 0.206256
0.191302 0 0.254292
1 0 0.433951
1 0 1
1 0 1
1 0 1
1 0 1
0 0.165225 0.314275
0 0.163333 0.320333
0 0.159472 0.327916
0.147509 0.142748 0.34551
1 0.104631 0.479133
1 0 1
1 0 1
1 0 1
1 0 1
0 0.980484 0.798947
0 0.974258 0.800076
0 0.962158 0.799542
0.0155489 0.912077 0.788602
0.87628 0.848936 0.882048
1 0.635111 1
1 0.224475 1
1 0 1
1 0 1
0 1 1
0 1 1
0 1 1
0 1 1
0.100175 1 1
1 1 1
1 1 1
1 1 1
1 0.736171 1
0 1 1
0 1 1
0 1 1
0 1 1
0 1 1
1 1 1
1 1 1
1 1 1
1 1 1
0 1 1
0 1 1
0 1 1
0 1 1
0 1 1
0 1 1
1 1 1
1 1 1
1 1 1
0 1 1
0 1 1
0 1 1
0 1 1
0 1 1
0 1 1
0 1 1
1 1 1
1 1 1
0 0 1
0 0 1
0 0 1
0.177356 0 1
1 0 1
1 0 1
1 0 1
1 0 1
1 0 1
0 0 1
0 0 1
0 0 1
0.180621 0 1
1 0 1
1 0 1
1 0 1
1 0 1
1 0 1
0 0 1
0 0 1
0 0 1
0.173693 0 1
1 0 1
1 0 1
1 0 1
1 0 1
1 0 1
0 0.142138 1
0 0.13991 1
0 0.135698 1
0.123308 0.118441 1
1 0.0772869 1
1 0 1
1 0 1
1 0 1
1 0 1
0 0.947158 1
0 0.940856 1
0 0.92871 1
0 0.878767 1
0.841108 0.814008 1
1 0.593072 1
1 0.163439 1
1 0 1
1 0 1
0 1 1
0 1 1
0 1 1
0 1 1
0.0505531 1 1
1 1 1
1 1 1
1 1 1
1 0.633066 1
0 1 1
0 1 1
0 1 1
0 1 1
0 1 1
1 1 1
1 1 1
1 1 1
1 1 1
0 1 1
0 1 1
0 1 1
0 1 1
0 1 1
0 1 1
1 1 1
1 1 1
1 1 1
0 1 1
0 1 1
0 1 1
0 1 1
0 1 1
0 1 1
0 1 1
1 1 1
1 1 1
0 0 1
0 0 1
0 0 1
0.05243 0 1
1 0 1
1 0 1
1 0 1
1 0 1
1 0 1
0 0 1
0 0 1
0 0 1
0.0454719 0 1
1 0 1
1 0 1
1 0 1
1 0 1
1 0 1
0 0 1
0 0 1
0 0 1
0.0316167 0 1
1 0 1
1 0 1
1 0 1
1 0 1
1 0 1
0 0 1
0 0 1
0 0 1
0 0 1
0.906828 0 1
1 0 1
1 0 1
1 0 1
1 0 1
0 0.812818 1
0 0.805966 1
0 0.793011 1
0 0.740658 1
0.695689 0.667765 1
1 0.431388 1
1 0 1
1 0 1
1 0 1
0 1 1
0 1 1
0 1 1
0 1 1
0 1 1
1 1 1
1 1 1
1 1 1
1 0.381369 1
0 1 1
0 1 1
0 1 1
0 1 1
0 1 1
1 1 1
1 1 1
1 1 1
1 1 1
0 1 1
0 1 1
0 1 1
0 1 1
0 1 1
0 1 1
1 1 1
1 1 1
1 1 1
0 1 1
0 1 1
0 1 1
0 1 1
0 1 1
0 1 1
0 1 1
1 1 1
1 1 1
0 0 1
0 0 1
0 0 1
0 0 1
0.972168 0 1
1 0 1
1 0 1
1 0 1
1 0 1
0 0 1
0 0 1
0 0 1
0 0 1
0.947524 0 1
1 0 1
1 0 1
1 0 1
1 0 1
0 0 1
0 0 1
0 0 1
0 0 1
0.900191 0 1
1 0 1
1 0 1
1 0 1
1 0 1
0 0 1
0 0 1
0 0 1
0 0 1
0.704875 0 1
1 0 1
1 0 1
1 0 1
1 0 1
0 0.538949 1
0 0.530938 1
0 0.516289 1
0 0.458579 1
0.395438 0.361639 1
1 0.0874952 1
1 0 1
1 0 1
1 0 1
0 1 1
0 1 1
0 1 1
0 1 1
0 1 1
1 1 1
1 1 1
1 1 1
1 0 1
0 1 1
0 1 1
0 1 1
0 1 1
0 1 1
1 1 1
1 1 1
1 1 1
1 1 1
0 1 1
0 1 1
0 1 1
0 1 1
0 1 1
0 1 1
1 1 1
1 1 1
1 1 1
0 1 1
0 1 1
0 1 1
0 1 1
0 1 1
0 1 1
0 1 1
1 1 1
1 1 1
0 0 1
0 0 1
0 0 1
0 0 1
0.60383 0 1
1 0 1
1 0 1
1 0 1
1 0 1
0 0 1
0 0 1
0 0 1
0 0 1
0.569757 0 1
1 0 1
1 0 1
1 0 1
1 0 1
0 0 1
0 0 1
0 0 1
0 0 1
0.508705 0 1
1 0 1
1 0 1
1 0 1
1 0 1
0 0 1
0 0 1
0 0 1
0 0 1
0.268452 0 1
1 0 1
1 0 1
1 0 1
1 0 1
0 0 1
0 0 1
0 0 1
0 0 1
0 0 1
1 0 1
1 0 1
1 0 1
1 0 1
0 1 1
0 1 1
0 1 1
0 1 1
0 1 1
1 1 1
1 1 1
1 1 1
1 0 1
0 1 1
0 1 1
0 1 1
0 1 1
0 1 1
1 1 1
1 1 1
1 1 1
1 1 1
0 1 1
0 1 1
0 1 1
0 1 1
0 1 1
0 1 1
1 1 1
1 1 1
1 1 1
0 1 1
0 1 1
0 1 1
0 1 1
0 1 1
0 1 1
0 1 1
1 1 1
1 1 1
0 0 1
0 0 1
0 0 1
0 0 1
0 0 1
1 0 1
1 0 1
1 0 1
1 0 1
0 0 1
0 0 1
0 0 1
0 0 1
0 0 1
1 0 1
1 0 1
1 0 1
1 0 1
0 0 1
0 0 1
0 0 1
0 0 1
0 0 1
1 0 1
1 0 1
1 0 1
1 0 1
0 0 1
0 0 1
0 0 1
0 0 1
0 0 1
1 0 1
1 0 1
1 0 1
1 0 1
0 0 1
0 0 1
0 0 1
0 0 1
0 0 1
1 0 1
1 0 1
1 0 1
1 0 1
0 1 1
0 1 1
0 1 1
0 1 1
0 1 1
1 1 1
1 0.838666 1
1 0 1
1 0 1
0 1 1
0 1 1
0 1 1
0 1 1
0 1 1
0 1 1
1 1 1
1 1 1
1 1 1
0 1 1
0 1 1
0 1 1
0 1 1
0 1 1
0 1 1
1 1 1
1 1 1
1 1 1
0 1 1
0 1 1
0 1 1
0 1 1
0 1 1
0 1 1
0 1 1
1 1 1
1 1 1
