Assets/HMP LUTs/LUTs/HMPLUTs_Saturno.cube
TITLE "Generated by Resolve"
LUT_3D_SIZE 9
0 0 0
0 0 0
0 0 0
0 0 0
0.138933 0.00509651 0.0195468
1 0 0.00386053
1 0 0
1 0 0
1 0 0
0 0 0
0 0 0
0 0 0
0 0 0
0.152483 0.0209049 0.0315099
1 0 0.0172732
1 0 0
1 0 0
1 0 0
0 0 0
0 0 0
0 0 0
0.0139315 0.00111391 0.0077821
0.173831 0.0446937 0.0501564
1 0.000762951 0.0377661
1 0 0
1 0 0
1 0 0
0.0382239 0.0433204 0.0403296
0.0459602 0.046952 0.0437324
0.0564889 0.0527047 0.0491035
0.0841688 0.0730449 0.0679026
0.249119 0.121218 0.114488
1 0.0821241 0.106538
1 0 0
1 0 0
1 0 0
0.291905 0.294453 0.255833
0.300145 0.298543 0.259678
0.311421 0.304952 0.265644
0.341176 0.327199 0.286198
0.511345 0.380102 0.337133
1 0.350286 0.337697
1 0 0
1 0 0
1 0 0
0.451698 1 0.57847
0.460349 1 0.58265
0.472236 1 0.589136
0.503883 1 0.611246
0.679713 1 0.666926
1 1 0.680079
1 0 0
1 0 0
1 0 0
0 1 0
0 1 0
0 1 0
0 1 0
0 1 0
0 1 0
0.169589 1 0
1 0 0
1 0 0
0 1 0
0 1 0
0 1 0
0 1 0
0 1 0
0 1 0
0 1 0
0 1 0
1 0 0
0 1 0
0 1 0
0 1 0
0 1 0
0 1 0
0 1 0
0 1 0
0 1 0
0 1 0
0 0 0
0 0 0
0 0 0
0 0 0
0.140536 0.00656138 0.0211337
1 0 0.00560006
1 0 0
1 0 0
1 0 0
0 0 0
0 0 0
0 0 0
0 0 0
0.154116 0.0224002 0.0331273
1 0 0.0190127
1 0 0
1 0 0
1 0 0
0 0 0
0 0 0
0 0 0
0.0153811 0.00242618 0.00923171
0.175509 0.0462196 0.0518044
1 0.00241093 0.0395209
1 0 0
1 0 0
1 0 0
0.0398566 0.0448157 0.0419165
0.0475929 0.0484474 0.0453498
0.0581369 0.0542 0.050721
0.0858473 0.0745708 0.0695506
0.250858 0.122805 0.116182
1 0.0837873 0.108309
1 0 0
1 0 0
1 0 0
0.293706 0.296086 0.257588
0.301961 0.300191 0.261418
0.313222 0.3066 0.267399
0.342992 0.328847 0.287953
0.513176 0.381781 0.338903
1 0.351995 0.339513
1 0 0
1 0 0
1 0 0
0.453651 1 0.580331
0.462303 1 0.584512
0.474174 1 0.590997
0.505821 1 0.613108
0.681666 1 0.668788
1 1 0.681956
1 0 0
1 0 0
1 0 0
0 1 0
0 1 0
0 1 0
0 1 0
0 1 0
0 1 0
0.171695 1 0
1 0 0
1 0 0
0 1 0
0 1 0
0 1 0
0 1 0
0 1 0
0 1 0
0 1 0
0 1 0
1 0 0
0 1 0
0 1 0
0 1 0
0 1 0
0 1 0
0 1 0
0 1 0
0 1 0
0 1 0
0 0 0
0 0 0
0 0 0
0 0 0
0.142977 0.00877394 0.0232395
1 0 0.00793469
1 0 0
1 0 0
1 0 0
0 0 0
0 0 0
0 0 0
0 0 0
0.156603 0.0246433 0.0352636
1 0 0.0213626
1 0 0
1 0 0
1 0 0
0 0 0
0 0 0
0 0 0
0.0176089 0.00445563 0.0111543
0.178042 0.0485237 0.0539712
1 0.00489815 0.0418708
1 0 0
1 0 0
1 0 0
0.0423133 0.0470436 0.0440375
0.0500649 0.0506905 0.0474708
0.0606394 0.0564736 0.0528725
0.0883803 0.0768749 0.0717327
0.253483 0.125185 0.118441
1 0.086305 0.110689
1 0 0
1 0 0
1 0 0
0.296437 0.298558 0.259922
0.304677 0.302663 0.263767
0.315953 0.309071 0.269749
0.345739 0.331334 0.290303
0.515953 0.384283 0.341283
1 0.354574 0.341955
1 0 0
1 0 0
1 0 0
0.45658 1 0.582849
0.465232 1 0.58703
0.477104 1 0.593515
0.508751 1 0.615625
0.684611 1 0.671321
1 1 0.684504
1 0 0
1 0 0
1 0 0
0 1 0
0 1 0
0 1 0
0 1 0
0 1 0
0 1 0
0.174884 1 0
1 0 0
1 0 0
0 1 0
0 1 0
0 1 0
0 1 0
0 1 0
0 1 0
0 1 0
0 1 0
1 0 0
0 1 0
0 1 0
0 1 0
0 1 0
0 1 0
0 1 0
0 1 0
0 1 0
0 1 0
0 0 0
0 0 0
0 0 0
0 0 0
0.150591 0.0157321 0.0320745
1 0 0.0174716
1 0 0
1 0 0
1 0 0
0 0 0
0 0 0
0 0 0
0.00669871 0 0.00369268
0.164355 0.0317235 0.0442054
1 0 0.0309148
1 0 0
1 0 0
1 0 0
0 0 0
0 0 0
0.000274662 0 0.0034638
0.0246891 0.0109255 0.0195468
0.185931 0.0557412 0.0630503
1 0.012665 0.0514534
1 0 0
1 0 0
1 0 0
0.0500038 0.0540627 0.0529335
0.0577859 0.0577554 0.0563973
0.0684062 0.0635691 0.0618296
0.0962997 0.0841077 0.0808118
0.261662 0.132662 0.127749
1 0.0941634 0.120363
1 0 0
1 0 0
1 0 0
0.304921 0.30631 0.269474
0.313176 0.310414 0.273335
0.324453 0.316838 0.279316
0.354269 0.339117 0.299901
0.52459 0.392172 0.350973
1 0.362661 0.351827
1 0 0
1 0 0
1 0 0
0.465721 1 0.59295
0.474372 1 0.597131
0.486244 1 0.603616
0.517906 1 0.625742
0.693812 1 0.681468
1 1 0.694743
1 0 0
1 0 0
1 0 0
0 1 0
0 1 0
0 1 0
0 1 0
0 1 0
0 1 0
0.184833 1 0
1 0 0
1 0 0
0 1 0
0 1 0
0 1 0
0 1 0
0 1 0
0 1 0
0 1 0
0 1 0
1 0 0
0 1 0
0 1 0
0 1 0
0 1 0
0 1 0
0 1 0
0 1 0
0 1 0
0 1 0
0 0 0.073167
0 0 0.076463
0 0 0.0815442
0.00865187 0 0.0978408
0.168032 0.0331121 0.139788
1 0 0.127169
1 0 0
1 0 0
1 0 0
0 0 0.0846113
0 0 0.0877394
0 0 0.0924697
0.0207828 0.00450141 0.108614
0.182116 0.0494087 0.152209
1 0.00642405 0.140688
1 0 0
1 0 0
1 0 0
0 0 0.10042
0.0043946 0.00263981 0.103487
0.014435 0.00793469 0.108446
0.0410163 0.0272831 0.126345
0.204105 0.0737621 0.171374
1 0.0323949 0.161318
1 0 0
1 0 0
1 0 0
0.0676127 0.0715953 0.1608
0.0755016 0.0753796 0.16434
0.086244 0.0813153 0.169894
0.114488 0.102174 0.189166
0.280674 0.151461 0.236774
1 0.114183 0.230503
1 0 0
1 0 0
1 0 0
0.324819 0.325917 0.379248
0.333089 0.330053 0.383124
0.344411 0.336507 0.389136
0.374334 0.358892 0.409812
0.544961 0.412207 0.461128
1 0.383368 0.462608
1 0 0
1 0 0
1 0 0
0.487694 1 0.704448
0.496361 1 0.708644
0.508247 1 0.715145
0.53994 1 0.737301
0.715938 1 0.793103
1 1 0.806622
1 0 0
1 0 0
1 0 0
0 1 0
0 1 0
0 1 0
0 1 0
0 1 0
0 1 0
0.209415 1 0
1 0 0
1 0 0
0 1 0
0 1 0
0 1 0
0 1 0
0 1 0
0 1 0
0 1 0
0 1 0
1 0 0
0 1 0
0 1 0
0 1 0
0 1 0
0 1 0
0 1 0
0 1 0
0 1 0
0 1 0
0 0 1
0 0 1
0 0 1
0 0 1
0.0468757 0 1
1 0 1
1 0 0.788708
1 0 0
1 0 0
0 0 1
0 0 1
0 0 1
0 0 1
0.0616159 0 1
1 0 1
1 0 0.803357
1 0 0
1 0 0
0 0 1
0 0 1
0 0 1
0 0 1
0.0844434 0.00308232 1
1 0 1
1 0 0.82565
1 0 0
1 0 0
0 0 1
0 0.0037995 1
0 0.00999466 1
0 0.0315557 1
0.163027 0.0825971 1
1 0.048661 1
1 0 0.899718
1 0 0
1 0 0
0.209613 0.259266 1
0.21796 0.263462 1
0.229374 0.270008 1
0.259602 0.292668 1
0.431098 0.346777 1
1 0.319905 1
1 0 1
1 0 0
1 0 0
0.378698 1 1
0.387381 1 1
0.399298 1 1
0.431113 1 1
0.607431 1 1
1 1 1
1 0 1
1 0 0
1 0 0
0 1 0
0 1 0
0 1 0
0 1 0
0 1 0
0 1 0
0.10869 1 0
1 0 0
1 0 0
0 1 0
0 1 0
0 1 0
0 1 0
0 1 0
0 1 0
0 1 0
0 1 0
1 0 0
0 1 0
0 1 0
0 1 0
0 1 0
0 1 0
0 1 0
0 1 0
0 1 0
0 1 0
0 0 1
0 0 1
0 0 1
0 0 1
0 0 1
0 0 1
1 0 1
1 0 1
1 0 0
0 0 1
0 0 1
0 0 1
0 0 1
0 0 1
0 0 1
1 0 1
1 0 1
1 0 0
0 0 1
0 0 1
0 0 1
0 0 1
0 0 1
0 0 1
1 0 1
1 0 1
1 0 0
0 0 1
0 0 1
0 0 1
0 0 1
0 0 1
0 0 1
1 0 1
1 0 1
1 0 0
0 0 1
0 0 1
0 0 1
0 0 1
0 0 1
0 0 1
1 0 1
1 0 1
1 0 0
0 0 1
0 0 1
0 0 1
0 0 1
0 0 1
0 0 1
1 0 1
1 0 1
1 0 0
0 1 1
0 1 1
0 1 1
0 1 1
0 1 1
0 1 1
0 1 1
1 0 1
1 0 0
0 1 0
0 1 0
0 1 0
0 1 0
0 1 0
0 1 0
0 1 0
0 1 0
1 0 0
0 1 0
0 1 0
0 1 0
0 1 0
0 1 0
0 1 0
0 1 0
0 1 0
0 1 0
0 0 1
0 0 1
0 0 1
0 0 1
0 0 1
0 0 1
0 0 1
1 0 1
1 0 1
0 0 1
0 0 1
0 0 1
0 0 1
0 0 1
0 0 1
0 0 1
1 0 1
1 0 1
0 0 1
0 0 1
0 0 1
0 0 1
0 0 1
0 0 1
0 0 1
1 0 1
1 0 1
0 0 1
0 0 1
0 0 1
0 0 1
0 0 1
0 0 1
0 0 1
1 0 1
1 0 1
0 0 1
0 0 1
0 0 1
0 0 1
0 0 1
0 0 1
0 0 1
1 0 1
1 0 1
0 0 1
0 0 1
0 0 1
0 0 1
0 0 1
0 0 1
0 0 1
1 0 1
1 0 1
0 0 1
0 0 1
0 0 1
0 0 1
0 0 1
0 0 1
0 0 1
0 0 1
1 0 1
0 1 1
0 1 1
0 1 1
0 1 1
0 1 1
0 1 1
0 1 1
0 1 1
1 0 1
0 1 0
0 1 0
0 1 0
0 1 0
0 1 0
0 1 0
0 1 0
0 1 0
0 1 0
0 0 1
0 0 1
0 0 1
0 0 1
0 0 1
0 0 1
0 0 1
0 0 1
0 0 1
0 0 1
0 0 1
0 0 1
0 0 1
0 0 1
0 0 1
0 0 1
0 0 1
0 0 1
0 0 1
0 0 1
0 0 1
0 0 1
0 0 1
0 0 1
0 0 1
0 0 1
0 0 1
0 0 1
0 0 1
0 0 1
0 0 1
0 0 1
0 0 1
0 0 1
0 0 1
0 0 1
0 0 1
0 0 1
0 0 1
0 0 1
0 0 1
0 0 1
0 0 1
0 0 1
0 0 1
0 0 1
0 0 1
0 0 1
0 0 1
0 0 1
0 0 1
0 0 1
0 0 1
0 0 1
0 0 1
0 0 1
0 0 1
0 0 1
0 0 1
0 0 1
0 0 1
0 0 1
0 0 1
0 0 1
0 0 1
0 0 1
0 0 1
0 0 1
0 0 1
0 0 1
0 0 1
0 0 1
0 1 1
0 1 1
0 1 1
0 1 1
0 1 1
0 1 1
0 1 1
0 1 1
0 0 1
