Assets/HMP LUTs/LUTs/HMPLUTs_Quica.cube
TITLE "Generated by Resolve"
LUT_3D_SIZE 9
0.00190738 0 0.0080415
0.0259556 0 0.0062562
0.0613718 0 0.00369268
0.177127 0 0
0.546181 0 0
1 0 0
1 0.349767 0.409781
1 1 1
1 1 1
0 0 0.00376898
0.0216831 0 0.00196841
0.057084 0 0
0.172686 0 0
0.541939 0 0
1 0 0
1 0.380285 0.416907
1 1 1
1 1 1
0 0 0
0.0156252 0 0
0.0507362 0 0
0.167193 0 0
0.535775 0 0
1 0 0
1 0.425696 0.427893
1 1 1
1 1 1
0 0.0878767 0
0 0.0860151 0
0.0306096 0.0834363 0
0.146242 0.0744182 0
0.512993 0.0464332 0
1 0.0643015 0
1 0.57142 0.460929
1 1 1
1 1 1
0 0.373251 0
0 0.371405 0
0 0.368872 0
0.0928511 0.360296 0
0.464164 0.336873 0
1 0.415579 0
1 1 0.58764
1 1 1
1 1 1
0 1 0
0 1 0
0.0198367 1 0
0.151766 1 0
0.572381 1 0
1 1 0.183307
1 1 0.818341
1 1 1
1 1 1
0.484245 1 0.490379
0.511681 1 0.491981
0.552163 1 0.494499
0.684092 1 0.501762
1 1 0.527642
1 1 0.715618
1 1 1
1 1 1
1 1 1
1 1 1
1 1 1
1 1 1
1 1 1
1 1 1
1 1 1
1 1 1
1 1 1
1 1 1
1 1 1
1 1 1
1 1 1
1 1 1
1 1 1
1 1 1
1 1 1
1 1 1
1 1 1
0.00120546 0 0.0345617
0.0252537 0 0.0327611
0.0606546 0 0.0302129
0.176425 0 0.0213321
0.545525 0 0
1 0 0.00885023
1 0.35021 0.437446
1 1 1
1 1 1
0 0 0.0302739
0.0209659 0 0.0284886
0.0563821 0 0.0259251
0.171878 0 0.0167849
0.541268 0 0
1 0 0.00457771
1 0.380728 0.444572
1 1 1
1 1 1
0 0 0.0242161
0.0149081 0 0.0224155
0.0501259 0 0.0196841
0.166567 0 0.0114748
0.535073 0 0
1 0 0
1 0.426139 0.455558
1 1 1
1 1 1
0 0.0872053 0.00393683
0 0.0853437 0.00205997
0.0299382 0.0827649 0
0.145525 0.0737011 0
0.512261 0.0457008 0
1 0.0636759 0
1 0.571862 0.488594
1 1 1
1 1 1
0 0.372396 0
0 0.370733 0
0 0.368215 0
0.0922103 0.359655 0
0.463615 0.336324 0
1 0.415732 0
1 1 0.615305
1 1 1
1 1 1
0 1 0
0 1 0
0.0202792 1 0
0.152209 1 0
0.572824 1 0.0229953
1 1 0.210971
1 1 0.846006
1 1 1
1 1 1
0.484688 1 0.518044
0.512139 1 0.519646
0.552605 1 0.522164
0.684535 1 0.529427
1 1 0.555306
1 1 0.743282
1 1 1
1 1 1
1 1 1
1 1 1
1 1 1
1 1 1
1 1 1
1 1 1
1 1 1
1 1 1
1 1 1
1 1 1
1 1 1
1 1 1
1 1 1
1 1 1
1 1 1
1 1 1
1 1 1
1 1 1
1 1 1
0.000183108 0 0.0737316
0.0242161 0 0.071931
0.0596323 0 0.0693828
0.175387 0 0.060502
0.544503 0 0.0348669
1 0 0.0480659
1 0.350912 0.47834
1 1 1
1 1 1
0 0 0.0694438
0.0199435 0 0.0676585
0.0553445 0 0.0651102
0.170993 0 0.0560922
0.540108 0 0.0304723
1 0 0.0438239
1 0.381415 0.485466
1 1 1
1 1 1
0 0 0.063386
0.013611 0 0.061326
0.0492409 0 0.0589914
0.165652 0 0.0507668
0.533898 0 0.0242618
1 0 0.037995
1 0.426841 0.496452
1 1 1
1 1 1
0 0.0860609 0.0429847
0 0.0843671 0.0412909
0.0289616 0.0817884 0.0387121
0.144518 0.072694 0.0296178
0.51107 0.0445106 0.00143435
1 0.0628672 0.019791
1 0.572564 0.529488
1 1 1
1 1 1
0 0.371435 0
0 0.369589 0
0 0.367071 0
0.0912032 0.358633 0
0.462837 0.335546 0
1 0.4159 0.0335699
1 1 0.656199
1 1 1
1 1 1
0 1 0.026627
0 1 0.0282139
0.0209812 1 0.0307317
0.152911 1 0.0380102
0.57351 1 0.0638895
1 1 0.251865
1 1 0.8869
1 1 1
1 1 1
0.48539 1 0.558938
0.512825 1 0.56054
0.553292 1 0.563043
0.685222 1 0.570321
1 1 0.596201
1 1 0.784176
1 1 1
1 1 1
1 1 1
1 1 1
1 1 1
1 1 1
1 1 1
1 1 1
1 1 1
1 1 1
1 1 1
1 1 1
1 1 1
1 1 1
1 1 1
1 1 1
1 1 1
1 1 1
1 1 1
1 1 1
1 1 1
0 0 0.201373
0.020737 0 0.199588
0.0561379 0 0.197024
0.171908 0 0.188144
0.540963 0 0.162463
1 0 0.175708
1 0.352911 0.611475
1 1 1
1 1 1
0 0 0.197101
0.0164645 0 0.1953
0.0518654 0 0.192752
0.167758 0 0.183993
0.536599 0 0.158099
1 0 0.171496
1 0.383429 0.618601
1 1 1
1 1 1
0 0 0.190753
0.0103761 0 0.189227
0.0459907 0 0.186877
0.16231 0 0.178546
0.530312 0 0.151812
1 0 0.165789
1 0.42884 0.629587
1 1 1
1 1 1
0 0.0825513 0.170611
0 0.0808576 0.168933
0.0254368 0.0782635 0.166323
0.140932 0.0691081 0.157183
0.507393 0.0408331 0.128893
1 0.0599527 0.148013
1 0.574563 0.662623
1 1 1
1 1 1
0 0.367987 0.116793
0 0.366155 0.114961
0 0.36379 0.112596
0.0878309 0.355261 0.104067
0.460014 0.332723 0.0815137
1 0.416495 0.165286
1 1 0.789334
1 1 1
1 1 1
0 1 0.159762
0 1 0.161349
0.0229801 1 0.163867
0.15491 1 0.171145
0.575525 1 0.197024
1 1 0.385
1 1 1
1 1 1
1 1 1
0.487388 1 0.692073
0.514824 1 0.693675
0.555291 1 0.696193
0.687221 1 0.703456
1 1 0.729335
1 1 0.917311
1 1 1
1 1 1
1 1 1
1 1 1
1 1 1
1 1 1
1 1 1
1 1 1
1 1 1
1 1 1
1 1 1
1 1 1
1 1 1
1 1 1
1 1 1
1 1 1
1 1 1
1 1 1
1 1 1
1 1 1
1 1 1
0 0 0.622446
0.00892653 0 0.620645
0.0440681 0 0.617838
0.160525 0 0.609644
0.529046 0 0.583413
1 0 0.596963
1 0.358938 1
1 1 1
1 1 1
0 0 0.617945
0.00469978 0 0.616419
0.0403143 0 0.614084
0.156603 0 0.605722
0.52459 0 0.578958
1 0 0.592981
1 0.389456 1
1 1 1
1 1 1
0 0 0.612619
0 0 0.611032
0.0348363 0 0.608591
0.15082 0 0.599939
0.518135 0 0.572519
1 0 0.58761
1 0.434867 1
1 1 1
1 1 1
0 0.0706188 0.591546
0 0.0688029 0.589746
0.0133822 0.0662089 0.587152
0.12874 0.0569162 0.577859
0.495018 0.0284581 0.549401
1 0.0504768 0.57142
1 0.580591 1
1 1 1
1 1 1
0 0.356588 0.538277
0 0.354818 0.536492
0 0.352438 0.534112
0.076936 0.344366 0.526055
0.450752 0.323445 0.505119
1 0.418219 0.599893
1 1 1
1 1 1
1 1 1
0 1 0.598672
0 1 0.600259
0.0290074 1 0.602777
0.160937 1 0.610056
0.581552 1 0.635935
1 1 0.823911
1 1 1
1 1 1
1 1 1
0.493416 1 1
0.520867 1 1
0.561334 1 1
0.693263 1 1
1 1 1
1 1 1
1 1 1
1 1 1
1 1 1
1 1 1
1 1 1
1 1 1
1 1 1
1 1 1
1 1 1
1 1 1
1 1 1
1 1 1
1 1 1
1 1 1
1 1 1
1 1 1
1 1 1
1 1 1
1 1 1
1 1 1
1 1 1
0.0040589 0 1
0.0280308 0 1
0.0634165 0 1
0.179004 0 1
0.545678 0 1
1 0 1
1 0.435065 1
1 1 1
1 1 1
0 0 1
0.0237278 0 1
0.0590524 0 1
0.174517 0 1
0.540978 0 1
1 0 1
1 0.465583 1
1 1 1
1 1 1
0 0 1
0.0174258 0 1
0.0527047 0 1
0.168032 0 1
0.534295 0 1
1 0 1
1 0.510994 1
1 1 1
1 1 1
0 0.0872206 1
0 0.0852369 1
0.0296788 0.0825055 1
0.144884 0.0730602 1
0.511666 0.0451057 1
1 0.0813458 1
1 0.656718 1
1 1 1
1 1 1
0 0.378714 1
0 0.377386 1
0 0.375555 1
0.101732 0.369177 1
0.482551 0.355261 1
1 0.488884 1
1 1 1
1 1 1
1 1 1
0.0372168 1 1
0.0646677 1 1
0.105135 1 1
0.237064 1 1
0.657679 1 1
1 1 1
1 1 1
1 1 1
1 1 1
0.569543 1 1
0.596979 1 1
0.637446 1 1
0.769375 1 1
1 1 1
1 1 1
1 1 1
1 1 1
1 1 1
1 1 1
1 1 1
1 1 1
1 1 1
1 1 1
1 1 1
1 1 1
1 1 1
1 1 1
1 1 1
1 1 1
1 1 1
1 1 1
1 1 1
1 1 1
1 1 1
1 1 1
1 1 1
0.0735485 0.0196841 1
0.0977798 0.0180667 1
0.133288 0.0156252 1
0.249577 0.00726329 1
0.622034 0 1
1 0.0717327 1
1 0.697002 1
1 1 1
1 1 1
0.0695506 0.0390631 1
0.0936294 0.0372778 1
0.129198 0.0348974 1
0.245853 0.0269169 1
0.619364 0.00569162 1
1 0.0996567 1
1 0.727504 1
1 1 1
1 1 1
0.0641489 0.068101 1
0.088304 0.0664073 1
0.12398 0.0641337 1
0.240925 0.0564279 1
0.616342 0.0370947 1
1 0.142031 1
1 0.772931 1
1 1 1
1 1 1
0.0478218 0.164462 1
0.072282 0.163058 1
0.108492 0.161318 1
0.227146 0.155322 1
0.610162 0.143603 1
1 0.284672 1
1 0.918639 1
1 1 1
1 1 1
0.0755169 0.531395 1
0.102327 0.532372 1
0.141894 0.533989 1
0.271534 0.538979 1
0.689754 0.562463 1
1 0.749584 1
1 1 1
1 1 1
1 1 1
0.299153 1 1
0.326589 1 1
0.367071 1 1
0.498985 1 1
0.9196 1 1
1 1 1
1 1 1
1 1 1
1 1 1
0.831464 1 1
0.858915 1 1
0.899382 1 1
1 1 1
1 1 1
1 1 1
1 1 1
1 1 1
1 1 1
1 1 1
1 1 1
1 1 1
1 1 1
1 1 1
1 1 1
1 1 1
1 1 1
1 1 1
1 1 1
1 1 1
1 1 1
1 1 1
1 1 1
1 1 1
1 1 1
1 1 1
1 1 1
0.742016 0.688136 1
0.769451 0.689738 1
0.809918 0.692241 1
0.941848 0.699519 1
1 0.725399 1
1 0.913375 1
1 1 1
1 1 1
1 1 1
0.749142 0.718654 1
0.776577 0.720241 1
0.81706 0.722759 1
0.948974 0.730037 1
1 0.755917 1
1 0.943893 1
1 1 1
1 1 1
1 1 1
0.760113 0.764065 1
0.787564 0.765667 1
0.828031 0.76817 1
0.95996 0.775448 1
1 0.801328 1
1 0.989303 1
1 1 1
1 1 1
1 1 1
0.793164 0.909789 1
0.8206 0.911376 1
0.861067 0.913893 1
0.992996 0.921172 1
1 0.947051 1
1 1 1
1 1 1
1 1 1
1 1 1
0.919875 1 1
0.947311 1 1
0.987793 1 1
1 1 1
1 1 1
1 1 1
1 1 1
1 1 1
1 1 1
1 1 1
1 1 1
1 1 1
1 1 1
1 1 1
1 1 1
1 1 1
1 1 1
1 1 1
1 1 1
1 1 1
1 1 1
1 1 1
1 1 1
1 1 1
1 1 1
1 1 1
1 1 1
1 1 1
1 1 1
1 1 1
1 1 1
1 1 1
1 1 1
1 1 1
1 1 1
1 1 1
1 1 1
1 1 1
1 1 1
1 1 1
1 1 1
1 1 1
1 1 1
1 1 1
1 1 1
1 1 1
1 1 1
1 1 1
1 1 1
1 1 1
1 1 1
1 1 1
1 1 1
1 1 1
1 1 1
1 1 1
1 1 1
1 1 1
1 1 1
1 1 1
1 1 1
1 1 1
1 1 1
1 1 1
1 1 1
1 1 1
1 1 1
1 1 1
1 1 1
1 1 1
1 1 1
1 1 1
1 1 1
1 1 1
1 1 1
1 1 1
1 1 1
1 1 1
1 1 1
1 1 1
1 1 1
1 1 1
1 1 1
1 1 1
1 1 1
1 1 1
1 1 1
1 1 1
1 1 1
1 1 1
1 1 1
1 1 1
1 1 1
1 1 1
1 1 1
1 1 1
1 1 1
1 1 1
1 1 1
1 1 1
1 1 1
1 1 1
1 1 1
1 1 1
1 1 1
1 1 1
1 1 1
1 1 1
1 1 1
1 1 1
1 1 1
1 1 1
1 1 1
1 1 1
1 1 1
1 1 1
1 1 1
1 1 1
1 1 1
1 1 1
1 1 1
1 1 1
1 1 1
1 1 1
1 1 1
1 1 1
