Assets/HMP LUTs/LUTs/HMPLUTs_Graeme.cube
TITLE "Generated by Resolve"
LUT_3D_SIZE 33
0 0 0
0 0 0
0 0 0
0 0 0
0 0 0
0 0 0
0 0 0
0 0 0
0 0 0
0 0 0
0.0378271 0 0
0.0949722 0 0
0.182452 0 0
0.311757 0 0
0.47921 0 0
0.664637 0 0
0.813611 0 0
0.923033 0 0
1 0.0106661 0
1 0.0856031 0.0114443
1 0.175372 0.0990616
1 0.267567 0.188525
1 0.337041 0.255512
1 0.322469 0.234989
1 0.218631 0.123186
1 0.256703 0.16611
1 0.307271 0.223148
1 0.374441 0.298894
1 0.463691 0.399542
1 0.582238 0.533242
1 0.739742 0.710857
1 0.948974 0.946807
1 1 1
0 0 0
0 0 0
0 0 0
0 0 0
0 0 0
0 0 0
0 0 0
0 0 0
0 0 0
0 0 0
0.0375067 0 0
0.094789 0 0
0.182422 0 0
0.311666 0 0
0.479255 0 0
0.666941 0 0
0.81883 0 0
0.929412 0 0
1 0.0213169 0
1 0.0962844 0.0129702
1 0.185397 0.0995651
1 0.276707 0.187701
1 0.344808 0.252781
1 0.328374 0.229206
1 0.227756 0.119387
1 0.265827 0.16231
1 0.316396 0.219333
1 0.383566 0.295094
1 0.472816 0.395727
1 0.591363 0.529442
1 0.748867 0.707057
1 0.957794 0.943786
1 1 1
0 0 0
0 0 0
0 0 0
0 0 0
0 0 0
0 0 0
0 0 0
0 0 0
0 0 0
0 0 0
0.0371405 0 0
0.0945907 0 0
0.182391 0 0
0.311589 0 0
0.479301 0 0
0.668772 0 0
0.823697 0 0
0.935546 0 0
1 0.032517 0
1 0.107362 0.0142977
1 0.195987 0.100023
1 0.286519 0.186908
1 0.352972 0.24976
1 0.334508 0.222858
1 0.237446 0.115328
1 0.275517 0.158267
1 0.326085 0.21529
1 0.393256 0.291051
1 0.482506 0.391684
1 0.601068 0.525383
1 0.758556 0.702998
1 0.967422 0.93991
1 1 1
0 0 0
0 0 0
0 0 0
0 0 0
0 0 0
0 0 0
0 0 0
0 0 0
0 0 0
0 0 0
0.0367895 0 0
0.0943923 0 0
0.182361 0 0
0.311543 0 0
0.479332 0 0
0.67039 0 0
0.828641 0 0
0.941375 0 0
1 0.043473 0
1 0.118212 0.0159457
1 0.206332 0.100755
1 0.295979 0.186328
1 0.360845 0.247059
1 0.340337 0.216846
1 0.246571 0.111528
1 0.284642 0.154452
1 0.33521 0.211475
1 0.40238 0.287236
1 0.49163 0.387884
1 0.610178 0.521584
1 0.767681 0.699199
1 0.976425 0.93637
1 1 1
0 0 0
0 0 0
0 0 0
0 0 0
0 0 0
0 0 0
0 0 0
0 0 0
0 0 0
0 0 0
0.0364385 0 0
0.0941939 0 0
0.182345 0 0
0.311543 0 0
0.478798 0 0
0.672389 0 0
0.832792 0 0
0.947234 0 0
1 0.0537118 0
1 0.128313 0.0170596
1 0.215976 0.10103
1 0.30486 0.185428
1 0.368215 0.244099
1 0.345815 0.210727
1 0.255451 0.10782
1 0.293523 0.150744
1 0.344091 0.207767
1 0.411261 0.283528
1 0.500511 0.384176
1 0.619058 0.517876
1 0.776287 0.696162
1 0.985199 0.932921
1 1 1
0 0 0
0 0 0
0 0 0
0 0 0
0 0 0
0 0 0
0 0 0
0 0 0
0 0 0
0 0 0
0.0360876 0 0
0.0940108 0 0
0.18233 0 0
0.311543 0 0
0.479362 0 0
0.673793 0 0
0.836942 0 0
0.952712 0 0
1 0.064271 0
1 0.138705 0.0185245
1 0.225849 0.101625
1 0.313939 0.184817
1 0.375708 0.241337
1 0.351278 0.204639
1 0.264225 0.104158
1 0.302281 0.147082
1 0.35285 0.204105
1 0.420035 0.279866
1 0.509285 0.380514
1 0.627832 0.514214
1 0.784939 0.69279
1 0.993881 0.929503
1 1 1
0 0 0
0 0 0
0 0 0
0 0 0
0 0 0
0 0 0
0 0 0
0 0 0
0 0 0
0 0 0
0.0356756 0 0
0.0937972 0 0
0.18233 0 0
0.311589 0 0
0.480598 0 0
0.67602 0 0
0.841932 0 0
0.959442 0.0027924 0
1 0.0763256 0
1 0.150546 0.0197757
1 0.23711 0.101854
1 0.324269 0.183673
1 0.384283 0.237781
1 0.357549 0.197177
1 0.274601 0.0998245
1 0.312657 0.142763
1 0.363226 0.199786
1 0.430411 0.275547
1 0.519646 0.376181
1 0.637919 0.510582
1 0.795209 0.688731
1 1 0.925139
1 1 1
0 0 0
0 0 0
0 0 0
0 0 0
0 0 0
0 0 0
0 0 0
0 0 0
0 0 0
0 0 0
0.0351263 0 0
0.0935531 0 0
0.182376 0 0
0.310857 0 0
0.481666 0 0
0.678401 0 0
0.848035 0 0
0.967865 0.0182498 0
1 0.0924849 0
1 0.16643 0.0215152
1 0.25214 0.102174
1 0.338048 0.182162
1 0.395727 0.233005
1 0.365835 0.18703
1 0.28838 0.0940719
1 0.326436 0.137011
1 0.377005 0.194034
1 0.44419 0.269795
1 0.533425 0.370428
1 0.651606 0.505074
1 0.808911 0.683177
1 1 0.919417
1 1 1
0 0 0
0 0 0
0 0 0
0 0 0
0 0 0
0 0 0
0 0 0
0 0 0
0 0 0
0 0 0
0.0344701 0 0
0.0933089 0 0
0.182498 0 0
0.312108 0 0
0.483177 0 0
0.681544 0 0
0.855894 0 0
0.978943 0.0390631 0
1 0.114137 0
1 0.187655 0.0238346
1 0.272251 0.102602
1 0.356466 0.180163
1 0.410956 0.226535
1 0.376532 0.1729
1 0.306691 0.0864424
1 0.344747 0.129366
1 0.395315 0.186389
1 0.462226 0.262821
1 0.551369 0.363714
1 0.669703 0.497978
1 0.8271 0.675837
1 1 0.911437
1 1 1
0 0 0
0 0 0
0 0 0
0 0 0
0 0 0
0 0 0
0 0 0
0 0 0
0 0 0
0 0 0
0.0337377 0 0
0.0931868 0 0
0.182498 0 0
0.31342 0 0
0.484855 0 0
0.685008 0 0
0.865141 0.00535592 0
0.992782 0.0666514 0
1 0.142794 0
1 0.215915 0.0267491
1 0.298955 0.102922
1 0.380896 0.177295
1 0.431006 0.217762
1 0.390188 0.153826
1 0.330648 0.0771801
1 0.368688 0.12018
1 0.419135 0.177508
1 0.486305 0.253269
1 0.575372 0.354376
1 0.69395 0.488014
1 0.851484 0.665537
1 1 0.900786
1 1 1
0 0.0313726 0
0 0.0310369 0
0 0.0306706 0
0 0.0303197 0
0 0.0299992 0
0 0.0296941 0
0 0.0293431 0
0 0.0289006 0
0 0.0283818 0
0 0.0271763 0
0.0332647 0.0268711 0
0.0937819 0.0268559 0
0.185107 0.0272221 0
0.316701 0.0264897 0
0.488472 0.022034 0
0.690684 0.0224308 0
0.877424 0.0442512 0
1 0.103746 0
1 0.180835 0
1 0.252522 0.0304875
1 0.333547 0.103334
1 0.412192 0.173754
1 0.456992 0.206119
1 0.40795 0.126848
1 0.362753 0.06421
1 0.400717 0.107393
1 0.451347 0.164248
1 0.518502 0.24007
1 0.607782 0.340627
1 0.726314 0.474372
1 0.883986 0.65156
1 1 0.886442
1 1 1
0 0.0780652 0
0 0.0772412 0
0 0.0768139 0
0 0.0764324 0
0 0.0760967 0
0 0.0757916 0
0 0.0751049 0
0 0.0747692 0
0 0.0745098 0
0 0.0740826 0
0.0333104 0.0745861 0
0.096025 0.0765698 0
0.188434 0.0791333 0
0.320668 0.0809339 0
0.492149 0.0767529 0
0.696757 0.0773175 0
0.891157 0.0974289 0
1 0.154177 0
1 0.23125 0
1 0.301472 0.0339208
1 0.379431 0.102022
1 0.453773 0.166354
1 0.491722 0.188067
1 0.431907 0.0883803
1 0.405646 0.0463874
1 0.443656 0.0894484
1 0.494347 0.146166
1 0.561578 0.22179
1 0.650965 0.322072
1 0.76968 0.45536
1 0.927565 0.632013
1 1 0.866957
1 1 1
0 0.150088 0
0 0.149462 0
0 0.148852 0
0 0.148074 0
0 0.147402 0
0 0.146975 0
0 0.146548 0
0 0.146105 0
0 0.145357 0
0 0.145388 0
0.0347906 0.146197 0
0.0993515 0.148562 0
0.193423 0.152743 0
0.32372 0.154208 0
0.495094 0.150866 0
0.701457 0.151156 0
0.903914 0.169299 0
1 0.222004 0
1 0.298375 0
1 0.366247 0.0353857
1 0.440269 0.0976425
1 0.508431 0.153765
1 0.537957 0.161318
1 0.465705 0.0343175
1 0.463188 0.0212863
1 0.501396 0.063859
1 0.55201 0.12076
1 0.619303 0.196231
1 0.708766 0.29633
1 0.827665 0.429175
1 0.985534 0.605829
1 1 0.840665
1 1 1
0 0.25713 0
0 0.256764 0
0 0.256367 0
0 0.256001 0
0 0.255634 0
0 0.25481 0
0 0.254429 0
0 0.253986 0
0 0.253132 0
0 0.252811 0
0.0369879 0.253025 0
0.103685 0.254185 0
0.197482 0.255756 0
0.324804 0.254124 0
0.495903 0.251148 0
0.703929 0.251255 0
0.914748 0.267552 0
1 0.31429 0
1 0.388083 0
1 0.452232 0.0332036
1 0.520607 0.0882582
1 0.57908 0.131365
1 0.599878 0.12195
1 0.515877 0
1 0.540169 0
1 0.578347 0.0292363
1 0.628977 0.0861067
1 0.696437 0.161135
1 0.785885 0.261265
1 0.904646 0.394446
1 1 0.571298
1 1 0.80618
1 1 1
0 0.397024 0
0 0.396887 0
0 0.396735 0
0 0.396399 0
0 0.395987 0
0 0.395865 0
0 0.395727 0
0 0.395544 0
0 0.394827 0
0 0.394583 0
0.0286259 0.394308 0
0.0977035 0.393774 0
0.192859 0.392493 0
0.322301 0.389715 0
0.494194 0.386267 0
0.7037 0.385595 0
0.920317 0.398535 0
1 0.438376 0
1 0.504417 0
1 0.563668 0.0246128
1 0.624063 0.0699168
1 0.670375 0.0936904
1 0.681056 0.0622568
1 0.613611 0
1 0.642359 0
1 0.6804 0
1 0.731121 0.0403143
1 0.798321 0.116014
1 0.887633 0.21648
1 1 0.350271
1 1 0.52784
1 1 0.764492
1 1 1
0 0.579934 0
0 0.579934 0
0 0.579446 0
0 0.5794 0
0 0.579355 0
0 0.579293 0
0 0.579217 0
0 0.578592 0
0 0.578363 0
0 0.577722 0
0.0138399 0.577569 0
0.0849317 0.57641 0
0.182528 0.574166 0
0.315145 0.569833 0
0.489265 0.564752 0
0.700267 0.561822 0
0.920562 0.570459 0
1 0.601114 0
1 0.654459 0
1 0.705882 0.00987259
1 0.753796 0.0390478
1 0.786175 0.0365301
1 0.780926 0
1 0.746899 0
1 0.775387 0
1 0.813397 0
1 0.863737 0
1 0.930663 0.0636149
1 1 0.165316
1 1 0.300328
1 1 0.480339
1 1 0.719844
1 1 1
0 0.803326 0
0 0.804044 0
0 0.804501 0
0 0.804822 0
0 0.805325 0
0 0.805753 0
0 0.806195 0
0 0.806165 0
0 0.806607 0
0 0.80679 0
0.0136568 0.806836 0
0.0832074 0.805737 0
0.180179 0.802991 0
0.313512 0.797055 0
0.488884 0.788968 0
0.700694 0.781262 0
0.921447 0.782879 0
1 0.802426 0
1 0.840009 0
1 0.878019 0
1 0.91136 0
1 0.931731 0
1 0.904753 0
1 0.915389 0
1 0.94374 0
1 0.981369 0
1 1 0
1 1 0.0162203
1 1 0.119875
1 1 0.257725
1 1 0.441306
1 1 0.684901
1 1 1
0 1 0
0 1 0
0 1 0
0 1 0
0 1 0
0 1 0
0 1 0
0 1 0
0.0173648 1 0
0.0473487 1 0
0.0872816 1 0
0.145769 1 0
0.231098 1 0
0.354269 1 0
0.521614 1 0
0.727199 1 0
0.942489 1 0
1 1 0
1 1 0
1 1 0
1 1 0
1 1 0
1 1 0
1 1 0
1 1 0
1 1 0
1 1 0
1 1 0
1 1 0.100267
1 1 0.240833
1 1 0.427573
1 1 0.674586
1 1 1
0.0843519 1 0.0354772
0.0963302 1 0.0345769
0.109071 1 0.0336156
0.12076 1 0.0324102
0.131029 1 0.0299382
0.139666 1 0.0257267
0.149996 1 0.0207218
0.163745 1 0.0139162
0.182483 1 0.0049897
0.208118 1 0
0.241611 1 0
0.29012 1 0
0.360372 1 0
0.462394 1 0
0.605783 1 0
0.788174 1 0
0.987716 1 0
1 1 0
1 1 0
1 1 0
1 1 0
1 1 0
1 1 0
1 1 0
1 1 0
1 1 0
1 1 0
1 1 0.00120546
1 1 0.107591
1 1 0.249058
1 1 0.436851
1 1 0.684886
1 1 1
0.0728466 1 0.0207675
0.0849775 1 0.0189364
0.0978714 1 0.016968
0.110018 1 0.0151217
0.121691 1 0.0131533
0.133394 1 0.011368
0.147265 1 0.00923171
0.165713 1 0.00640879
0.190066 1 0.00242618
0.222751 1 0
0.26424 1 0
0.321996 1 0
0.401129 1 0
0.508415 1 0
0.648951 1 0
0.819699 1 0
1 1 0
1 1 0
1 1 0
1 1 0
1 1 0
1 1 0
1 1 0
1 1 0
1 1 0
1 1 0
1 1 0
1 1 0.0139162
1 1 0.120134
1 1 0.261234
1 1 0.448692
1 1 0.695994
1 1 1
0 1 0
0 1 0
0 1 0
0 1 0
0 1 0
0 1 0
0 1 0
0 1 0
0.0267643 1 0
0.0653086 1 0
0.116365 1 0
0.18555 1 0
0.280827 1 0
0.408392 1 0
0.573693 1 0
0.771603 1 0
0.986633 1 0
1 1 0
1 1 0
1 1 0
1 1 0
1 1 0
1 1 0
1 1 0
1 1 0
1 1 0
1 1 0
1 1 0.0286107
1 1 0.134829
1 1 0.275929
1 1 0.463386
1 1 0.710399
1 1 1
0 1 0
0 1 0
0 1 0
0 1 0
0 1 0
0 1 0
0 1 0
0.0141756 1 0
0.0438239 1 0
0.0823529 1 0
0.133043 1 0
0.202838 1 0
0.297795 1 0
0.425803 1 0
0.590372 1 0
0.787884 1 0
1 1 0
1 1 0
1 1 0
1 1 0
1 1 0
1 1 0
1 1 0
1 1 0
1 1 0
1 1 0
1 1 0
1 1 0.048127
1 1 0.154345
1 1 0.295445
1 1 0.482887
1 1 0.729763
1 1 1
0 1 0
0 1 0
0 1 0
0 1 0
0 1 0
0 1 0
0.0145113 1 0
0.0368353 1 0
0.0664836 1 0
0.104601 1 0
0.15581 1 0
0.225818 1 0
0.320958 1 0
0.448478 1 0
0.613062 1 0
0.809461 1 0
1 1 0
1 1 0
1 1 0
1 1 0
1 1 0
1 1 0
1 1 0
1 1 0
1 1 0
1 1 0
1 1 0
1 1 0.074052
1 1 0.18027
1 1 0.32137
1 1 0.508827
1 1 0.754955
1 1 1
0 1 0
0 1 0
0 1 0
0 1 0
0.0136263 1 0
0.0278172 1 0
0.0446174 1 0
0.0669413 1 0
0.0965896 1 0
0.134691 1 0
0.185687 1 0
0.25597 1 0
0.351278 1 0
0.479194 1 0
0.642786 1 0
0.837781 1 0
1 1 0
1 1 0
1 1 0
1 1 0
1 1 0
1 1 0
1 1 0
1 1 0
1 1 0
1 1 0
1 1 0.0285344
1 1 0.108492
1 1 0.21471
1 1 0.35581
1 1 0.543252
1 1 0.788998
1 1 1
0 1 0
0.00875868 1 0
0.0244602 1 0
0.0392309 1 0
0.0536202 1 0
0.0678264 1 0
0.0846113 1 0
0.106935 1 0
0.136584 1 0
0.174258 1 0
0.225864 1 0
0.296208 1 0
0.391714 1 0
0.519539 1 0
0.682521 1 0
0.875486 1 0
1 1 0
1 1 0
1 1 0
1 1 0
1 1 0
1 1 0
1 1 0
1 1 0
1 1 0
1 1 0.0140993
1 1 0.0742809
1 1 0.154238
1 1 0.260456
1 1 0.401556
1 1 0.588434
1 1 0.834119
1 1 1
0.0471199 1 0.0047303
0.0618906 1 0.00318914
0.0775921 1 0.00154116
0.0923629 1 0
0.106752 1 0
0.120958 1 0
0.137758 1 0
0.160067 1 0
0.188449 1 0
0.226993 1 0
0.278828 1 0
0.349828 1 0
0.445579 1 0
0.573175 1 0
0.734874 1 0
0.925505 1 0
1 1 0
1 1 0
1 1 0
1 1 0
1 1 0
1 1 0
1 1 0
1 1 0
1 1 0.029572
1 1 0.074876
1 1 0.135073
1 1 0.215015
1 1 0.321233
1 1 0.462333
1 1 0.647669
1 1 0.894011
1 1 1
0.117693 1 0.082826
0.132479 1 0.0812695
0.14818 1 0.0796216
0.162951 1 0.0780804
0.17734 1 0.0765698
0.191531 1 0.0750896
0.208347 1 0.0733196
0.229801 1 0.0712139
0.258579 1 0.0683452
0.297078 1 0.0644541
0.349798 1 0.0588693
0.421317 1 0.0510414
0.517342 1 0.0403754
0.643946 1 0.0264439
0.804089 1 0.010132
0.991577 1 0
1 1 0
1 1 0
1 1 0
1 1 0.00572213
1 1 0.0166781
1 1 0.03122
1 1 0.0505531
1 1 0.0762188
1 1 0.110323
1 1 0.155627
1 1 0.215808
1 1 0.295766
1 1 0.401984
1 1 0.541848
1 1 0.726741
1 1 0.974975
1 1 1
0.211475 1 0.186557
0.226261 1 0.185016
0.241947 1 0.183368
0.256718 1 0.181827
0.271107 1 0.180316
0.285313 1 0.17882
0.300832 1 0.177417
0.322713 1 0.175189
0.351705 1 0.172259
