Assets/HMP LUTs/LUTs/HMPLUTs_Kinder.cube
TITLE "Generated by Resolve"
LUT_3D_SIZE 33
0 0 0.0460212
0 0 0.0458534
0 0 0.0456855
0 0 0.0455177
0 0 0.0453651
0 0 0.0452125
0 0 0.0450446
0.002121 0 0.0448463
0.00987259 0 0.0446632
0.0202487 0 0.0444038
0.0351415 0 0.0437781
0.0557259 0 0.04271
0.0839094 0 0.0409857
0.122271 0 0.0382849
0.174258 0 0.0339666
0.244083 0 0.0267185
0.331731 0 0.0135348
0.458289 0 0.000381476
0.653056 0 0
0.91429 0 0
1 0 0
1 0 0
1 0 0
1 0 0
1 0 0
1 0 0
1 0 0
1 0 0.0797894
1 0.158267 0.26923
1 0.484688 0.745281
1 0.950668 1
1 1 1
1 1 1
0 0 0.0453498
0 0 0.0451667
0 0 0.0449989
0 0 0.044831
0 0 0.0446632
0 0 0.0445106
0 0 0.0443275
0.00140383 0 0.0441138
0.00914015 0 0.0439155
0.0194858 0 0.0436408
0.0343633 0 0.0429847
0.054902 0 0.0418708
0.0830091 0 0.0401007
0.121294 0 0.0373083
0.173114 0 0.0328222
0.242618 0 0.0252232
0.330434 0 0.0121462
0.457343 0 0
0.652399 0 0
0.913909 0 0
1 0 0
1 0 0
1 0 0
1 0 0
1 0 0
1 0 0
1 0 0
1 0 0.0813916
1 0.164462 0.271321
1 0.49102 0.752575
1 0.956405 1
1 1 1
1 1 1
0 0 0.0446632
0 0 0.04448
0 0 0.0442969
0 0 0.0441291
0 0 0.0439612
0 0 0.0437934
0 0 0.043595
0.000656138 0 0.0433661
0.0083772 0 0.0431678
0.0187076 0 0.0428779
0.0335546 0 0.0421759
0.0540475 0 0.0410315
0.0820935 0 0.0391852
0.120272 0 0.036286
0.171939 0 0.031632
0.241016 0 0.0235904
0.329229 0 0.0108339
0.456443 0 0
0.651789 0 0
0.913542 0 0
1 0 0
1 0 0
1 0 0
1 0 0
1 0 0
1 0 0
1 0 0
1 0 0.0830091
1 0.170642 0.273426
1 0.497292 0.760021
1 0.962142 1
1 1 1
1 1 1
0 0 0.0439612
0 0 0.0437629
0 0 0.0435798
0 0 0.0433967
0 0 0.0432288
0 0 0.0430457
0 0 0.0428626
0 0 0.0426184
0.00761425 0 0.0423896
0.0179141 0 0.0420844
0.0327306 0 0.0413519
0.0531777 0 0.0401617
0.0811627 0 0.0382544
0.119234 0 0.0352483
0.170703 0 0.0304112
0.239216 0 0.0217594
0.328069 0 0.00961318
0.455589 0 0
0.651194 0 0
0.913207 0 0
1 0 0
1 0 0
1 0 0
1 0 0
1 0 0
1 0 0
1 0 0
1 0 0.0846265
1 0.176837 0.275547
1 0.503517 0.76762
1 0.967865 1
1 1 1
1 1 1
0 0 0.0432441
0 0 0.0430457
0 0 0.0428626
0 0 0.0426642
0 0 0.0424811
0 0 0.0423133
0 0 0.0420996
0 0 0.0418555
0.00682078 0 0.0416114
0.0171054 0 0.0412757
0.0318914 0 0.0405127
0.0522927 0 0.0392615
0.0802014 0 0.0372931
0.118166 0 0.0341802
0.169421 0 0.0291295
0.237125 0 0.0196689
0.327001 0 0.00846876
0.45478 0 0
0.650629 0 0
0.912886 0 0
1 0 0
1 0 0
1 0 0
1 0 0
1 0 0
1 0 0
1 0 0
1 0 0.0862745
1 0.183001 0.277684
1 0.509682 0.775601
1 0.973587 1
1 1 1
1 1 1
0 0 0.0425116
0 0 0.0423133
0 0 0.0421149
0 0 0.0419165
0 0 0.0417334
0 0 0.0415503
0 0 0.0413367
0 0 0.041062
0.00602731 0 0.0408026
0.0162814 0 0.0404517
0.0310216 0 0.0396582
0.0513771 0 0.0383612
0.0792248 0 0.0363012
0.117052 0 0.0330663
0.168063 0 0.0277714
0.235431 0 0.0179446
0.325978 0 0.00737011
0.454002 0 0
0.650095 0 0
0.912596 0 0
1 0 0
1 0 0
1 0 0
1 0 0
1 0 0
1 0 0
1 0 0
1 0.00030518 0.0879225
1 0.189197 0.27985
1 0.515816 0.784146
1 0.979324 1
1 1 1
1 1 1
0 0 0.0416419
0 0 0.0414282
0 0 0.0412146
0 0 0.0410163
0 0 0.0408179
0 0 0.0406195
0 0 0.0403906
0 0 0.040116
0.00505074 0 0.039826
0.0152743 0 0.0394293
0.0299687 0 0.0386053
0.0502632 0 0.037232
0.0780041 0 0.0350805
0.115679 0 0.0316777
0.166323 0 0.0260319
0.233631 0 0.016144
0.324819 0 0.00613413
0.453117 0 0
0.6495 0 0
0.912276 0 0
1 0 0
1 0 0
1 0 0
1 0 0
1 0 0
1 0 0
1 0 0
1 0.00733959 0.0899214
1 0.196597 0.28246
1 0.523095 0.79501
1 0.986175 1
1 1 1
1 1 1
0 0 0.0404212
0 0 0.0401923
0 0 0.0399786
0 0 0.039765
0 0 0.0395361
0 0 0.0393225
0 0 0.0390936
0 0 0.0387884
0.00369268 0 0.038468
0.0138705 0 0.0380407
0.0285039 0 0.0371405
0.0487068 0 0.0356756
0.0762951 0 0.0333867
0.113695 0 0.0297093
0.163684 0 0.0233921
0.231479 0 0.0139773
0.323384 0 0.00460822
0.452018 0 0
0.648768 0 0
0.91191 0 0
1 0 0
1 0 0
1 0 0
1 0 0
1 0 0
1 0 0
1 0 0
1 0.0168002 0.0926528
1 0.2065 0.286
1 0.532769 0.810605
1 0.995361 1
1 1 1
1 1 1
0 0 0.0387427
0 0 0.0384985
0 0 0.0382544
0 0 0.0380102
0 0 0.0377813
0 0 0.0375525
0 0 0.0372778
0 0 0.0369421
0.00180056 0 0.0365759
0.0119173 0 0.0360723
0.0264439 0 0.0350805
0.0464942 0 0.033463
0.0738384 0 0.03093
0.11078 0 0.0267948
0.15967 0 0.019379
0.228962 0 0.0114595
0.32166 0 0.00276188
0.450706 0 0
0.647913 0 0
0.911528 0 0
1 0 0
1 0 0
1 0 0
1 0 0
1 0 0
1 0 0
1 0 0
1 0.0294804 0.0963607
1 0.219791 0.290852
1 0.545617 0.833051
1 1 1
1 1 1
1 1 1
0 0 0.0363928
0 0 0.0361181
0 0 0.0358434
0 0 0.0355688
0 0 0.0352941
0 0 0.0350347
0 0 0.0347295
0 0 0.0343328
0 0 0.0338903
0.00910964 0 0.0332799
0.0234836 0 0.032105
0.0432593 0 0.0302281
0.0701305 0 0.0272221
0.10576 0 0.0217746
0.155825 0 0.0155184
0.226139 0 0.00863661
0.319692 0 0.000656138
0.449256 0 0
0.647028 0 0
0.911254 0 0
1 0 0
1 0 0
1 0 0
1 0 0
1 0 0
1 0 0
1 0 0
1 0.0464485 0.101518
1 0.237613 0.297551
1 0.5626 0.865202
1 1 1
1 1 1
1 1 1
0 0 0.0331426
0 0 0.0328222
0 0 0.0324865
0 0 0.032166
0 0 0.0318303
0 0 0.0315099
0 0 0.0311284
0 0 0.0306249
0 0 0.0300298
0.00502022 0 0.0291752
0.0189975 0 0.0276341
0.0380255 0 0.0249943
0.0639658 0 0.0210422
0.100801 0 0.0168154
0.152102 0 0.0118105
0.223316 0 0.00582895
0.3178 0 0
0.44799 0 0
0.646479 0 0
0.911467 0 0
1 0 0
1 0 0
1 0 0
1 0 0
1 0 0
1 0 0
1 0 0.00320439
1 0.0690776 0.108888
1 0.261448 0.307103
1 0.585031 0.910552
1 1 1
1 1 1
1 1 1
0 0.00761425 0.0281376
0 0.00714122 0.0276493
0 0.00665293 0.0271611
0 0.00614939 0.0266575
0 0.00561532 0.0261387
0 0.00503548 0.0255589
0 0.00430304 0.0248264
0 0.00349432 0.0240177
0 0.00263981 0.0231479
0 0.00161746 0.0221408
0.0120241 0.000137331 0.0206607
0.0317082 0 0.0186923
0.0590677 0 0.016144
0.0968795 0 0.0128939
0.149081 0 0.0087892
0.221134 0 0.00364691
0.316564 0 0
0.447532 0 0
0.646937 0 0
0.912886 0 0
1 0 0
1 0 0
1 0 0
1 0 0
1 0 0
1 0 0
1 0 0.0125887
1 0.0991531 0.119677
1 0.293187 0.320943
1 0.613428 0.971984
1 1 1
1 1 1
1 1 1
0 0.025742 0.0176242
0 0.025391 0.0172732
0 0.0250553 0.0169375
0 0.0247349 0.0166171
0 0.0244297 0.0162966
0 0.0241245 0.0160067
0 0.0237736 0.0156558
0 0.0233616 0.0152438
0 0.0229191 0.0148013
0 0.0223697 0.0142367
0.004654 0.0213931 0.0132753
0.024918 0.0200198 0.0118868
0.052903 0.0181125 0.00999466
0.0914321 0.0155642 0.0074464
0.144411 0.0122377 0.00411994
0.217288 0.00794995 0
0.313848 0.002533 0
0.445624 0 0
0.646067 0 0
0.913191 0 0
1 0 0
1 0 0
1 0 0
1 0 0
1 0 0
1 0 0
1 0.0314031 0.0232853
1 0.140398 0.132265
1 0.33666 0.337423
1 0.651469 1
1 1 1
1 1 1
1 1 1
0 0.056199 0.00794995
0 0.0559701 0.00772107
0 0.0557412 0.00750744
0 0.0555276 0.00729381
0 0.0553292 0.00708019
0 0.0551308 0.00689708
0 0.0549172 0.00666819
0 0.0546578 0.00640879
0 0.0544289 0.0061799
0 0.054139 0.00588998
0 0.0535134 0.00526436
0.017319 0.0525368 0.00430304
0.0458228 0.0511482 0.00291447
0.0849775 0.0492256 0.000991836
0.138674 0.0466316 0
0.21239 0.0431983 0
0.310201 0.0387579 0
0.442863 0.0332036 0
0.644495 0.0264591 0
0.913039 0.0185855 0
1 0.00996414 0
1 0.00144961 0
1 0 0
1 0 0
1 0.000579843 0
1 0.0267643 0
1 0.0848402 0.0366064
1 0.196338 0.148089
1 0.395529 0.358297
1 0.703166 1
1 1 1
1 1 1
1 1 1
0 0.101701 0
0 0.101564 0
0 0.101427 0
0 0.101289 0
0 0.101167 0
0 0.101061 0
0 0.100938 0
0 0.100801 0
0 0.10074 0
0 0.100664 0
0 0.100328 0
0.00901808 0.0997177 0
0.0379797 0.0988022 0
0.0777142 0.0974594 0
0.132143 0.0955825 0
0.206699 0.0930343 0
0.305882 0.0896468 0
0.439521 0.0853285 0
0.642512 0.0800183 0
0.912749 0.0737926 0
1 0.0670176 0
1 0.0605478 0
1 0.0560464 0
1 0.0565194 0
1 0.0670634 0
1 0.0961166 0
1 0.15729 0.0535744
1 0.272206 0.168368
1 0.475044 0.384985
1 0.773053 1
1 1 1
1 1 1
1 1 1
0 0.167834 0
0 0.167773 0
0 0.167712 0
0 0.167651 0
0 0.167605 0
0 0.167559 0
0 0.167529 0
0 0.167498 0
0 0.16759 0
0 0.167727 0
0 0.167636 0
0.000366217 0.167376 0
0.0297704 0.166903 0
0.0700847 0.16614 0
0.125231 0.164981 0
0.200671 0.163348 0
0.301305 0.161089 0
0.436011 0.158145 0
0.640574 0.154452 0
0.912779 0.150134 0
1 0.145571 0
1 0.141619 0
1 0.139925 0
1 0.143526 0
1 0.157488 0
1 0.190295 0.0102541
1 0.255558 0.0754711
1 0.375357 0.194644
1 0.575418 0.418494
1 0.867521 1
1 1 1
1 1 1
1 1 1
0 0.262852 0
0 0.262852 0
0 0.262852 0
0 0.262867 0
0 0.262882 0
0 0.262913 0
0 0.262959 0
0 0.26305 0
0 0.263279 0
0 0.2636 0
0 0.263783 0
0 0.263859 0
0.0219425 0.263828 0
0.0628214 0.26363 0
0.118715 0.263218 0
0.195102 0.262531 0
0.2972 0.261479 0
0.433158 0.260014 0
0.639506 0.258137 0
0.91397 0.256016 0
1 0.254032 0
1 0.253101 0
1 0.254887 0
1 0.262409 0
1 0.280842 0
1 0.318654 0.0335699
1 0.389502 0.104051
1 0.513313 0.228397
1 0.698497 0.459739
1 0.994736 1
1 1 1
1 1 1
1 1 1
0 0.398886 0
0 0.398962 0
0 0.399039 0
0 0.399115 0
0 0.399207 0
0 0.399298 0
0 0.39942 0
0 0.399634 0
0 0.4 0
0 0.400519 0
0 0.400946 0
0 0.401373 0
0.0158999 0.401785 0
0.0573587 0.402182 0
0.114031 0.402548 0
0.191424 0.402853 0
0.294926 0.403082 0
0.432349 0.40325 0
0.640757 0.403403 0
0.9178 0.403769 0
1 0.404822 0
1 0.407462 0
1 0.413443 0
1 0.425788 0
1 0.449638 0.020737
1 0.493141 0.0644694
1 0.564996 0.141726
1 0.677958 0.276753
1 0.863828 0.514305
1 1 1
1 1 1
1 1 1
1 1 1
0 0.583581 0
0 0.583703 0
0 0.583841 0
0 0.583963 0
0 0.5841 0
0 0.584253 0
0 0.584436 0
0 0.58471 0
0 0.585184 0
0 0.585824 0
0 0.586435 0
0 0.587121 0
0.0140993 0.587915 0
0.0561837 0.588815 0
0.113649 0.589853 0
0.192081 0.591058 0
0.296834 0.592477 0
0.436118 0.594156 0
0.646922 0.596231 0
0.926818 0.598932 0
1 0.602716 0
1 0.608377 0
1 0.617411 0.00596628
1 0.63267 0.0241398
1 0.658366 0.0546883
1 0.701625 0.106096
1 0.773877 0.191989
1 0.893217 0.343954
1 1 0.66334
1 1 1
1 1 1
1 1 1
1 1 1
0 0.813336 0
0 0.813504 0
0 0.813687 0
0 0.81387 0
0 0.814054 0
0 0.814252 0
0 0.814496 0
0 0.814847 0
0 0.815412 0
0 0.81619 0
0 0.816999 0
0 0.817945 0
0.0206607 0.819074 0
0.0633707 0.820462 0
0.121675 0.822141 0
0.201221 0.824216 0
0.306767 0.826764 0
0.448524 0.829938 0
0.662242 0.833967 0
0.945296 0.8392 0.00166323
1 0.84622 0.0100099
1 0.85597 0.0216068
1 0.870085 0.0383764
1 0.891234 0.0635233
1 0.923858 0.102281
1 0.97464 0.163195
1 1 0.261219
1 1 0.431601
1 1 1
1 1 1
1 1 1
1 1 1
1 1 1
0 1 0
0 1 0
0 1 0
0 1 0
0 1 0
0 1 0
0 1 0
0 1 0
0 1 0
0 1 0
0 1 0
0.0104982 1 0
0.042237 1 0
0.0856184 1 0.00163272
0.144808 1 0.00451667
0.225635 1 0.00813306
0.330953 1 0.0126955
0.47689 1 0.0184939
0.693599 1 0.0258946
0.980117 1 0.0354772
1 1 0.0481117
1 1 0.0651102
1 1 0.0885939
1 1 0.121904
1 1 0.170474
1 1 0.242847
1 1 0.365637
1 1 0.563912
1 1 1
1 1 1
1 1 1
1 1 1
1 1 1
0 1 0.0354925
0 1 0.0358587
0 1 0.0362097
0 1 0.0365759
0 1 0.0369573
0 1 0.0373388
0 1 0.0378119
0 1 0.038468
0.00466926 1 0.0394598
0.0166323 1 0.0407874
0.0336919 1 0.0423285
0.0572366 1 0.0442206
0.0894942 1 0.0465858
0.133562 1 0.0495766
0.193683 1 0.0533913
0.274586 1 0.0582437
0.379614 1 0.0644388
0.535256 1 0.0723735
0.75198 1 0.0825971
1 1 0.0958572
1 1 0.113207
1 1 0.136233
1 1 0.1673
1 1 0.209812
1 1 0.272435
1 1 0.369406
1 1 0.495872
1 1 1
1 1 1
1 1 1
1 1 1
1 1 1
1 1 1
0.0486 1 0.122835
0.0531777 1 0.123262
0.0577401 1 0.123705
0.0622873 1 0.124147
0.066804 1 0.124605
0.0713054 1 0.125063
0.0766461 1 0.125628
0.0836957 1 0.126421
0.0927901 1 0.127581
0.104982 1 0.129137
0.122347 1 0.130983
0.146304 1 0.133272
0.17911 1 0.136202
0.224048 1 0.139925
0.283543 1 0.144717
0.361685 1 0.150866
0.472999 1 0.158801
0.638376 1 0.169024
0.854612 1 0.182269
1 1 0.199451
1 1 0.2215
1 1 0.252247
1 1 0.295903
1 1 0.356161
1 1 0.435813
1 1 0.560388
1 1 1
1 1 1
1 1 1
1 1 1
1 1 1
1 1 1
1 1 1
0.204059 1 0.281453
0.208759 1 0.282032
0.213428 1 0.282612
0.218082 1 0.283207
0.222705 1 0.283803
0.227283 1 0.284413
0.232715 1 0.285145
0.239857 1 0.286168
0.248966 1 0.287663
0.261036 1 0.289677
0.277989 1 0.292088
0.30106 1 0.29514
0.332341 1 0.299062
0.375189 1 0.304112
0.435767 1 0.310658
0.524361 1 0.319158
0.647227 1 0.330175
0.808591 1 0.344488
1 1 0.363058
1 1 0.387091
1 1 0.417487
1 1 0.455329
1 1 0.500511
1 1 0.628473
1 1 0.947707
1 1 1
1 1 1
1 1 1
1 1 1
1 1 1
1 1 1
1 1 1
1 1 1
0.458381 1 0.604364
0.463188 1 0.605737
0.468025 1 0.607126
0.472892 1 0.608545
0.477806 1 0.609979
0.48275 1 0.611444
0.48867 1 0.61323
0.496559 1 0.615717
0.506798 1 0.619333
0.520623 1 0.624277
0.540413 1 0.63035
0.567666 1 0.63827
0.604379 1 0.648768
0.652049 1 0.662837
0.717144 1 0.681926
0.805768 1 0.708217
0.92636 1 0.745083
1 1 0.800595
1 1 0.892103
1 1 1
1 1 1
1 1 1
1 1 1
1 1 1
1 1 1
1 1 1
1 1 1
1 1 1
1 1 1
1 1 1
1 1 1
1 1 1
1 1 1
0.909087 1 1
0.914076 1 1
0.919051 1 1
0.923995 1 1
0.928923 1 1
0.933822 1 1
0.939635 1 1
0.947356 1 1
0.95729 1 1
0.970626 1 1
0.989563 1 1
1 1 1
1 1 1
1 1 1
1 1 1
1 1 1
1 1 1
1 1 1
1 1 1
1 1 1
1 1 1
1 1 1
1 1 1
1 1 1
1 1 1
1 1 1
1 1 1
1 1 1
1 1 1
1 1 1
1 1 1
1 1 1
1 1 1
1 1 1
1 1 1
1 1 1
1 1 1
1 1 1
1 1 1
1 1 1
1 1 1
1 1 1
1 1 1
1 1 1
1 1 1
1 1 1
1 1 1
1 1 1
1 1 1
1 1 1
1 1 1
1 1 1
1 1 1
1 1 1
1 1 1
1 1 1
1 1 1
1 1 1
1 1 1
1 1 1
1 1 1
1 1 1
1 1 1
1 1 1
1 1 1
1 1 1
1 1 1
1 1 1
1 1 1
1 1 1
1 1 1
1 1 1
1 1 1
1 1 1
1 1 1
