Assets/HMP LUTs/LUTs/HMPLUTs_Pluto.cube
TITLE "Generated by Resolve"
LUT_3D_SIZE 5
0 0 0
0 0 0
0.273732 0.273732 0.273732
1 1 1
1 1 1
0 0 0
0.0264286 0.0264286 0.0264286
0.300649 0.300649 0.300649
1 1 1
1 1 1
0.246769 0.246769 0.246769
0.27631 0.27631 0.27631
0.550515 0.550515 0.550515
1 1 1
1 1 1
1 1 1
1 1 1
1 1 1
1 1 1
1 1 1
1 1 1
1 1 1
1 1 1
1 1 1
1 1 1
0 0 0
0 0 0
0.269718 0.269718 0.269718
1 1 1
1 1 1
0 0 0
0.0224155 0.0224155 0.0224155
0.29662 0.29662 0.29662
1 1 1
1 1 1
0.242756 0.242756 0.242756
0.272282 0.272282 0.272282
0.546487 0.546487 0.546487
1 1 1
1 1 1
1 1 1
1 1 1
1 1 1
1 1 1
1 1 1
1 1 1
1 1 1
1 1 1
1 1 1
1 1 1
0 0 0
0 0 0
0.232395 0.232395 0.232395
1 1 1
1 1 1
0 0 0
0 0 0
0.259297 0.259297 0.259297
1 1 1
1 1 1
0.205432 0.205432 0.205432
0.234958 0.234958 0.234958
0.509178 0.509178 0.509178
1 1 1
1 1 1
1 1 1
1 1 1
1 1 1
1 1 1
1 1 1
1 1 1
1 1 1
1 1 1
1 1 1
1 1 1
0 0 0
0 0 0
0 0 0
1 1 1
1 1 1
0 0 0
0 0 0
0 0 0
1 1 1
1 1 1
0 0 0
0 0 0
0 0 0
1 1 1
1 1 1
1 1 1
1 1 1
1 1 1
1 1 1
1 1 1
1 1 1
1 1 1
1 1 1
1 1 1
1 1 1
0 0 0
0 0 0
0 0 0
0 0 0
1 1 1
0 0 0
0 0 0
0 0 0
0 0 0
1 1 1
0 0 0
0 0 0
0 0 0
0 0 0
1 1 1
0 0 0
0 0 0
0 0 0
1 1 1
1 1 1
1 1 1
1 1 1
1 1 1
1 1 1
1 1 1
