Assets/HMP LUTs/LUTs/HMPLUTs_Ozzy.cube
TITLE "Generated by Resolve"
LUT_3D_SIZE 5
0 0 0
0.0422065 0 0
0.63801 0 0
1 0.399786 0.402396
1 1 1
0 0.0288701 0.00285344
0.052903 0.0230869 0
0.647364 0 0
1 0.459159 0.433143
1 1 1
0.0876478 0.342611 0.10309
0.154437 0.33814 0.0986191
0.774151 0.295506 0.0559854
1 0.936019 0.696498
1 1 1
0 1 0
0 1 0
0 1 0
0.209506 1 0
1 1 1
0 1 0
0 1 0
0 1 0
0 1 0
0 1 0
0 0 0.0139925
0.0438239 0 0.0078584
0.639704 0 0
1 0.403525 0.425986
1 1 1
0 0.0305486 0.0243839
0.0545815 0.0247807 0.018616
0.648829 0 0
1 0.462898 0.456733
1 1 1
0.0897536 0.344732 0.125063
0.156741 0.340444 0.120775
0.777264 0.298604 0.0789349
1 0.939757 0.720088
1 1 1
0 1 0
0 1 0
0 1 0
0.213245 1 0
1 1 1
0 1 0
0 1 0
0 1 0
0 1 0
0 1 0
0 0.00808728 0.149767
0.060853 0.00242618 0.144106
0.655375 0 0.0762646
1 0.436912 0.578592
1 1 1
0.0059205 0.047364 0.160418
0.0711681 0.0413519 0.154406
0.664607 0 0.0854963
1 0.496284 0.609339
1 1 1
0.11194 0.366918 0.266453
0.179583 0.363287 0.262821
0.805264 0.326619 0.226154
1 0.973144 0.872694
1 1 1
0 1 0
0 1 0
0 1 0
0.246647 1 0
1 1 1
0 1 0
0 1 0
0 1 0
0 1 0
0 1 0
0 0 1
0.00993362 0 1
0.6327 0 1
1 0.555596 1
1 1 1
0 0.00250248 1
0.0294041 0 1
0.657526 0 1
1 0.614969 1
1 1 1
0.193668 0.448646 1
0.264973 0.448676 1
0.911604 0.432959 1
1 1 1
1 1 1
0 1 0.604089
0 1 0.604166
0 1 0.58703
0.365316 1 1
1 1 1
0 1 0
0 1 0
0 1 0
0 1 0
0 1 0
1 1 1
1 1 1
1 1 1
1 1 1
1 1 1
1 1 1
1 1 1
1 1 1
1 1 1
1 1 1
1 1 1
1 1 1
1 1 1
1 1 1
1 1 1
0 1 1
0 1 1
0 1 1
1 1 1
1 1 1
0 1 1
0 1 1
0 1 1
0 1 1
0 1 1
