Assets/HMP LUTs/LUTs/HMPLUTs_Pluto.cube
TITLE "Generated by Resolve"
LUT_3D_SIZE 9
0 0 0
0 0 0
0 0 0
0.0557565 0.0557565 0.0557565
0.273732 0.273732 0.273732
1 1 1
1 1 1
1 1 1
1 1 1
0 0 0
0 0 0
0.0103151 0.0103151 0.0103151
0.0665599 0.0665599 0.0665599
0.28452 0.28452 0.28452
1 1 1
1 1 1
1 1 1
1 1 1
0 0 0
0.00874342 0.00874342 0.00874342
0.0264286 0.0264286 0.0264286
0.0826734 0.0826734 0.0826734
0.300649 0.300649 0.300649
1 1 1
1 1 1
1 1 1
1 1 1
0.0481422 0.0481422 0.0481422
0.0599985 0.0599985 0.0599985
0.0776837 0.0776837 0.0776837
0.133913 0.133913 0.133913
0.351888 0.351888 0.351888
1 1 1
1 1 1
1 1 1
1 1 1
0.246769 0.246769 0.246769
0.258625 0.258625 0.258625
0.27631 0.27631 0.27631
0.33254 0.33254 0.33254
0.550515 0.550515 0.550515
1 1 1
1 1 1
1 1 1
1 1 1
1 1 1
1 1 1
1 1 1
1 1 1
1 1 1
1 1 1
1 1 1
1 1 1
1 1 1
1 1 1
1 1 1
1 1 1
1 1 1
1 1 1
1 1 1
1 1 1
1 1 1
1 1 1
1 1 1
1 1 1
1 1 1
1 1 1
1 1 1
1 1 1
1 1 1
1 1 1
1 1 1
1 1 1
1 1 1
1 1 1
1 1 1
1 1 1
1 1 1
1 1 1
1 1 1
1 1 1
0 0 0
0 0 0
0 0 0
0.0541543 0.0541543 0.0541543
0.272114 0.272114 0.272114
1 1 1
1 1 1
1 1 1
1 1 1
0 0 0
0 0 0
0.0087129 0.0087129 0.0087129
0.0649424 0.0649424 0.0649424
0.282918 0.282918 0.282918
1 1 1
1 1 1
1 1 1
1 1 1
0 0 0
0.00714122 0.00714122 0.00714122
0.0248264 0.0248264 0.0248264
0.0810559 0.0810559 0.0810559
0.299031 0.299031 0.299031
1 1 1
1 1 1
1 1 1
1 1 1
0.04654 0.04654 0.04654
0.058381 0.058381 0.058381
0.0760662 0.0760662 0.0760662
0.132296 0.132296 0.132296
0.350271 0.350271 0.350271
1 1 1
1 1 1
1 1 1
1 1 1
0.245167 0.245167 0.245167
0.257008 0.257008 0.257008
0.274693 0.274693 0.274693
0.330922 0.330922 0.330922
0.548898 0.548898 0.548898
1 1 1
1 1 1
1 1 1
1 1 1
1 1 1
1 1 1
1 1 1
1 1 1
1 1 1
1 1 1
1 1 1
1 1 1
1 1 1
1 1 1
1 1 1
1 1 1
1 1 1
1 1 1
1 1 1
1 1 1
1 1 1
1 1 1
1 1 1
1 1 1
1 1 1
1 1 1
1 1 1
1 1 1
1 1 1
1 1 1
1 1 1
1 1 1
1 1 1
1 1 1
1 1 1
1 1 1
1 1 1
1 1 1
1 1 1
1 1 1
0 0 0
0 0 0
0 0 0
0.0517433 0.0517433 0.0517433
0.269718 0.269718 0.269718
1 1 1
1 1 1
1 1 1
1 1 1
0 0 0
0 0 0
0.00630198 0.00630198 0.00630198
0.0625315 0.0625315 0.0625315
0.280507 0.280507 0.280507
1 1 1
1 1 1
1 1 1
1 1 1
0 0 0
0.0047303 0.0047303 0.0047303
0.0224155 0.0224155 0.0224155
0.078645 0.078645 0.078645
0.29662 0.29662 0.29662
1 1 1
1 1 1
1 1 1
1 1 1
0.0441291 0.0441291 0.0441291
0.0559701 0.0559701 0.0559701
0.0736553 0.0736553 0.0736553
0.1299 0.1299 0.1299
0.34786 0.34786 0.34786
1 1 1
1 1 1
1 1 1
1 1 1
0.242756 0.242756 0.242756
0.254597 0.254597 0.254597
0.272282 0.272282 0.272282
0.328527 0.328527 0.328527
0.546487 0.546487 0.546487
1 1 1
1 1 1
1 1 1
1 1 1
1 1 1
1 1 1
1 1 1
1 1 1
1 1 1
1 1 1
1 1 1
1 1 1
1 1 1
1 1 1
1 1 1
1 1 1
1 1 1
1 1 1
1 1 1
1 1 1
1 1 1
1 1 1
1 1 1
1 1 1
1 1 1
1 1 1
1 1 1
1 1 1
1 1 1
1 1 1
1 1 1
1 1 1
1 1 1
1 1 1
1 1 1
1 1 1
1 1 1
1 1 1
1 1 1
1 1 1
0 0 0
0 0 0
0 0 0
0.0440833 0.0440833 0.0440833
0.262058 0.262058 0.262058
1 1 1
1 1 1
1 1 1
1 1 1
0 0 0
0 0 0
0 0 0
0.0548867 0.0548867 0.0548867
0.272847 0.272847 0.272847
1 1 1
1 1 1
1 1 1
1 1 1
0 0 0
0 0 0
0.0147555 0.0147555 0.0147555
0.0710002 0.0710002 0.0710002
0.288975 0.288975 0.288975
1 1 1
1 1 1
1 1 1
1 1 1
0.0364691 0.0364691 0.0364691
0.0483253 0.0483253 0.0483253
0.0660105 0.0660105 0.0660105
0.12224 0.12224 0.12224
0.340215 0.340215 0.340215
1 1 1
1 1 1
1 1 1
1 1 1
0.235096 0.235096 0.235096
0.246952 0.246952 0.246952
0.264637 0.264637 0.264637
0.320867 0.320867 0.320867
0.538842 0.538842 0.538842
1 1 1
1 1 1
1 1 1
1 1 1
1 1 1
1 1 1
1 1 1
1 1 1
1 1 1
1 1 1
1 1 1
1 1 1
1 1 1
1 1 1
1 1 1
1 1 1
1 1 1
1 1 1
1 1 1
1 1 1
1 1 1
1 1 1
1 1 1
1 1 1
1 1 1
1 1 1
1 1 1
1 1 1
1 1 1
1 1 1
1 1 1
1 1 1
1 1 1
1 1 1
1 1 1
1 1 1
1 1 1
1 1 1
1 1 1
1 1 1
0 0 0
0 0 0
0 0 0
0.0144198 0.0144198 0.0144198
0.232395 0.232395 0.232395
1 1 1
1 1 1
1 1 1
1 1 1
0 0 0
0 0 0
0 0 0
0.0252232 0.0252232 0.0252232
0.243183 0.243183 0.243183
1 1 1
1 1 1
1 1 1
1 1 1
0 0 0
0 0 0
0 0 0
0.0413367 0.0413367 0.0413367
0.259297 0.259297 0.259297
1 1 1
1 1 1
1 1 1
1 1 1
0.00680552 0.00680552 0.00680552
0.0186618 0.0186618 0.0186618
0.036347 0.036347 0.036347
0.0925765 0.0925765 0.0925765
0.310552 0.310552 0.310552
1 1 1
1 1 1
1 1 1
1 1 1
0.205432 0.205432 0.205432
0.217288 0.217288 0.217288
0.234958 0.234958 0.234958
0.291203 0.291203 0.291203
0.509178 0.509178 0.509178
1 1 1
1 1 1
1 1 1
1 1 1
1 1 1
1 1 1
1 1 1
1 1 1
1 1 1
1 1 1
1 1 1
1 1 1
1 1 1
1 1 1
1 1 1
1 1 1
1 1 1
1 1 1
1 1 1
1 1 1
1 1 1
1 1 1
1 1 1
1 1 1
1 1 1
1 1 1
1 1 1
1 1 1
1 1 1
1 1 1
1 1 1
1 1 1
1 1 1
1 1 1
1 1 1
1 1 1
1 1 1
1 1 1
1 1 1
1 1 1
0 0 0
0 0 0
0 0 0
0 0 0
0 0 0
1 1 1
1 1 1
1 1 1
1 1 1
0 0 0
0 0 0
0 0 0
0 0 0
0.00230411 0.00230411 0.00230411
1 1 1
1 1 1
1 1 1
1 1 1
0 0 0
0 0 0
0 0 0
0 0 0
0.0184176 0.0184176 0.0184176
1 1 1
1 1 1
1 1 1
1 1 1
0 0 0
0 0 0
0 0 0
0 0 0
0.0696727 0.0696727 0.0696727
1 1 1
1 1 1
1 1 1
1 1 1
0 0 0
0 0 0
0 0 0
0.0503243 0.0503243 0.0503243
0.268284 0.268284 0.268284
1 1 1
1 1 1
1 1 1
1 1 1
1 1 1
1 1 1
1 1 1
1 1 1
1 1 1
1 1 1
1 1 1
1 1 1
1 1 1
1 1 1
1 1 1
1 1 1
1 1 1
1 1 1
1 1 1
1 1 1
1 1 1
1 1 1
1 1 1
1 1 1
1 1 1
1 1 1
1 1 1
1 1 1
1 1 1
1 1 1
1 1 1
1 1 1
1 1 1
1 1 1
1 1 1
1 1 1
1 1 1
1 1 1
1 1 1
1 1 1
0 0 0
0 0 0
0 0 0
0 0 0
0 0 0
0.926879 0.926879 0.926879
1 1 1
1 1 1
1 1 1
0 0 0
0 0 0
0 0 0
0 0 0
0 0 0
0.937667 0.937667 0.937667
1 1 1
1 1 1
1 1 1
0 0 0
0 0 0
0 0 0
0 0 0
0 0 0
0.95378 0.95378 0.95378
1 1 1
1 1 1
1 1 1
0 0 0
0 0 0
0 0 0
0 0 0
0 0 0
1 1 1
1 1 1
1 1 1
1 1 1
0 0 0
0 0 0
0 0 0
0 0 0
0 0 0
1 1 1
1 1 1
1 1 1
1 1 1
0.742824 0.742824 0.742824
0.754665 0.754665 0.754665
0.772351 0.772351 0.772351
0.82858 0.82858 0.82858
1 1 1
1 1 1
1 1 1
1 1 1
1 1 1
1 1 1
1 1 1
1 1 1
1 1 1
1 1 1
1 1 1
1 1 1
1 1 1
1 1 1
1 1 1
1 1 1
1 1 1
1 1 1
1 1 1
1 1 1
1 1 1
1 1 1
1 1 1
1 1 1
1 1 1
1 1 1
1 1 1
1 1 1
1 1 1
1 1 1
1 1 1
1 1 1
0 0 0
0 0 0
0 0 0
0 0 0
0 0 0
0 0 0
1 1 1
1 1 1
1 1 1
0 0 0
0 0 0
0 0 0
0 0 0
0 0 0
0 0 0
1 1 1
1 1 1
1 1 1
0 0 0
0 0 0
0 0 0
0 0 0
0 0 0
0 0 0
1 1 1
1 1 1
1 1 1
0 0 0
0 0 0
0 0 0
0 0 0
0 0 0
0 0 0
1 1 1
1 1 1
1 1 1
0 0 0
0 0 0
0 0 0
0 0 0
0 0 0
0 0 0
1 1 1
1 1 1
1 1 1
0 0 0
0 0 0
0 0 0
0 0 0
0 0 0
0.103624 0.103624 0.103624
1 1 1
1 1 1
1 1 1
1 1 1
1 1 1
1 1 1
1 1 1
1 1 1
1 1 1
1 1 1
1 1 1
1 1 1
1 1 1
1 1 1
1 1 1
1 1 1
1 1 1
1 1 1
1 1 1
1 1 1
1 1 1
1 1 1
1 1 1
1 1 1
1 1 1
1 1 1
1 1 1
1 1 1
1 1 1
1 1 1
0 0 0
0 0 0
0 0 0
0 0 0
0 0 0
0 0 0
0 0 0
1 1 1
1 1 1
0 0 0
0 0 0
0 0 0
0 0 0
0 0 0
0 0 0
0 0 0
1 1 1
1 1 1
0 0 0
0 0 0
0 0 0
0 0 0
0 0 0
0 0 0
0 0 0
1 1 1
1 1 1
0 0 0
0 0 0
0 0 0
0 0 0
0 0 0
0 0 0
0 0 0
1 1 1
1 1 1
0 0 0
0 0 0
0 0 0
0 0 0
0 0 0
0 0 0
0 0 0
1 1 1
1 1 1
0 0 0
0 0 0
0 0 0
0 0 0
0 0 0
0 0 0
0 0 0
1 1 1
1 1 1
0 0 0
0 0 0
0 0 0
0 0 0
0 0 0
0 0 0
1 1 1
1 1 1
1 1 1
1 1 1
1 1 1
1 1 1
1 1 1
1 1 1
1 1 1
1 1 1
1 1 1
1 1 1
1 1 1
1 1 1
1 1 1
1 1 1
1 1 1
1 1 1
1 1 1
1 1 1
1 1 1
