Assets/HMP LUTs/LUTs/HMPLUTs_Ozzy.cube
TITLE "Generated by Resolve"
LUT_3D_SIZE 9
0 0 0
0.00257877 0 0
0.0422065 0 0
0.166461 0 0
0.63801 0 0
1 0 0
1 0.399786 0.402396
1 1 1
1 1 1
0 0.00518807 0
0.00679026 0.00277714 0
0.0466621 0 0
0.171298 0 0
0.642176 0 0
1 0 0
1 0.423453 0.415106
1 1 1
1 1 1
0 0.0288701 0.00285344
0.0130159 0.0266575 0.000640879
0.052903 0.0230869 0
0.17702 0.0117189 0
0.647364 0 0
1 0 0
1 0.459159 0.433143
1 1 1
1 1 1
0.00984207 0.101656 0.0252842
0.0352331 0.0992294 0.022858
0.0747845 0.0953384 0.018967
0.198444 0.0834974 0.00712596
0.668299 0.0264897 0
1 0.0864424 0.010071
1 0.571389 0.495003
1 1 1
1 1 1
0.0876478 0.342611 0.10309
0.113771 0.340932 0.101411
0.154437 0.33814 0.0986191
0.282567 0.330785 0.091249
0.774151 0.295506 0.0559854
1 0.429252 0.189731
1 0.936019 0.696498
1 1 1
1 1 1
0 1 0
0 1 0
0 1 0
0 1 0
0.0112764 1 0
0.888029 1 0
1 1 0
1 1 1
1 1 1
0 1 0
0 1 0
0 1 0
0 1 0
0 1 0
0 1 0
0.209506 1 0
1 1 0
1 1 1
0 1 0
0 1 0
0 1 0
0 1 0
0 1 0
0 1 0
0 1 0
0 1 0
1 1 0
0 1 0
0 1 0
0 1 0
0 1 0
0 1 0
0 1 0
0 1 0
0 1 0
0 1 0
0 0 0.000701915
0.00326543 0 0
0.0428931 0 0
0.167132 0 0
0.638727 0 0
1 0 0
1 0.401312 0.411444
1 1 1
1 1 1
0 0.00555428 0.0047303
0.00738537 0.00337224 0.002533
0.0472572 0 0
0.171908 0 0
0.642878 0 0
1 0 0
1 0.424979 0.424155
1 1 1
1 1 1
0 0.0296483 0.0111543
0.0137789 0.0274205 0.00892653
0.0535439 0.0237278 0.00523384
0.177737 0.0124361 0
0.648051 0 0
1 0 0
1 0.460685 0.442191
1 1 1
1 1 1
0.010544 0.102358 0.0334936
0.0359197 0.0999313 0.0310674
0.0754253 0.0959793 0.0271153
0.198978 0.0840467 0.0151827
0.669017 0.0272068 0
1 0.0874495 0.0185855
1 0.572915 0.504051
1 1 1
1 1 1
0.0883955 0.343374 0.11136
0.114748 0.341909 0.109895
0.155428 0.339132 0.107118
0.283635 0.331853 0.0998398
0.775418 0.296773 0.0647593
1 0.430854 0.19884
1 0.93756 0.705547
1 1 1
1 1 1
0 1 0
0 1 0
0 1 0
0 1 0
0.0128023 1 0
0.889555 1 0
1 1 0
1 1 1
1 1 1
0 1 0
0 1 0
0 1 0
0 1 0
0 1 0
0 1 0
0.211048 1 0
1 1 0
1 1 1
0 1 0
0 1 0
0 1 0
0 1 0
0 1 0
0 1 0
0 1 0
0 1 0
1 1 0
0 1 0
0 1 0
0 1 0
0 1 0
0 1 0
0 1 0
0 1 0
0 1 0
0 1 0
0 0 0.0139925
0.00421149 0 0.0117037
0.0438239 0 0.0078584
0.168139 0 0
0.639704 0 0
1 0 0
1 0.403525 0.425986
1 1 1
1 1 1
0 0.00665293 0.0181582
0.00848402 0.00445563 0.0159762
0.0483558 0.000869764 0.0123751
0.172915 0 0.00146487
0.643671 0 0
1 0 0
1 0.427192 0.438697
1 1 1
1 1 1
0 0.0305486 0.0243839
0.014847 0.0284886 0.0223239
0.0545815 0.0247807 0.018616
0.178744 0.0134585 0.00729381
0.648829 0 0
1 0 0
1 0.462898 0.456733
1 1 1
1 1 1
0.0114748 0.103288 0.0467689
0.0368963 0.100893 0.0443732
0.0764019 0.0969406 0.0404364
0.199939 0.0849928 0.0284733
0.669825 0.0280156 0
1 0.0892653 0.0327459
1 0.575113 0.518593
1 1 1
1 1 1
0.0897536 0.344732 0.125063
0.115969 0.343114 0.123445
0.156741 0.340444 0.120775
0.285161 0.333379 0.11371
0.777264 0.298604 0.0789349
1 0.433143 0.213458
1 0.939757 0.720088
1 1 1
1 1 1
0 1 0
0 1 0
0 1 0
0 1 0
0.0150149 1 0
0.891768 1 0
1 1 0
1 1 1
1 1 1
0 1 0
0 1 0
0 1 0
0 1 0
0 1 0
0 1 0
0.213245 1 0
1 1 0
1 1 1
0 1 0
0 1 0
0 1 0
0 1 0
0 1 0
0 1 0
0 1 0
0 1 0
1 1 0
0 1 0
0 1 0
0 1 0
0 1 0
0 1 0
0 1 0
0 1 0
0 1 0
0 1 0
0 0 0.0507973
0.00766003 0 0.0484932
0.0471351 0 0.0445258
0.171832 0 0.0337377
0.643046 0 0
1 0 0.0116884
1 0.410986 0.466819
1 1 1
1 1 1
0 0.0103761 0.0552529
0.0122072 0.00819409 0.0530556
0.0520638 0.00459297 0.0494545
0.176471 0 0.0383764
0.646998 0 0
1 0 0.0183719
1 0.434669 0.47953
1 1 1
1 1 1
0 0.0343175 0.0615091
0.0184329 0.0320745 0.0592813
0.0581369 0.0283207 0.0555276
0.182208 0.016907 0.0440986
0.65214 0 0
1 0.0011902 0.0283818
1 0.470359 0.497566
1 1 1
1 1 1
0.0147555 0.106569 0.0834058
0.0402228 0.104234 0.0810712
0.0797284 0.100282 0.0771191
0.20325 0.088304 0.0651408
0.673274 0.0314794 0.00831617
1 0.0952621 0.0720989
1 0.582589 0.559426
1 1 1
1 1 1
0.0943465 0.349325 0.163012
0.120546 0.347707 0.161379
0.161639 0.345342 0.159014
0.290257 0.338476 0.152163
0.783368 0.304723 0.11841
1 0.440589 0.254276
1 0.947234 0.760922
1 1 1
1 1 1
0 1 0
0 1 0
0 1 0
0 1 0
0.0224765 1 0
0.899229 1 0
1 1 0.0175631
1 1 1
1 1 1
0 1 0
0 1 0
0 1 0
0 1 0
0 1 0
0 1 0
0.220722 1 0
1 1 0
1 1 1
0 1 0
0 1 0
0 1 0
0 1 0
0 1 0
0 1 0
0 1 0
0 1 0
1 1 0
0 1 0
0 1 0
0 1 0
0 1 0
0 1 0
0 1 0
0 1 0
0 1 0
0 1 0
0 0.00808728 0.149767
0.0210575 0.00607309 0.147753
0.060853 0.00242618 0.144106
0.185107 0 0.13286
0.655375 0 0.0762646
1 0 0.114244
1 0.436912 0.578592
1 1 1
1 1 1
6.10361e-05 0.0238499 0.154574
0.0257725 0.0217441 0.152468
0.0654765 0.0179904 0.148714
0.189517 0.00656138 0.13727
0.659449 0 0.0803388
1 0 0.121813
1 0.460578 0.591302
1 1 1
1 1 1
0.0059205 0.047364 0.160418
0.0315557 0.0452125 0.158267
0.0711681 0.0413519 0.154406
0.194949 0.0296483 0.142702
0.664607 0 0.0854963
1 0.0200504 0.133104
1 0.496284 0.609339
1 1 1
1 1 1
0.0271458 0.118959 0.181659
0.0526894 0.116686 0.179385
0.0921645 0.112718 0.175418
0.215717 0.100786 0.16347
0.686381 0.0445869 0.107271
1 0.116976 0.179675
1 0.608515 0.671199
1 1 1
1 1 1
0.11194 0.366918 0.266453
0.138384 0.365545 0.26508
0.179583 0.363287 0.262821
0.309636 0.357839 0.257389
0.805264 0.326619 0.226154
1 0.466392 0.365942
1 0.973144 0.872694
1 1 1
1 1 1
0 1 0
0 1 0
0 1 0
0 1 0
0.0484016 1 0
0.925155 1 0
1 1 0.129351
1 1 1
1 1 1
0 1 0
0 1 0
0 1 0
0 1 0
0 1 0
0 1 0
0.246647 1 0
1 1 0
1 1 1
0 1 0
0 1 0
0 1 0
0 1 0
0 1 0
0 1 0
0 1 0
0 1 0
1 1 0
0 1 0
0 1 0
0 1 0
0 1 0
0 1 0
0 1 0
0 1 0
0 1 0
0 1 0
0 0.004654 1
0.0171969 0.00222782 1
0.0567025 0 1
0.180255 0 1
0.650294 0 0.98471
1 0 1
1 0.475364 1
1 1 1
1 1 1
0 0.0197299 1
0.0213169 0.0173037 1
0.0608072 0.0133364 1
0.184329 0.00135805 1
0.654688 0 0.989105
1 0.010544 1
1 0.499031 1
1 1 1
1 1 1
0.00109865 0.0425574 1
0.0264591 0.040116 1
0.0659495 0.0361334 1
0.189502 0.0242008 1
0.66041 0 0.994842
1 0.042298 1
1 0.534737 1
1 1 1
1 1 1
0.0222019 0.114015 1
0.0476692 0.111666 1
0.0873274 0.107866 1
0.211566 0.0966354 1
0.686793 0.0449836 1
1 0.14548 1
1 0.646967 1
1 1 1
1 1 1
0.131441 0.386419 1
0.158801 0.385962 1
0.200916 0.384619 1
0.333181 0.381384 1
0.834379 0.355734 1
1 0.506172 1
1 1 1
1 1 1
1 1 1
0 1 0.438346
0 1 0.438544
0 1 0.438422
0 1 0.438712
0.0868544 1 0.421286
0.963607 1 0.575006
1 1 1
1 1 1
1 1 1
0 1 0
0 1 0
0 1 0
0 1 0
0 1 0
0 1 0
0.285084 1 0
1 1 0
1 1 1
0 1 0
0 1 0
0 1 0
0 1 0
0 1 0
0 1 0
0 1 0
0 1 0
1 1 0
0 1 0
0 1 0
0 1 0
0 1 0
0 1 0
0 1 0
0 1 0
0 1 0
0 1 0
0 0 1
0 0 1
0.00993362 0 1
0.138872 0 1
0.6327 0 1
1 0.0489357 1
1 0.555596 1
1 1 1
1 1 1
0 0 1
0 0 1
0.0176699 0 1
0.147646 0 1
0.642817 0 1
1 0.0727092 1
1 0.579263 1
1 1 1
1 1 1
0 0.00250248 1
0 0.00143435 1
0.0294041 0 1
0.160342 0 1
0.657526 0 1
1 0.108629 1
1 0.614969 1
1 1 1
1 1 1
0.0074464 0.0992599 1
0.0345769 0.0985885 1
0.0770275 0.0975662 1
0.209522 0.0945907 1
0.711971 0.0701762 1
1 0.222049 1
1 0.727199 1
1 1 1
1 1 1
0.193668 0.448646 1
0.221592 0.448753 1
0.264973 0.448676 1
0.401022 0.449241 1
0.911604 0.432959 1
1 0.585504 1
1 1 1
1 1 1
1 1 1
0 1 1
0 1 1
0 1 1
0 1 1
0.167086 1 1
1 1 1
1 1 1
1 1 1
1 1 1
0 1 0.604089
0 1 0.604288
0 1 0.604166
0 1 0.604456
0 1 0.58703
0 1 0.740749
0.365316 1 1
1 1 1
1 1 1
0 1 0
0 1 0
0 1 0
0 1 0
0 1 0
0 1 0
0 1 0
0 1 0
1 1 0
0 1 0
0 1 0
0 1 0
0 1 0
0 1 0
0 1 0
0 1 0
0 1 0
0 1 0
0.160571 0.173419 1
0.188586 0.173602 1
0.231922 0.17348 1
0.367697 0.173785 1
0.877134 0.156344 1
1 0.310063 1
1 0.816403 1
1 1 1
1 1 1
0.173297 0.197086 1
0.201297 0.197269 1
0.244633 0.197162 1
0.380407 0.197452 1
0.889845 0.180011 1
1 0.33373 1
1 0.84007 1
1 1 1
1 1 1
0.191333 0.232776 1
0.219333 0.232975 1
0.262669 0.232853 1
0.398444 0.233158 1
0.907881 0.215717 1
1 0.369436 1
1 0.875776 1
1 1 1
1 1 1
0.253193 0.345006 1
0.281193 0.345205 1
0.324529 0.345083 1
0.460319 0.345373 1
0.969741 0.327947 1
1 0.481666 1
1 0.987991 1
1 1 1
1 1 1
0.454673 0.709651 1
0.482689 0.70985 1
0.526024 0.709728 1
0.661799 0.710018 1
1 0.692576 1
1 0.846296 1
1 1 1
1 1 1
1 1 1
0 1 1
0 1 1
0 1 1
0 1 1
0.427893 1 1
1 1 1
1 1 1
1 1 1
1 1 1
0 1 1
0 1 1
0 1 1
0 1 1
0 1 1
0 1 1
0.626123 1 1
1 1 1
1 1 1
0 1 1
0 1 1
0 1 1
0 1 1
0 1 1
0 1 1
0 1 1
0 1 1
1 1 1
0 1 0
0 1 0
0 1 0
0 1 0
0 1 0
0 1 0
0 1 0
0 1 0
0 1 0
1 1 1
1 1 1
1 1 1
1 1 1
1 1 1
1 1 1
1 1 1
1 1 1
1 1 1
1 1 1
1 1 1
1 1 1
1 1 1
1 1 1
1 1 1
1 1 1
1 1 1
1 1 1
1 1 1
1 1 1
1 1 1
1 1 1
1 1 1
1 1 1
1 1 1
1 1 1
1 1 1
1 1 1
1 1 1
1 1 1
1 1 1
1 1 1
1 1 1
1 1 1
1 1 1
1 1 1
1 1 1
1 1 1
1 1 1
1 1 1
1 1 1
1 1 1
1 1 1
1 1 1
1 1 1
0.559075 1 1
0.587076 1 1
0.630411 1 1
0.766201 1 1
1 1 1
1 1 1
1 1 1
1 1 1
1 1 1
0 1 1
0 1 1
0 1 1
0 1 1
0 1 1
0 1 1
1 1 1
1 1 1
1 1 1
0 1 1
0 1 1
0 1 1
0 1 1
0 1 1
0 1 1
0 1 1
0 1 1
1 1 1
0 1 1
0 1 1
0 1 1
0 1 1
0 1 1
0 1 1
0 1 1
0 1 1
0 1 1
