Assets/HMP LUTs/LUTs/HMPLUTs_Stuart.cube
TITLE "Generated by Resolve"
LUT_3D_SIZE 33
0 0 0
0 0 0
0 0 0
0 0 0
0 0 0
0 0 0
0 0 0
0 0 0
0.0075227 0 0
0.0260777 0 0
0.0509957 0 0
0.0844587 0 0
0.129381 0 0
0.1897 0 0
0.276844 0 0
0.422187 0 0
0.559869 0 0
0.884596 0 0
1 0 0
1 0 0
1 0 0
1 0 0
1 0 0
1 0 0
1 0 0
1 0 0
1 0 0
1 0 0
1 0 0
1 0 0
1 0 0
1 0 0
1 0 0
0 0 0
0 0 0
0 0 0
0 0 0
0 0 0
0 0 0
0 0 0
0 0 0
0.00762951 0 0
0.0261845 0 0
0.0511025 0 0
0.0845655 0 0
0.129488 0 0
0.189807 0 0
0.276982 0 0
0.422324 0 0
0.559976 0 0
0.884794 0 0
1 0 0
1 0 0
1 0 0
1 0 0
1 0 0
1 0 0
1 0 0
1 0 0
1 0 0
1 0 0
1 0 0
1 0 0
1 0 0
1 0 0
1 0 0
0 0 0
0 0 0
0 0 0
0 0 0
0 0 0
0 0 0
0 0 0
0 0 0
0.00773632 0 0
0.0262913 0 0
0.0512093 0 0
0.0846723 0 0
0.129595 0 0
0.189914 0 0
0.277119 0 0
0.422461 0 0
0.560082 0 0
0.885008 0 0
1 0 0
1 0 0
1 0 0
1 0 0
1 0 0
1 0 0
1 0 0
1 0 0
1 0 0
1 0 0
1 0 0
1 0 0
1 0 0
1 0 0
1 0 0
0 0 0
0 0 0
0 0 0
0 0 0
0 0 0
0 0 0
0 0 0
0 0 0
0.00784314 0 0
0.0263981 0 0
0.0513161 0 0
0.0847791 0 0
0.129702 0 0
0.190021 0 0
0.277256 0 0
0.422599 0 0
0.560174 0 0
0.885222 0 0
1 0 0
1 0 0
1 0 0
1 0 0
1 0 0
1 0 0
1 0 0
1 0 0
1 0 0
1 0 0
1 0 0
1 0 0
1 0 0
1 0 0
1 0 0
0 0 0
0 0 0
0 0 0
0 0 0
0 0 0
0 0 0
0 0 0
0 0 0
0.00794995 0 0
0.0265049 0 0
0.0514229 0 0
0.0848859 0 0
0.129809 0 0
0.190127 0 0
0.277394 0 0
0.422736 0 0
0.560281 0 0
0.88542 0 0
1 0 0
1 0 0
1 0 0
1 0 0
1 0 0
1 0 0
1 0 0
1 0 0
1 0 0
1 0 0
1 0 0
1 0 0
1 0 0
1 0 0
1 0 0
0 0 0
0 0 0
0 0 0
0 0 0
0 0 0
0 0 0
0 0 0
0 0 0
0.00805676 0 0
0.0266117 0 0
0.0515297 0 0
0.0849928 0 0
0.129915 0 0
0.190234 0 0
0.277546 0 0
0.422873 0 0
0.560388 0 0
0.885634 0 0
1 0 0
1 0 0
1 0 0
1 0 0
1 0 0
1 0 0
1 0 0
1 0 0
1 0 0
1 0 0
1 0 0
1 0 0
1 0 0
1 0 0
1 0 0
0 0 0
0 0 0
0 0 0
0 0 0
0 0 0
0 0 0
0 0 0
0 0 0
0.00819409 0 0
0.0267491 0 0
0.051667 0 0
0.0851148 0 0
0.130037 0 0
0.190356 0 0
0.277699 0 0
0.423041 0 0
0.56051 0 0
0.885878 0 0
1 0 0
1 0 0
1 0 0
1 0 0
1 0 0
1 0 0
1 0 0
1 0 0
1 0 0
1 0 0
1 0 0
1 0 0
1 0 0
1 0 0
1 0 0
0 0 0
0 0 0
0 0 0
0 0 0
0 0 0
0 0 0
0 0 0
0 0 0
0.00836194 0 0
0.0269169 0 0
0.0518349 0 0
0.0852979 0 0
0.13022 0 0
0.190539 0 0
0.277928 0 0
0.423255 0 0
0.560678 0 0
0.886213 0 0
1 0 0
1 0 0
1 0 0
1 0 0
1 0 0
1 0 0
1 0 0
1 0 0
1 0 0
1 0 0
1 0 0
1 0 0
1 0 0
1 0 0
1 0 0
0 0 0
0 0 0
0 0 0
0 0 0
0 0 0
0 0 0
0 0 0
0 0 0
0.00859083 0 0
0.0271458 0 0
0.0520638 0 0
0.0855268 0 0
0.130449 0 0
0.190768 0 0
0.278233 0 0
0.42356 0 0
0.560891 0 0
0.886671 0 0
1 0 0
1 0 0
1 0 0
1 0 0
1 0 0
1 0 0
1 0 0
1 0 0
1 0 0
1 0 0
1 0 0
1 0 0
1 0 0
1 0 0
1 0 0
0 0.0172732 0
0 0.0172427 0
0 0.0172122 0
0 0.0171817 0
0 0.0171511 0
0 0.0171206 0
0 0.0170748 0
0 0.0170291 0
0.00891127 0.0169528 0
0.0274662 0.0168612 0
0.0523842 0.0167391 0
0.085832 0.0165713 0
0.13077 0.0163424 0
0.191073 0.0160525 0
0.27863 0.0156558 0
0.423957 0.0151064 0
0.561196 0.0143893 0
0.887266 0.0134127 0
1 0.0121004 0
1 0.0103609 0
1 0.00799573 0
1 0.00483711 0
1 0.00108339 0
1 0 0
1 0 0
1 0 0
1 0 0
1 0 0
1 0 0
1 0 0
1 0 0
1 0 0
1 0 0
0 0.0415656 0
0 0.0415351 0
0 0.0415045 0
0 0.041474 0
0 0.0414435 0
0 0.041413 0
0 0.0413672 0
0 0.0413214 0
0.00932326 0.0412451 0
0.0278782 0.0411536 0
0.0527962 0.0410315 0
0.0862593 0.0408637 0
0.131182 0.0406348 0
0.191501 0.0403449 0
0.279164 0.0399329 0
0.424491 0.0393988 0
0.561593 0.0386816 0
0.888075 0.037705 0
1 0.0363928 0
1 0.034638 0
1 0.0322881 0
1 0.0291295 0
1 0.0248875 0
1 0.0191806 0
1 0.0115358 0
1 0.00173953 0
1 0 0
1 0 0
1 0 0
1 0 0
1 0 0
1 0 0
1 0 0
0 0.0741894 0
0 0.0741436 0
0 0.0741131 0
0 0.0740826 0
0 0.074052 0
0 0.0740215 0
0 0.073991 0
0 0.07393 0
0.00988785 0.0738689 0
0.0284428 0.0737774 0
0.0533608 0.0736553 0
0.0868238 0.0734875 0
0.131746 0.0732586 0
0.192065 0.0729686 0
0.279896 0.0725567 0
0.425208 0.0720226 0
0.562127 0.0712902 0
0.889158 0.0703288 0
1 0.0690166 0
1 0.0672618 0
1 0.0649119 0
1 0.0617533 0
1 0.0575113 0
1 0.0518044 0
1 0.0441596 0
1 0.033875 0
1 0.0200809 0
1 0.00204471 0
1 0 0
1 0 0
1 0 0
1 0 0
1 0 0
0 0.117983 0
0 0.117952 0
0 0.117906 0
0 0.117891 0
0 0.117845 0
0 0.117815 0
0 0.117784 0
0 0.117739 0
0.0106508 0.117662 0
0.0292058 0.117571 0
0.0541238 0.117449 0
0.0875715 0.117281 0
0.132494 0.117052 0
0.192813 0.116762 0
0.280873 0.11635 0
0.426169 0.115816 0
0.56286 0.115099 0
0.890623 0.114122 0
1 0.11281 0
1 0.111055 0
1 0.108705 0
1 0.105547 0
1 0.101305 0
1 0.0955978 0
1 0.087953 0
1 0.0776684 0
1 0.0638743 0
1 0.0453498 0
1 0.0204776 0
1 0 0
1 0 0
1 0 0
1 0 0
0 0.176791 0
0 0.176761 0
0 0.176715 0
0 0.176684 0
0 0.176654 0
0 0.176623 0
0 0.176593 0
0 0.176532 0
0.0116579 0.176471 0
0.0302129 0.176379 0
0.0551308 0.176257 0
0.0885939 0.176089 0
0.133516 0.17586 0
0.193835 0.17557 0
0.282185 0.175158 0
0.427436 0.174624 0
0.563836 0.173892 0
0.892576 0.17293 0
1 0.171618 0
1 0.169863 0
1 0.167514 0
1 0.164355 0
1 0.160113 0
1 0.154406 0
1 0.146761 0
1 0.136477 0
1 0.122683 0
1 0.104158 0
1 0.0792859 0
1 0.0458839 0
1 0.00151064 0
1 0 0
1 0 0
0 0.258015 0
0 0.257984 0
0 0.257939 0
0 0.257908 0
0 0.257862 0
0 0.257832 0
0 0.257771 0
0 0.257725 0
0.0130312 0.257633 0
0.0315862 0.257527 0
0.0565042 0.257374 0
0.0899519 0.25716 0
0.134874 0.256886 0
0.195193 0.256519 0
0.283955 0.256031 0
0.429114 0.25536 0
0.565148 0.254475 0
0.895201 0.253285 0
1 0.251698 0
1 0.249577 0
1 0.246754 0
1 0.243 0
1 0.238193 0
1 0.23209 0
1 0.224384 0
1 0.214588 0
1 0.201556 0
1 0.183124 0
1 0.158236 0
1 0.124849 0
1 0.0799878 0
1 0.0197757 0
1 0 0
0 0.399115 0
0 0.399069 0
0 0.399023 0
0 0.398993 0
0 0.398947 0
0 0.398901 0
0 0.398856 0
0.00151064 0.398779 0
0.014847 0.398688 0
0.0334173 0.398566 0
0.05832 0.398413 0
0.091783 0.398184 0
0.136706 0.397894 0
0.197024 0.397498 0
0.286336 0.396963 0
0.431312 0.396246 0
0.566934 0.39527 0
0.898741 0.393988 0
1 0.392233 0
1 0.389899 0
1 0.38674 0
1 0.382483 0
1 0.376761 0
1 0.369039 0
1 0.358633 0
1 0.344625 0
1 0.325872 0
1 0.300984 0
1 0.268666 0
1 0.229511 0
1 0.186023 0
1 0.125795 0
1 0.0449378 0
0 0.539849 0
0 0.539818 0
0 0.539788 0
0 0.539757 0
0 0.539727 0
0 0.539696 0
0 0.539666 0
0.00349432 0.53962 0
0.0173037 0.539544 0
0.0358587 0.539467 0
0.0607767 0.539345 0
0.0942397 0.539193 0
0.139162 0.538979 0
0.199451 0.538705 0
0.28954 0.538323 0
0.43418 0.53782 0
0.569345 0.537133 0
0.903487 0.536217 0
1 0.534997 0
1 0.533333 0
1 0.53109 0
1 0.528069 0
1 0.523964 0
1 0.518715 0
1 0.512444 0
1 0.504845 0
1 0.494697 0
1 0.478233 0
1 0.453285 0
1 0.41416 0
1 0.354055 0
1 0.27361 0
1 0.187304 0
0 0.833921 0
0 0.83386 0
0 0.833799 0
0 0.833738 0
0 0.833677 0
0 0.833616 0
0 0.833539 0
0.00679026 0.833432 0
0.0205997 0.83331 0
0.0391699 0.833127 0
0.0640879 0.832883 0
0.0975357 0.832563 0
0.142458 0.832135 0
0.20264 0.831571 0
0.293873 0.830793 0
0.437934 0.82974 0
0.57261 0.828351 0
0.909865 0.826474 0
1 0.823941 0
1 0.820569 0
1 0.816022 0
1 0.809903 0
1 0.801709 0
1 0.790707 0
1 0.775937 0
1 0.756085 0
1 0.729442 0
1 0.692851 0
1 0.64538 0
1 0.600412 0
1 0.554269 0
1 0.501595 0
1 0.42092 0
0 1 0
0 1 0
0 1 0
0 1 0
0 1 0
0 1 0
0.00140383 1 0
0.0112154 1 0
0.0250401 1 0
0.043595 1 0
0.068513 1 0
0.101961 1 0
0.146883 1 0
0.206851 1 0
0.299733 1 0
0.442847 1 0
0.577081 1 0
0.91841 1 0
1 1 0
1 1 0
1 1 0
1 1 0
1 1 0
1 1 0
1 1 0
1 1 0
1 1 0
1 1 0
1 1 0
1 1 0
1 0.990173 0
1 0.873884 0
1 0.717739 0
0 1 0
0 1 0
0 1 0
0 1 0
0 1 0
0 1 0
0.00686656 1 0
0.0171664 1 0
0.0309758 1 0
0.049546 1 0
0.0744488 1 0
0.107912 1 0
0.152834 1 0
0.212436 1 0
0.307652 1 0
0.449317 1 0
0.583261 1 0
0.9299 1 0
1 1 0
1 1 0
1 1 0
1 1 0
1 1 0
1 1 0
1 1 0
1 1 0
1 1 0
1 1 0
1 1 0
1 1 0
1 1 0
1 1 0
1 1 0
0 1 0
0 1 0
0 1 0
0 1 0
0.0012665 1 0
0.007187 1 0
0.014847 1 0
0.0251469 1 0
0.0389715 1 0
0.0575265 1 0
0.0824445 1 0
0.115892 1 0
0.160815 1 0
0.219959 1 0
0.318379 1 0
0.457725 1 0
0.591897 1 0
0.945312 1 0
1 1 0
1 1 0
1 1 0
1 1 0
1 1 0
1 1 0
1 1 0
1 1 0
1 1 0
1 1 0
1 1 0
1 1 0
1 1 0
1 1 0
1 1 0
0 1 0
0 1 0
0 1 0
0.00511177 1 0
0.0115053 1 0
0.0179141 1 0
0.0255741 1 0
0.035874 1 0
0.0496834 1 0
0.0682383 1 0
0.0931563 1 0
0.126619 1 0
0.171542 1 0
0.230518 1 0
0.332906 1 0
0.468589 1 0
0.604257 1 0
0.966018 1 0
1 1 0
1 1 0
1 1 0
1 1 0
1 1 0
1 1 0
1 1 0
1 1 0
1 1 0
1 1 0
1 1 0
1 1 0
1 1 0
1 1 0
1 1 0
0.000808728 1 0.012604
0.00671397 1 0.0125734
0.0131075 1 0.0125277
0.019501 1 0.0125124
0.0258946 1 0.0124819
0.0323033 1 0.0124361
0.0399634 1 0.0124056
0.0502632 1 0.0123598
0.0640879 1 0.0122835
0.0826429 1 0.012192
0.107561 1 0.0120699
0.141009 1 0.011902
0.185931 1 0.0116732
0.246479 1 0.0113832
0.352499 1 0.0109712
0.482506 1 0.0104372
0.622553 1 0.00972
0.993805 1 0.00874342
1 1 0.00743114
1 1 0.00567636
1 1 0.00332647
1 1 0.000656138
1 1 0
1 1 0
1 1 0
1 1 0
1 1 0
1 1 0
1 1 0
1 1 0
1 1 0
1 1 0
1 1 0
0.0196384 1 0.0319219
0.0260471 1 0.0318914
0.0324407 1 0.0318608
0.0388342 1 0.0318303
0.0452277 1 0.0317998
0.0516365 1 0.0317693
0.0592966 1 0.0317388
0.0695964 1 0.0316777
0.0834058 1 0.0316167
0.101961 1 0.0315251
0.126879 1 0.0314031
0.160342 1 0.0312352
0.20502 1 0.0310063
0.270329 1 0.0307164
0.378759 1 0.0303044
0.498695 1 0.0297704
0.651225 1 0.0290379
1 1 0.0280766
1 1 0.0267643
1 1 0.0250095
1 1 0.0226596
1 1 0.019501
1 1 0.0152438
1 1 0.00955215
1 1 0.00238041
1 1 0
1 1 0
1 1 0
1 1 0
1 1 0
1 1 0
1 1 0
1 1 0
0.045594 1 0.0578775
0.0520027 1 0.057847
0.0583963 1 0.0578164
0.0647898 1 0.0577859
0.0711833 1 0.0577554
0.0775921 1 0.0577249
0.0852522 1 0.0576791
0.095552 1 0.0576333
0.109361 1 0.0575723
0.127916 1 0.0574807
0.152834 1 0.0573587
0.186297 1 0.0571908
0.229862 1 0.0569619
0.304173 1 0.0566567
0.41326 1 0.05626
0.518303 1 0.0557259
0.702342 1 0.0549935
1 1 0.0540169
1 1 0.0527199
1 1 0.0509651
1 1 0.0486152
1 1 0.0454566
1 1 0.0411994
1 1 0.0355077
1 1 0.0278477
1 1 0.0175784
1 1 0.00378424
1 1 0
1 1 0
1 1 0
1 1 0
1 1 0
1 1 0
0.0804456 1 0.0927291
0.0868391 1 0.0926986
0.0932326 1 0.092668
0.0996414 1 0.0926375
0.106035 1 0.092607
0.112444 1 0.0925765
0.120104 1 0.0925307
0.130388 1 0.0924849
0.144213 1 0.0924239
0.162768 1 0.0923171
0.187686 1 0.092195
0.219974 1 0.0920424
0.270954 1 0.0918135
0.351324 1 0.0915084
0.454063 1 0.0911116
0.551064 1 0.0905776
0.76994 1 0.0898451
1 1 0.0888685
1 1 0.0875715
1 1 0.0858167
1 1 0.0834669
1 1 0.080293
1 1 0.076051
1 1 0.0703593
1 1 0.0626993
1 1 0.05243
1 1 0.0386358
1 1 0.0200961
1 1 0
1 1 0
1 1 0
1 1 0
1 1 0
0.127245 1 0.139528
0.133639 1 0.139498
0.140032 1 0.139467
0.146426 1 0.139422
0.152819 1 0.139391
0.159228 1 0.139376
0.166888 1 0.13933
0.177188 1 0.139284
0.191012 1 0.139208
0.209079 1 0.139116
0.233249 1 0.138994
0.273335 1 0.138827
0.332906 1 0.138598
0.414099 1 0.138308
0.497841 1 0.137911
0.598718 1 0.137362
0.860288 1 0.136645
1 1 0.135668
1 1 0.134371
1 1 0.132616
1 1 0.130251
1 1 0.127092
1 1 0.12285
1 1 0.117159
1 1 0.109499
1 1 0.0992142
1 1 0.08542
1 1 0.0668956
1 1 0.0420233
1 1 0.00862135
1 1 0
1 1 0
1 1 0
0.190082 1 0.202243
0.196475 1 0.202213
0.202731 1 0.202182
0.208789 1 0.202152
0.214786 1 0.202121
0.220844 1 0.20209
0.228351 1 0.202045
0.239246 1 0.201999
0.25568 1 0.201938
