Assets/HMP LUTs/LUTs/HMPLUTs_Saturno.cube
TITLE "Generated by Resolve"
LUT_3D_SIZE 33
0 0 0
0 0 0
0 0 0
0 0 0
0 0 0
0 0 0
0 0 0
0 0 0
0 0 0
0 0 0
0 0 0
0 0 0
0 0 0
0 0 0
0.0249027 0 0
0.0664836 0 0.00758373
0.138933 0.00509651 0.0195468
0.262104 0.0157015 0.0316167
0.470985 0.019913 0.0397345
0.82591 0.00724804 0.0357824
1 0 0.00386053
1 0 0
1 0 0
1 0 0
1 0 0
1 0 0
1 0 0
1 0 0
1 0 0
1 0 0
1 0 0
1 0 0
1 0 0
0 0 0
0 0 0
0 0 0
0 0 0
0 0 0
0 0 0
0 0 0
0 0 0
0 0 0
0 0 0
0 0 0
0 0 0
0 0 0
0.00215152 0 0
0.0278172 0 0.000534066
0.0695659 0 0.0103304
0.14226 0.00903334 0.0224918
0.265583 0.0197604 0.0346838
0.474571 0.0240787 0.0428931
0.829602 0.0115206 0.0390326
1 0 0.007187
1 0 0
1 0 0
1 0 0
1 0 0
1 0 0
1 0 0
1 0 0
1 0 0
1 0 0
1 0 0
1 0 0
1 0 0
0 0 0
0 0 0
0 0 0
0 0 0
0 0 0
0 0 0
0 0 0
0 0 0
0 0 0
0 0 0
0 0 0
0 0 0
0 0 0
0.00531014 0 0
0.0305028 0 0.00294499
0.0727398 0.000900282 0.013138
0.145617 0.0129702 0.0254673
0.269078 0.0238346 0.0377661
0.478187 0.0282597 0.0460822
0.833326 0.0157778 0.042298
1 0 0.0105287
1 0 0
1 0 0
1 0 0
1 0 0
1 0 0
1 0 0
1 0 0
1 0 0
1 0 0
1 0 0
1 0 0
1 0 0
0 0 0
0 0 0
0 0 0
0 0 0
0 0 0
0 0 0
0 0 0
0 0 0
0 0 0
0 0 0
0 0 0
0 0 0
0 0 0
0.00842298 0 0
0.0331579 0 0.0053254
0.0759594 0.00469978 0.0159915
0.149035 0.0169375 0.0284733
0.272618 0.0279088 0.0408789
0.481834 0.0324254 0.0492866
0.837064 0.0200504 0.0455787
1 0 0.013901
1 0 0
1 0 0
1 0 0
1 0 0
1 0 0
1 0 0
1 0 0
1 0 0
1 0 0
1 0 0
1 0 0
1 0 0
0 0 0
0 0 0
0 0 0
0 0 0
0 0 0
0 0 0
0 0 0
0 0 0
0 0 0
0 0 0
0 0 0
0 0 0
0 0 0
0.01149 0 0
0.0361334 0 0.00796521
0.0792554 0.00851453 0.0188907
0.152483 0.0209049 0.0315099
0.276188 0.0319829 0.0440223
0.485512 0.0366064 0.0525063
0.840833 0.0243076 0.0488899
1 0 0.0172732
1 0 0
1 0 0
1 0 0
1 0 0
1 0 0
1 0 0
1 0 0
1 0 0
1 0 0
1 0 0
1 0 0
1 0 0
0 0 0
0 0 0
0 0 0
0 0 0
0 0 0
0 0 0
0 0 0
0 0 0
0 0 0
0 0 0
0 0 0
0 0 0
0 0 0
0.0144503 0 0.00222782
0.0392309 0.000946059 0.0107118
0.0825971 0.0123598 0.0218357
0.155978 0.0248722 0.0345769
0.279805 0.0360723 0.0471809
0.489219 0.0407721 0.0557565
0.844633 0.0285649 0.0522011
1 0 0.020676
1 0 0
1 0 0
1 0 0
1 0 0
1 0 0
1 0 0
1 0 0
1 0 0
1 0 0
1 0 0
1 0 0
1 0 0
0 0 0
0 0 0
0 0 0
0 0 0
0 0 0
0 0 0
0 0 0
0 0 0
0 0 0
0 0 0
0 0 0
0 0 0
0.0028687 0 0
0.0176547 0 0.00508125
0.0430762 0.00535592 0.0140841
0.0866712 0.0169833 0.0254063
0.160204 0.0296483 0.0382849
0.284153 0.0409552 0.0509957
0.49369 0.0457771 0.0596628
0.849226 0.0336614 0.0562142
1 0 0.0247654
1 0 0
1 0 0
1 0 0
1 0 0
1 0 0
1 0 0
1 0 0
1 0 0
1 0 0
1 0 0
1 0 0
1 0 0
0 0 0
0 0 0
0 0 0
0 0 0
0 0 0
0 0 0
0 0 0
0 0 0
0 0 0
0 0 0
0 0 0
0 0 0
0.00779736 0 0.00238041
0.0224613 0.00144961 0.00932326
0.0483864 0.011368 0.0187381
0.0922408 0.0232242 0.0302739
0.165957 0.0360723 0.0433051
0.290089 0.0475319 0.0561685
0.499779 0.0524758 0.0649577
0.855436 0.0404822 0.0616159
1 0 0.0302892
1 0 0
1 0 0
1 0 0
1 0 0
1 0 0
1 0 0
1 0 0
1 0 0
1 0 0
1 0 0
1 0 0
1 0 0
0 0 0
0 0 0
0 0 0
0 0 0
0 0 0
0 0 0
0 0 0
0 0 0
0 0 0
0 0 0
0 0 0
0.00531014 0 0.00224308
0.0139315 0.00111391 0.0077821
0.0294652 0.00929274 0.0154421
0.0557717 0.0195468 0.0251774
0.0998856 0.0316625 0.0369421
0.173831 0.0446937 0.0501564
0.298161 0.0563516 0.0631723
0.508034 0.0614633 0.0721294
0.86389 0.0496529 0.0689555
1 0.000762951 0.0377661
1 0 0
1 0 0
1 0 0
1 0 0
1 0 0
1 0 0
1 0 0
1 0 0
1 0 0
1 0 0
1 0 0
1 0 0
0 0 0
0 0 0
0 0 0
0 0 0
0 0 0
0 0 0
0 0 0
0 0 0
0 0 0
0.00315862 0 0.00224308
0.00791943 0 0.00518807
0.0139315 0.00476081 0.00978103
0.0234073 0.0115206 0.016022
0.0393835 0.0201114 0.0240482
0.0660258 0.0306706 0.0340734
0.11043 0.0430457 0.046067
0.184649 0.0563211 0.0595102
0.309224 0.0681926 0.0727398
0.519341 0.0735332 0.0818952
0.875425 0.0619211 0.0789044
1 0.0132448 0.0479133
1 0 0
1 0 0
1 0 0
1 0 0
1 0 0
1 0 0
1 0 0
1 0 0
1 0 0
1 0 0
1 0 0
1 0 0
0 0 0.00308232
0 7.62951e-05 0.00373846
0 0.000686656 0.0043183
0 0.00138857 0.00497444
0.00129702 0.00213626 0.00569162
0.00297551 0.00291447 0.00642405
0.00497444 0.00389105 0.00732433
0.00758373 0.00523384 0.00859083
0.0110018 0.0071107 0.0103456
0.0153506 0.00976577 0.0128176
0.0207828 0.0135348 0.0162966
0.0272526 0.0189364 0.0212711
0.0370947 0.0260166 0.0278325
0.0533913 0.0349126 0.0361334
0.080354 0.0457618 0.0464027
0.125048 0.0583963 0.0586557
0.199557 0.0719463 0.072343
0.324437 0.0840925 0.0858167
0.534844 0.0896925 0.0952163
0.891234 0.0783551 0.0924849
1 0.0299535 0.061738
1 0 0
1 0 0
1 0 0
1 0 0
1 0 0
1 0 0
1 0 0
1 0 0
1 0 0
1 0 0
1 0 0
1 0 0
0.0117952 0.0172732 0.0178836
0.0137179 0.0181125 0.018677
0.01561 0.018967 0.0194858
0.0174716 0.0198367 0.0202945
0.0192874 0.0207065 0.0211185
0.0211032 0.0215915 0.0219425
0.023209 0.0226749 0.0229648
0.0259709 0.024155 0.0243381
0.0295567 0.0261997 0.0262455
0.0341039 0.0290227 0.0288701
0.0397345 0.03299 0.0325322
0.0464485 0.0386053 0.037705
0.0565499 0.0459297 0.04448
0.0731365 0.0550698 0.0530251
0.100389 0.0661936 0.0635538
0.145418 0.079118 0.0760662
0.220249 0.0929732 0.0900282
0.345464 0.105425 0.103792
0.556237 0.111345 0.113481
0.912993 0.100343 0.111055
1 0.0522927 0.0806287
1 0 0
1 0 0
1 0 0
1 0 0
1 0 0
1 0 0
1 0 0
1 0 0
1 0 0
1 0 0
1 0 0
1 0 0
0.0382239 0.0433204 0.0403296
0.0402075 0.0442206 0.0411688
0.0421607 0.0451209 0.0420081
0.0440681 0.0460365 0.0428626
0.0459602 0.046952 0.0437324
0.0478065 0.0478981 0.0446174
0.0499733 0.0490272 0.0456703
0.0528267 0.0505837 0.0471199
0.0564889 0.0527047 0.0491035
0.0611734 0.0556497 0.0518349
0.0669566 0.0597391 0.0556191
0.0738537 0.0655222 0.0609445
0.0841688 0.0730449 0.0679026
0.101015 0.0824292 0.0766613
0.128557 0.0938125 0.0874342
0.173907 0.107042 0.100221
0.249119 0.121218 0.114488
0.374716 0.134035 0.128573
0.585916 0.140337 0.138628
0.943114 0.129747 0.136568
1 0.0821241 0.106538
1 0 0.0184024
1 0 0
1 0 0
1 0 0
1 0 0
1 0 0
1 0 0
1 0 0
1 0 0
1 0 0
1 0 0
1 0 0
0.0764019 0.0792706 0.0724041
0.0784314 0.0802014 0.0732738
0.080415 0.0811322 0.0741588
0.0823682 0.0820783 0.0750591
0.0842908 0.0830396 0.0759442
0.086183 0.0840162 0.0768597
0.0883955 0.0851911 0.0779583
0.0912947 0.0867933 0.0794537
0.0950484 0.0889906 0.0814984
0.0998245 0.0920119 0.0843061
0.10573 0.0962234 0.0882124
0.112779 0.102144 0.0936599
0.123293 0.10985 0.100786
0.140383 0.119448 0.109728
0.168215 0.131106 0.120745
0.213916 0.144625 0.133822
0.289509 0.159167 0.148425
0.415564 0.172381 0.162875
0.627253 0.179141 0.173342
0.984985 0.169039 0.17174
1 0.121935 0.142184
1 1.5259e-05 0.054551
1 0 0
1 0 0
1 0 0
1 0 0
1 0 0
1 0 0
1 0 0
1 0 0
1 0 0
1 0 0
1 0 0
0.130297 0.128542 0.117418
0.132357 0.129503 0.118334
0.134371 0.130465 0.119234
0.13637 0.131456 0.12015
0.138323 0.132433 0.12108
0.140246 0.13344 0.122011
0.142489 0.134646 0.12314
0.145449 0.136294 0.124681
0.149264 0.138552 0.126787
0.154116 0.141649 0.129656
0.160143 0.145968 0.133654
0.167346 0.152026 0.139223
0.178042 0.159899 0.146502
0.195361 0.169711 0.155642
0.223484 0.181613 0.166903
0.26952 0.195468 0.18027
0.345541 0.210391 0.195209
0.472084 0.224048 0.210086
0.684337 0.231312 0.221012
1 0.22179 0.219944
1 0.175326 0.190982
1 0.0540932 0.10399
1 0 0
1 0 0
1 0 0
1 0 0
1 0 0
1 0 0
1 0 0
1 0 0
1 0 0
1 0 0
1 0 0
0.201892 0.197253 0.177829
0.203967 0.19823 0.178759
0.206027 0.199222 0.17969
0.208042 0.200229 0.180636
0.210025 0.201251 0.181582
0.211978 0.202274 0.182544
0.214267 0.20351 0.183703
0.217258 0.205203 0.185275
0.221134 0.207507 0.187427
0.226078 0.210681 0.190372
0.232197 0.215091 0.194461
0.239536 0.221271 0.200137
0.250416 0.229313 0.207568
0.267964 0.239322 0.216907
0.296376 0.251499 0.228397
0.342779 0.265675 0.242069
0.419226 0.280995 0.257374
0.546304 0.29514 0.272694
0.759182 0.302983 0.284153
1 0.294118 0.28368
1 0.248402 0.255406
1 0.128008 0.169192
1 0 0
1 0 0
1 0 0
1 0 0
1 0 0
1 0 0
1 0 0
1 0 0
1 0 0
1 0 0
1 0 0
0.291905 0.294453 0.255833
0.294011 0.29546 0.256779
0.296101 0.296483 0.25774
0.298146 0.297505 0.258701
0.300145 0.298543 0.259678
0.302129 0.299596 0.260655
0.304448 0.300862 0.261845
0.307485 0.302586 0.263447
0.311421 0.304952 0.265644
0.316426 0.308202 0.268666
0.322667 0.312703 0.272831
0.330129 0.319005 0.27863
0.341176 0.327199 0.286198
0.358953 0.337407 0.29572
0.387655 0.349844 0.307454
0.434424 0.364355 0.321431
0.511345 0.380102 0.337133
0.639002 0.394766 0.352926
0.852567 0.403235 0.364965
1 0.395117 0.365179
1 0.350286 0.337697
1 0.230884 0.252399
1 0 0.0533455
1 0 0
1 0 0
1 0 0
1 0 0
1 0 0
1 0 0
1 0 0
1 0 0
1 0 0
1 0 0
0.396399 0.434318 0.351492
0.39855 0.435355 0.352468
0.400641 0.436393 0.353445
0.402716 0.437446 0.354421
0.404761 0.438514 0.355413
0.40676 0.439582 0.35642
0.40911 0.440894 0.357641
0.412192 0.442649 0.359289
0.416175 0.44506 0.361532
0.421271 0.448386 0.364599
0.427588 0.452964 0.368841
0.435187 0.459388 0.374746
0.446418 0.467735 0.382467
0.464408 0.478157 0.392172
0.4934 0.490852 0.40415
0.540551 0.505714 0.418448
0.61796 0.521889 0.434546
0.746212 0.537102 0.450843
0.96054 0.546258 0.463508
1 0.538979 0.464485
1 0.495125 0.437919
1 0.376883 0.353689
1 0.114641 0.155856
1 0 0
1 0 0
1 0 0
1 0 0
1 0 0
1 0 0
1 0 0
1 0 0
1 0 0
1 0 0
0.498802 0.640253 0.458228
0.500969 0.641306 0.45922
0.503105 0.642374 0.460227
0.505196 0.643442 0.461234
0.507256 0.644541 0.462242
0.509285 0.64564 0.463279
0.511666 0.646952 0.464515
0.514794 0.648768 0.466194
0.518837 0.651225 0.468482
0.523995 0.654597 0.471611
0.530419 0.659281 0.475944
0.53814 0.665812 0.481956
0.549538 0.674311 0.489815
0.567758 0.684947 0.499702
0.597055 0.697917 0.51194
0.644587 0.71313 0.526543
0.722484 0.729747 0.543069
0.851377 0.745541 0.559899
1 0.755428 0.57322
1 0.74905 0.575036
1 0.706294 0.549493
1 0.58938 0.466468
1 0.328695 0.270069
1 0 0
1 0 0
1 0 0
1 0 0
1 0 0
1 0 0
1 0 0
1 0 0
1 0 0
1 0 0
0.553521 0.952346 0.553429
0.555703 0.953429 0.554452
0.55787 0.954513 0.555474
0.559991 0.955612 0.556497
0.562066 0.956725 0.557534
0.564126 0.957839 0.558587
0.566537 0.959197 0.559838
0.569696 0.961044 0.561563
0.5738 0.963546 0.563897
0.579034 0.966995 0.567086
0.58555 0.971756 0.571496
0.593408 0.978408 0.577615
0.604974 0.987076 0.585611
0.623423 0.997909 0.595697
0.65301 1 0.608179
0.700938 1 0.623117
0.779355 1 0.64007
0.908904 1 0.65745
1 1 0.671489
1 1 0.674189
1 1 0.64976
1 0.908476 0.568093
1 0.649546 0.373312
1 0.120729 0
1 0 0
1 0 0
1 0 0
1 0 0
1 0 0
1 0 0
1 0 0
1 0 0
1 0 0
0.451698 1 0.57847
0.45391 1 0.579507
0.456092 1 0.580545
0.458244 1 0.581598
0.460349 1 0.58265
0.46244 1 0.583719
0.464881 1 0.585
0.468071 1 0.586755
0.472236 1 0.589136
0.477531 1 0.592386
0.484154 1 0.596872
0.492134 1 0.603113
0.503883 1 0.611246
0.522545 1 0.62153
0.552453 1 0.634256
0.600778 1 0.649531
0.679713 1 0.666926
0.809964 1 0.684871
1 1 0.699657
1 1 0.703304
1 1 0.680079
1 1 0.599908
1 1 0.406958
1 0.622187 0
1 0 0
1 0 0
1 0 0
1 0 0
1 0 0
1 0 0
1 0 0
1 0 0
1 0 0
0 1 0.397147
0 1 0.398199
0 1 0.399252
0 1 0.400336
0 1 0.401404
0 1 0.402502
0 1 0.403815
0 1 0.405585
0 1 0.408011
0 1 0.411337
0 1 0.4159
0 1 0.422232
0.00328069 1 0.430518
0.0221866 1 0.441001
0.0523842 1 0.453986
0.101122 1 0.469596
0.180606 1 0.487434
0.311559 1 0.505989
0.529351 1 0.521538
0.894606 1 0.526192
1 1 0.504234
1 1 0.425681
1 1 0.23476
1 1 0
1 0.413367 0
1 0 0
1 0 0
1 0 0
1 0 0
1 0 0
1 0 0
1 0 0
1 0 0
0 1 0
0 1 0
0 1 0
0 1 0
0 1 0
0 1 0
0 1 0
0 1 0
0 1 0
0 1 0
0 1 0
0 1 0
0 1 0
0 1 0
0 1 0
0 1 0
0 1 0
0 1 0
0 1 0
0 1 0
0.0951553 1 0
1 1 0
1 1 0
1 1 0
1 1 0
1 0 0
1 0 0
1 0 0
1 0 0
1 0 0
1 0 0
1 0 0
1 0 0
0 1 0
0 1 0
0 1 0
0 1 0
0 1 0
0 1 0
0 1 0
0 1 0
0 1 0
0 1 0
0 1 0
0 1 0
0 1 0
0 1 0
0 1 0
0 1 0
0 1 0
0 1 0
0 1 0
0 1 0
0 1 0
0 1 0
0 1 0
1 1 0
1 1 0
1 1 0
1 0 0
1 0 0
1 0 0
1 0 0
1 0 0
1 0 0
1 0 0
0 1 0
0 1 0
0 1 0
0 1 0
0 1 0
0 1 0
0 1 0
0 1 0
0 1 0
0 1 0
0 1 0
0 1 0
0 1 0
0 1 0
0 1 0
0 1 0
0 1 0
0 1 0
0 1 0
0 1 0
0 1 0
0 1 0
0 1 0
0 1 0
0.169589 1 0
1 1 0
1 1 0
1 0 0
1 0 0
1 0 0
1 0 0
1 0 0
1 0 0
0 1 0
0 1 0
0 1 0
0 1 0
0 1 0
0 1 0
0 1 0
0 1 0
0 1 0
0 1 0
0 1 0
0 1 0
0 1 0
0 1 0
0 1 0
0 1 0
0 1 0
0 1 0
0 1 0
0 1 0
0 1 0
0 1 0
0 1 0
0 1 0
0 1 0
0 1 0
1 1 0
1 1 0
1 0 0
1 0 0
1 0 0
1 0 0
1 0 0
0 1 0
0 1 0
0 1 0
0 1 0
0 1 0
0 1 0
0 1 0
0 1 0
0 1 0
0 1 0
0 1 0
0 1 0
0 1 0
0 1 0
0 1 0
0 1 0
0 1 0
0 1 0
0 1 0
0 1 0
0 1 0
0 1 0
0 1 0
0 1 0
0 1 0
0 1 0
0 1 0
0.739116 1 0
1 1 0
1 0 0
1 0 0
1 0 0
1 0 0
0 1 0
0 1 0
0 1 0
0 1 0
0 1 0
0 1 0
0 1 0
0 1 0
0 1 0
