Assets/HMP LUTs/LUTs/HMPLUTs_Lurder.cube
TITLE "Generated by Resolve"
LUT_3D_SIZE 5
0 0 0
0.0115511 0 0
0.665309 0 0.0448615
1 0 1
1 0 1
0 0 0
0 0 0
0.644709 0 0
1 0 1
1 0 1
0.00274662 0.514839 0
0.0884108 0.499001 0
0.619852 0.464164 0
1 0 0.342184
1 0 1
0 0.74905 0
0 0.74905 0
0 0.74905 0
1 0.74905 0
1 0 0
0 0.74905 0
0 0.74905 0
0 0.74905 0
0 0.74905 0
1 0.74905 0
0 0 0
0.00781262 0 0
0.652033 0 0.163119
1 0 1
1 0 1
0 0 0
0 0 0
0.630243 0 0.102083
1 0 1
1 0 1
0 0.512413 0
0.0762493 0.495277 0
0.613581 0.455726 0
1 0 0.544427
1 0 1
0 0.74905 0
0 0.74905 0
0 0.74905 0
1 0.74905 0
1 0 0
0 0.74905 0
0 0.74905 0
0 0.74905 0
0 0.74905 0
1 0.74905 0
0 0 0.800931
0 0 0.824918
0.589426 0 1
1 0 1
1 0 1
0 0 0.717159
0 0 0.746792
0.56025 0 1
1 0 1
1 0 1
0 0.508385 0.278828
0 0.488441 0.337484
0.556085 0.386542 0.734325
1 0 1
1 0 1
0 0.74905 0
0 0.74905 0
0 0.74905 0
1 0.74905 0
1 0 0
0 0.74905 0
0 0.74905 0
0 0.74905 0
0 0.74905 0
1 0.74905 0
0 0 1
0 0 1
0 0 1
1 0 1
1 0 1
0 0 1
0 0 1
0 0 1
1 0 1
1 0 1
0 0.290486 1
0 0.261173 1
0 0 1
1 0 1
1 0 1
0 0.74905 0
0 0.74905 0
0 0.74905 0
1 0.74905 1
1 0 1
0 0.74905 0
0 0.74905 0
0 0.74905 0
0 0.74905 0
1 0.74905 0
0 0 1
0 0 1
0 0 1
0 0 1
1 0 1
0 0 1
0 0 1
0 0 1
0 0 1
1 0 1
0 0 1
0 0 1
0 0 1
0 0 1
1 0 1
0 0.74905 1
0 0.74905 1
0 0.74905 1
0 0.74905 1
1 0 1
0 0.74905 0
0 0.74905 0
0 0.74905 0
0 0.74905 0
1 0.74905 1
