Assets/HMP LUTs/LUTs/HMPLUTs_Quica.cube
TITLE "Generated by Resolve"
LUT_3D_SIZE 5
0.00190738 0 0.0080415
0.0613718 0 0.00369268
0.546181 0 0
1 0.349767 0.409781
1 1 1
0 0 0
0.0507362 0 0
0.535775 0 0
1 0.425696 0.427893
1 1 1
0 0.373251 0
0 0.368872 0
0.464164 0.336873 0
1 1 0.58764
1 1 1
0.484245 1 0.490379
0.552163 1 0.494499
1 1 0.527642
1 1 1
1 1 1
1 1 1
1 1 1
1 1 1
1 1 1
1 1 1
0.000183108 0 0.0737316
0.0596323 0 0.0693828
0.544503 0 0.0348669
1 0.350912 0.47834
1 1 1
0 0 0.063386
0.0492409 0 0.0589914
0.533898 0 0.0242618
1 0.426841 0.496452
1 1 1
0 0.371435 0
0 0.367071 0
0.462837 0.335546 0
1 1 0.656199
1 1 1
0.48539 1 0.558938
0.553292 1 0.563043
1 1 0.596201
1 1 1
1 1 1
1 1 1
1 1 1
1 1 1
1 1 1
1 1 1
0 0 0.622446
0.0440681 0 0.617838
0.529046 0 0.583413
1 0.358938 1
1 1 1
0 0 0.612619
0.0348363 0 0.608591
0.518135 0 0.572519
1 0.434867 1
1 1 1
0 0.356588 0.538277
0 0.352438 0.534112
0.450752 0.323445 0.505119
1 1 1
1 1 1
0.493416 1 1
0.561334 1 1
1 1 1
1 1 1
1 1 1
1 1 1
1 1 1
1 1 1
1 1 1
1 1 1
0.0735485 0.0196841 1
0.133288 0.0156252 1
0.622034 0 1
1 0.697002 1
1 1 1
0.0641489 0.068101 1
0.12398 0.0641337 1
0.616342 0.0370947 1
1 0.772931 1
1 1 1
0.0755169 0.531395 1
0.141894 0.533989 1
0.689754 0.562463 1
1 1 1
1 1 1
0.831464 1 1
0.899382 1 1
1 1 1
1 1 1
1 1 1
1 1 1
1 1 1
1 1 1
1 1 1
1 1 1
1 1 1
1 1 1
1 1 1
1 1 1
1 1 1
1 1 1
1 1 1
1 1 1
1 1 1
1 1 1
1 1 1
1 1 1
1 1 1
1 1 1
1 1 1
1 1 1
1 1 1
1 1 1
1 1 1
1 1 1
1 1 1
1 1 1
1 1 1
1 1 1
1 1 1
