Assets/HMP LUTs/LUTs/HMPLUTs_Kinder.cube
TITLE "Generated by Resolve"
LUT_3D_SIZE 5
0 0 0.0460212
0.00987259 0 0.0446632
0.331731 0 0.0135348
1 0 0
1 1 1
0 0 0.0387427
0.00180056 0 0.0365759
0.32166 0 0.00276188
1 0 0
1 1 1
0 0.262852 0
0 0.263279 0
0.2972 0.261479 0
1 0.280842 0
1 1 1
0.458381 1 0.604364
0.506798 1 0.619333
0.92636 1 0.745083
1 1 1
1 1 1
1 1 1
1 1 1
1 1 1
1 1 1
1 1 1
0 0 0.0862745
0.00927749 0 0.0848402
0.330556 0 0.0530709
1 0 0
1 1 1
0 0 0.0787213
0.000900282 0 0.076463
0.320943 0 0.042771
1 0 0
1 1 1
0 0.262882 0.0188754
0 0.26334 0.0193332
0.297429 0.261723 0.017731
1 0.282048 0.0379492
1 1 1
0.460487 1 0.718502
0.509071 1 0.738888
0.928542 1 0.927291
1 1 1
1 1 1
1 1 1
1 1 1
1 1 1
1 1 1
1 1 1
0 0 0.426383
0.00364691 0 0.424231
0.323339 0 0.387854
1 0 0.295766
1 1 1
0 0 0.415625
0 0 0.411704
0.316289 0 0.379461
1 0 0.305837
1 1 1
0 0.263813 0.359258
0 0.264469 0.360006
0.299825 0.264271 0.359777
1 0.292195 0.39086
1 1 1
0.478309 1 1
0.527993 1 1
0.946593 1 1
1 1 1
1 1 1
1 1 1
1 1 1
1 1 1
1 1 1
1 1 1
0 0 1
0 0 1
0.319646 0 1
1 0 1
1 1 1
0 0 1
0 0 1
0.32166 0 1
1 0 1
1 1 1
0 0.304463 1
0 0.306584 1
0.349187 0.31725 1
1 0.41265 1
1 1 1
0.681559 1 1
0.729122 1 1
1 1 1
1 1 1
1 1 1
1 1 1
1 1 1
1 1 1
1 1 1
1 1 1
1 1 1
1 1 1
1 1 1
1 1 1
1 1 1
1 1 1
1 1 1
1 1 1
1 1 1
1 1 1
1 1 1
1 1 1
1 1 1
1 1 1
1 1 1
1 1 1
1 1 1
1 1 1
1 1 1
1 1 1
1 1 1
1 1 1
1 1 1
1 1 1
1 1 1
