Assets/HMP LUTs/LUTs/HMPLUTs_Stuart.cube
TITLE "Generated by Resolve"
LUT_3D_SIZE 5
0 0 0
0.0075227 0 0
0.559869 0 0
1 0 0
1 0 0
0 0 0
0.00859083 0 0
0.560891 0 0
1 0 0
1 0 0
0 0.539849 0
0.0173037 0.539544 0
0.569345 0.537133 0
1 0.512444 0
1 0.187304 0
0.045594 1 0.0578775
0.109361 1 0.0575723
0.702342 1 0.0549935
1 1 0.0278477
1 1 0
1 1 1
1 1 1
1 1 1
1 1 1
1 1 0.86952
0 0 0.0306249
0.0065919 0 0.0303197
0.558984 0 0.0277409
1 0 0.00108339
1 0 0
0 0 0.0317082
0.00766003 0 0.0313878
0.560006 0 0.0288243
1 0 0.00216678
1 0 0
0 0.538964 0.0404212
0.0163729 0.538674 0.0401007
0.568429 0.536263 0.0375372
1 0.511727 0.0103914
1 0.186358 0
0.0446632 1 0.132479
0.108431 1 0.132158
0.70045 1 0.129595
1 1 0.102449
1 1 0
1 1 1
1 1 1
1 1 1
1 1 1
1 1 1
0 0 0.720409
0 0 0.719799
0.551827 0 0.714839
1 0 0.660426
1 0 0.342184
0 0 0.722484
0.000564584 0 0.721874
0.552834 0 0.716899
1 0 0.66244
1 0 0.343648
0 0.531807 0.7393
0.0087892 0.531518 0.738689
0.561074 0.529061 0.73373
1 0.506111 0.679698
1 0.17879 0.35552
0.0370794 1 0.917067
0.100847 1 0.916457
0.684855 1 0.911498
1 1 0.859083
1 1 0.468498
1 1 1
1 1 1
1 1 1
1 1 1
1 1 1
0 0 1
0 0 1
0.483284 0 1
1 0 1
1 0 1
0 0 1
0 0 1
0.484291 0 1
1 0 1
1 0 1
0 0.46244 1
0 0.462119 1
0.491951 0.459495 1
1 0.42974 1
1 0.0986496 1
0 1 1
0.0207218 1 1
0.572732 1 1
1 1 1
1 1 1
1 1 1
1 1 1
1 1 1
1 1 1
1 1 1
0 0 1
0 0 1
0 0 1
1 0 1
1 0 1
0 0 1
0 0 1
0 0 1
1 0 1
1 0 1
0 0 1
0 0 1
0 0 1
1 0 1
1 0 1
0 1 1
0 1 1
0 1 1
1 1 1
1 1 1
0.0829938 1 1
0.146761 1 1
0.774838 1 1
1 1 1
1 1 1
