Assets/HMP LUTs/LUTs/HMPLUTs_Neptuno.cube
TITLE "Generated by Resolve"
LUT_3D_SIZE 33
0 0 0
0 0 0
0 0 0
0 0 0
0 0 0
0 0 0
0 0 0
0 0 0
0 0 0
0 0 0
0 0 0
0 0 0
0 0 0
0.00355535 0 0
0.0333562 0 0
0.0781109 0 0
0.15317 0 0
0.27364 0 0
0.458198 0.000518807 0.000518807
1 0 0
1 0 0
1 0 0
1 0 0
1 0 0
1 0 0
1 0 0
1 0 0
1 0 0
1 0 0
1 0 0
1 0 0
1 0 0
1 0 0
0 0 0
0 0 0
0 0 0
0 0 0
0 0 0
0 0 0
0 0 0
0 0 0
0 0 0
0 0 0
0 0 0
0 0 0
0 0 0
0.00642405 0 0
0.0357824 0 0
0.0807965 0 0
0.156298 0 0
0.277043 0.000579843 0.000579843
0.461082 0.00416571 0.00416571
1 0.00177005 0.00177005
1 0 0
1 0 0
1 0 0
1 0 0
1 0 0
1 0 0
1 0 0
1 0 0
1 0 0
1 0 0
1 0 0
1 0 0
1 0 0
0 0 0
0 0 0
0 0 0
0 0 0
0 0 0
0 0 0
0 0 0
0 0 0
0 0 0
0 0 0
0 0 0
0 0 0
0 0 0
0.00920119 0 0
0.0378576 0 0
0.0835889 0 0
0.159457 0 0
0.280476 0.00401312 0.00401312
0.464363 0.00781262 0.00781262
1 0.00563058 0.00563058
1 0 0
1 0 0
1 0 0
1 0 0
1 0 0
1 0 0
1 0 0
1 0 0
1 0 0
1 0 0
1 0 0
1 0 0
1 0 0
0 0 0
0 0 0
0 0 0
0 0 0
0 0 0
0 0 0
0 0 0
0 0 0
0 0 0
0 0 0
0 0 0
0 0 0
0 0 0
0.0118868 0 0
0.0397955 0 0
0.0864576 0 0
0.162661 0.00138857 0.00138857
0.28394 0.00746166 0.00746166
0.468177 0.01149 0.01149
1 0.00952163 0.00952163
1 0 0
1 0 0
1 0 0
1 0 0
1 0 0
1 0 0
1 0 0
1 0 0
1 0 0
1 0 0
1 0 0
1 0 0
1 0 0
0 0 0
0 0 0
0 0 0
0 0 0
0 0 0
0 0 0
0 0 0
0 0 0
0 0 0
0 0 0
0 0 0
0 0 0
0 0 0
0.0144503 0 0
0.0421759 0 0
0.0894026 0 0
0.165896 0.00463874 0.00463874
0.287419 0.0109407 0.0109407
0.472633 0.0151827 0.0151827
1 0.0134127 0.0134127
1 0 0
1 0 0
1 0 0
1 0 0
1 0 0
1 0 0
1 0 0
1 0 0
1 0 0
1 0 0
1 0 0
1 0 0
1 0 0
0 0 0
0 0 0
0 0 0
0 0 0
0 0 0
0 0 0
0 0 0
0 0 0
0 0 0
0 0 0
0 0 0
0 0 0
0 0 0
0.0168154 0 0
0.0447395 0 0
0.0923934 0.00135805 0.00135805
0.169177 0.00790417 0.00790417
0.290913 0.014435 0.014435
0.477867 0.0188907 0.0188907
1 0.017319 0.017319
1 0.0024567 0.0024567
1 0 0
1 0 0
1 0 0
1 0 0
1 0 0
1 0 0
1 0 0
1 0 0
1 0 0
1 0 0
1 0 0
1 0 0
0 0 0
0 0 0
0 0 0
0 0 0
0 0 0
0 0 0
0 0 0
0 0 0
0 0 0
0 0 0
0 0 0
0 0 0
0.0019379 0 0
0.019089 0 0
0.0479896 0 0
0.0960555 0.00500496 0.00500496
0.173129 0.0118715 0.0118715
0.29514 0.0186618 0.0186618
0.485374 0.0233463 0.0233463
1 0.0220035 0.0220035
1 0.00737011 0.00737011
1 0 0
1 0 0
1 0 0
1 0 0
1 0 0
1 0 0
1 0 0
1 0 0
1 0 0
1 0 0
1 0 0
1 0 0
0 0 0
0 0 0
0 0 0
0 0 0
0 0 0
0 0 0
0 0 0
0 0 0
0 0 0
0 0 0
0 0 0
0 0 0
0.00584421 0 0
0.0227817 0 0
0.0525368 0.00367742 0.00367742
0.101076 0.0100252 0.0100252
0.178515 0.0172427 0.0172427
0.300847 0.0243687 0.0243687
0.497475 0.0293584 0.0293584
1 0.0283207 0.0283207
1 0.0139925 0.0139925
1 0 0
1 0 0
1 0 0
1 0 0
1 0 0
1 0 0
1 0 0
1 0 0
1 0 0
1 0 0
1 0 0
1 0 0
0 0 0
0 0 0
0 0 0
0 0 0
0 0 0
0 0 0
0 0 0
0 0 0
0 0 0
0 0 0
0 0 0
0.00030518 0 0
0.0102388 9.15541e-05 9.15541e-05
0.0285039 0.00440986 0.00440986
0.0589151 0.0100557 0.0100557
0.107958 0.016907 0.016907
0.18584 0.0245823 0.0245823
0.308583 0.032105 0.032105
0.515999 0.0374914 0.0374914
1 0.0368353 0.0368353
1 0.0229038 0.0229038
1 0 0
1 0 0
1 0 0
1 0 0
1 0 0
1 0 0
1 0 0
1 0 0
1 0 0
1 0 0
1 0 0
1 0 0
0 0 0
0 0 0
0 0 0
0 0 0
0 0 0
0 0 0
0 0 0
0 0 0
0 0 0
0 0 0
0.000640879 0.000564584 0.000564584
0.00653086 0.00361639 0.00361639
0.0177768 0.00764477 0.00764477
0.0368353 0.0127413 0.0127413
0.0678721 0.0190127 0.0190127
0.117464 0.0264134 0.0264134
0.19585 0.0345922 0.0345922
0.319097 0.0426184 0.0426184
0.544793 0.0485084 0.0485084
1 0.0483558 0.0483558
1 0.0349279 0.0349279
1 0 0
1 0 0
1 0 0
1 0 0
1 0 0
1 0 0
1 0 0
1 0 0
1 0 0
1 0 0
1 0 0
1 0 0
0 0.00169375 0.00169375
0 0.00198367 0.00198367
0 0.00216678 0.00216678
0 0.00244144 0.00244144
0 0.0027924 0.0027924
0 0.00320439 0.00320439
0 0.00375372 0.00375372
0 0.00456245 0.00456245
0.0024567 0.00576791 0.00575265
0.00634775 0.00758373 0.00758373
0.0105592 0.0104829 0.0104829
0.0172274 0.014313 0.014313
0.0291295 0.0189822 0.0189822
0.0487984 0.0246891 0.0246891
0.080415 0.0315557 0.0315557
0.130587 0.0395361 0.0395361
0.209567 0.0483101 0.0483101
0.333425 0.0569467 0.0569467
0.590661 0.063447 0.063447
1 0.06392 0.06392
1 0.0511482 0.0511482
1 0.0122683 0.0122683
1 0 0
1 0 0
1 0 0
1 0 0
1 0 0
1 0 0
1 0 0
1 0 0
1 0 0
1 0 0
1 0 0
0 0.014313 0.014313
0.00155642 0.0148623 0.0148623
0.0034638 0.0154269 0.0154269
0.0053254 0.0160067 0.0160067
0.00717174 0.0166018 0.0166018
0.0089723 0.0172122 0.0172122
0.0110628 0.0179751 0.0179751
0.0137789 0.019028 0.019028
0.0172427 0.0205386 0.0205386
0.0214694 0.0227054 0.0227054
0.0260777 0.0260014 0.0260014
0.0331884 0.0302739 0.0302739
0.0455634 0.0354314 0.0354314
0.0657664 0.0416724 0.0416724
0.0979782 0.0491188 0.0491188
0.148775 0.0577249 0.0577249
0.228428 0.067155 0.067155
0.353002 0.0765087 0.0765087
0.665354 0.0837568 0.0837568
1 0.0850385 0.0850385
1 0.073106 0.073106
1 0.0350805 0.0350805
1 0 0
1 0 0
1 0 0
1 0 0
1 0 0
1 0 0
1 0 0
1 0 0
1 0 0
1 0 0
1 0 0
0.0208591 0.0355535 0.0355535
0.0229038 0.0362097 0.0362097
0.024918 0.0368811 0.0368811
0.0268864 0.0375525 0.0375525
0.0288243 0.0382544 0.0382544
0.0307164 0.0389563 0.0389563
0.0329137 0.039826 0.039826
0.0357824 0.0410315 0.0410315
0.0394293 0.0427253 0.0427253
0.0438849 0.0451362 0.0451362
0.0487678 0.0487068 0.0487068
0.0562448 0.0533303 0.0533303
0.0690471 0.0588998 0.0588998
0.0897536 0.0656443 0.0656443
0.12253 0.0736706 0.0736706
0.173999 0.082948 0.082948
0.254414 0.0931411 0.0931411
0.379797 0.103304 0.103304
0.789593 0.111467 0.111467
1 0.113725 0.113725
1 0.102831 0.102831
1 0.0659342 0.0659342
1 0 0
1 0 0
1 0 0
1 0 0
1 0 0
1 0 0
1 0 0
1 0 0
1 0 0
1 0 0
1 0 0
0.0522621 0.0669566 0.0669566
0.0543832 0.067689 0.067689
0.0564736 0.0684367 0.0684367
0.0585184 0.0691844 0.0691844
0.0605173 0.0699474 0.0699474
0.0624857 0.0707408 0.0707408
0.0647898 0.0717021 0.0717021
0.0677653 0.0730144 0.0730144
0.0715648 0.0748455 0.0748455
0.0762188 0.0774548 0.0774548
0.0813458 0.0812695 0.0812695
0.089128 0.0862135 0.0862135
0.102327 0.092195 0.092195
0.123522 0.0994278 0.0994278
0.156909 0.108049 0.108049
0.209064 0.118013 0.118013
0.290303 0.12903 0.12903
0.416602 0.140139 0.140139
1 0.149371 0.149371
1 0.152804 0.152804
1 0.143221 0.143221
1 0.107729 0.107729
1 0.0238956 0.0238956
1 0 0
1 0 0
1 0 0
1 0 0
1 0 0
1 0 0
1 0 0
1 0 0
1 0 0
1 0 0
0.0974899 0.1122 0.1122
0.0996872 0.112993 0.112993
0.101839 0.113802 0.113802
0.10396 0.114626 0.114626
0.106035 0.115465 0.115465
0.108064 0.116304 0.116304
0.11043 0.117342 0.117342
0.113512 0.118761 0.118761
0.117433 0.120745 0.120745
0.122271 0.123522 0.123522
0.127642 0.127565 0.127565
0.135714 0.132815 0.132815
0.14931 0.139162 0.139162
0.170977 0.146883 0.146883
0.204959 0.1561 0.1561
0.257877 0.166827 0.166827
0.340017 0.178729 0.178729
0.460716 0.19089 0.19089
1 0.201358 0.201358
1 0.206195 0.206195
1 0.198184 0.198184
1 0.164446 0.164446
1 0.082536 0.082536
1 0 0
1 0 0
1 0 0
1 0 0
1 0 0
1 0 0
1 0 0
1 0 0
1 0 0
1 0 0
0.161929 0.176623 0.176623
0.164187 0.177493 0.177493
0.1664 0.178363 0.178363
0.168582 0.179248 0.179248
0.170718 0.180133 0.180133
0.172808 0.181048 0.181048
0.17525 0.182162 0.182162
0.178424 0.183673 0.183673
0.182467 0.185779 0.185779
0.187488 0.188724 0.188724
0.193072 0.192996 0.192996
0.201434 0.19852 0.19852
0.215396 0.205264 0.205264
0.237552 0.213458 0.213458
0.272175 0.223301 0.223301
0.325872 0.234806 0.234806
0.408942 0.247669 0.247669
0.627115 0.261006 0.261006
1 0.272877 0.272877
1 0.279362 0.279347
1 0.273243 0.273243
1 0.241627 0.241627
1 0.162097 0.162097
1 0 0
1 0 0
1 0 0
1 0 0
1 0 0
1 0 0
1 0 0
1 0 0
1 0 0
1 0 0
0.253117 0.267826 0.267826
0.255436 0.268742 0.268742
0.25771 0.269673 0.269673
0.259937 0.270619 0.270619
0.262135 0.271565 0.271565
0.264286 0.272541 0.272541
0.266804 0.273716 0.273716
0.270069 0.275334 0.275334
0.27425 0.277546 0.277546
0.279423 0.280659 0.280659
0.285237 0.285161 0.285161
0.293889 0.290974 0.290974
0.308248 0.2981 0.2981
0.330907 0.306798 0.306798
0.366155 0.317281 0.317281
0.420615 0.329595 0.329595
0.524956 0.343496 0.343496
1 0.358114 0.358114
1 0.371542 0.371542
1 0.379904 0.379904
1 0.375998 0.375998
1 0.346975 0.346975
1 0.270344 0.270344
1 0.107774 0.107774
1 0 0
1 0 0
1 0 0
1 0 0
1 0 0
1 0 0
1 0 0
1 0 0
1 0 0
0.381689 0.396368 0.396368
0.384054 0.397345 0.397345
0.386389 0.398337 0.398337
0.388678 0.399329 0.399329
0.390921 0.400351 0.400351
0.393133 0.401373 0.401373
0.395712 0.402625 0.402625
0.399069 0.404318 0.404318
0.403372 0.406668 0.406668
0.408713 0.409949 0.409949
0.414725 0.414664 0.414664
0.423682 0.420768 0.420768
0.438407 0.428275 0.428275
0.456321 0.437476 0.437476
0.507378 0.447364 0.447364
0.687709 0.456474 0.456474
1 0.470069 0.470069
1 0.497017 0.497017
1 0.533272 0.533272
1 0.563088 0.563088
1 0.55906 0.559045
1 0.4934 0.4934
1 0.41796 0.41796
1 0.259419 0.259419
1 0 0
1 0 0
1 0 0
1 0 0
1 0 0
1 0 0
1 0 0
1 0 0
1 0 0
0.729549 0.799619 0.799619
0.740658 0.804822 0.804822
0.751751 0.810132 0.810117
0.76286 0.815518 0.815518
0.773953 0.821012 0.821012
0.785 0.826612 0.826612
0.798154 0.833463 0.833448
0.81561 0.842878 0.842878
0.83856 0.856046 0.856046
0.867933 0.874693 0.874693
0.902495 0.902098 0.902098
0.958999 0.939818 0.939818
1 0.994537 0.994537
1 1 1
1 1 1
1 1 1
1 1 1
1 1 1
1 1 1
1 1 1
1 1 1
1 1 1
1 1 1
1 0.45977 0.45977
1 0.162921 0.162921
1 0 0
1 0 0
1 0 0
1 0 0
1 0 0
1 0 0
1 0 0
1 0 0
1 1 1
1 1 1
1 1 1
1 1 1
1 1 1
1 1 1
1 1 1
1 1 1
1 1 1
1 1 1
1 1 1
1 1 1
1 1 1
1 1 1
1 1 1
1 1 1
1 1 1
1 1 1
1 1 1
1 1 1
1 1 1
1 1 1
1 1 1
1 1 1
1 0.45005 0.450034
1 0 0
1 0 0
1 0 0
1 0 0
1 0 0
1 0 0
1 0 0
1 0 0
1 1 1
1 1 1
1 1 1
1 1 1
1 1 1
1 1 1
1 1 1
1 1 1
1 1 1
1 1 1
1 1 1
1 1 1
1 1 1
1 1 1
1 1 1
1 1 1
1 1 1
1 1 1
1 1 1
1 1 1
1 1 1
1 1 1
1 1 1
1 1 1
1 1 1
1 0.304097 0.304097
1 0 0
1 0 0
1 0 0
1 0 0
1 0 0
1 0 0
1 0 0
1 1 1
1 1 1
1 1 1
1 1 1
1 1 1
1 1 1
1 1 1
1 1 1
1 1 1
1 1 1
1 1 1
1 1 1
1 1 1
1 1 1
1 1 1
1 1 1
1 1 1
1 1 1
1 1 1
1 1 1
1 1 1
1 1 1
1 1 1
1 1 1
1 1 1
1 1 1
1 0 0
1 0 0
1 0 0
1 0 0
1 0 0
1 0 0
1 0 0
1 1 1
1 1 1
1 1 1
1 1 1
1 1 1
1 1 1
1 1 1
1 1 1
1 1 1
1 1 1
1 1 1
1 1 1
1 1 1
1 1 1
1 1 1
1 1 1
1 1 1
1 1 1
1 1 1
1 1 1
1 1 1
1 1 1
1 1 1
1 1 1
1 1 1
1 1 1
1 1 1
1 0 0
1 0 0
1 0 0
1 0 0
1 0 0
1 0 0
1 1 1
1 1 1
1 1 1
1 1 1
1 1 1
1 1 1
1 1 1
1 1 1
1 1 1
1 1 1
1 1 1
1 1 1
1 1 1
1 1 1
1 1 1
1 1 1
1 1 1
1 1 1
1 1 1
1 1 1
1 1 1
1 1 1
1 1 1
1 1 1
1 1 1
1 1 1
1 1 1
1 0.0739605 0.0739605
1 0 0
1 0 0
1 0 0
1 0 0
1 0 0
1 1 1
1 1 1
1 1 1
1 1 1
1 1 1
1 1 1
1 1 1
1 1 1
1 1 1
1 1 1
1 1 1
1 1 1
1 1 1
1 1 1
1 1 1
1 1 1
1 1 1
1 1 1
1 1 1
1 1 1
1 1 1
1 1 1
1 1 1
1 1 1
1 1 1
1 1 1
1 1 1
1 1 1
1 0 0
1 0 0
1 0 0
1 0 0
1 0 0
1 1 1
1 1 1
1 1 1
1 1 1
1 1 1
1 1 1
1 1 1
1 1 1
1 1 1
1 1 1
1 1 1
1 1 1
1 1 1
1 1 1
1 1 1
1 1 1
1 1 1
1 1 1
1 1 1
1 1 1
1 1 1
1 1 1
1 1 1
1 1 1
1 1 1
1 1 1
1 1 1
1 1 1
1 1 1
1 0 0
1 0 0
1 0 0
1 0 0
1 1 1
1 1 1
1 1 1
1 1 1
1 1 1
1 1 1
1 1 1
1 1 1
1 1 1
1 1 1
1 1 1
1 1 1
1 1 1
1 1 1
1 1 1
1 1 1
1 1 1
1 1 1
1 1 1
1 1 1
1 1 1
1 1 1
1 1 1
1 1 1
1 1 1
1 1 1
1 1 1
1 1 1
1 1 1
1 0 0
1 0 0
1 0 0
1 0 0
1 1 1
1 1 1
1 1 1
1 1 1
1 1 1
1 1 1
1 1 1
1 1 1
1 1 1
