Assets/HMP LUTs/LUTs/HMPLUTs_Kinder.cube
TITLE "Generated by Resolve"
LUT_3D_SIZE 9
0 0 0.0460212
0 0 0.0453651
0.00987259 0 0.0446632
0.0839094 0 0.0409857
0.331731 0 0.0135348
1 0 0
1 0 0
1 0.158267 0.26923
1 1 1
0 0 0.0432441
0 0 0.0424811
0.00682078 0 0.0416114
0.0802014 0 0.0372931
0.327001 0 0.00846876
1 0 0
1 0 0
1 0.183001 0.277684
1 1 1
0 0 0.0387427
0 0 0.0377813
0.00180056 0 0.0365759
0.0738384 0 0.03093
0.32166 0 0.00276188
1 0 0
1 0 0
1 0.219791 0.290852
1 1 1
0 0.025742 0.0176242
0 0.0244297 0.0162966
0 0.0229191 0.0148013
0.052903 0.0181125 0.00999466
0.313848 0.002533 0
1 0 0
1 0 0
1 0.33666 0.337423
1 1 1
0 0.262852 0
0 0.262882 0
0 0.263279 0
0.0219425 0.263828 0
0.2972 0.261479 0
1 0.254032 0
1 0.280842 0
1 0.698497 0.459739
1 1 1
0 1 0
0 1 0
0 1 0
0.042237 1 0
0.330953 1 0.0126955
1 1 0.0481117
1 1 0.170474
1 1 1
1 1 1
0.458381 1 0.604364
0.477806 1 0.609979
0.506798 1 0.619333
0.604379 1 0.648768
0.92636 1 0.745083
1 1 1
1 1 1
1 1 1
1 1 1
1 1 1
1 1 1
1 1 1
1 1 1
1 1 1
1 1 1
1 1 1
1 1 1
1 1 1
1 1 1
1 1 1
1 1 1
1 1 1
1 1 1
1 1 1
1 1 1
1 1 1
1 1 1
0 0 0.0621958
0 0 0.0615396
0.0096437 0 0.0608072
0.0836042 0 0.057084
0.331258 0 0.0294041
1 0 0
1 0 0
1 0.159106 0.288319
1 1 1
0 0 0.0593881
0 0 0.0586099
0.00654612 0 0.0577249
0.0798505 0 0.0533303
0.326604 0 0.024445
1 0 0
1 0 0
1 0.183825 0.29688
1 1 1
0 0 0.0548104
0 0 0.0538338
0.00143435 0 0.0526131
0.0733654 0 0.0468452
0.321355 0 0.0188296
1 0 0
1 0 0
1 0.220615 0.31017
1 1 1
0 0.0252842 0.0335546
0 0.0240024 0.0322728
0 0.0225223 0.0307927
0.0525978 0.0178073 0.0260777
0.31371 0.00238041 0.0106508
1 0 0
1 0 0
1 0.337499 0.356878
1 1 1
0 0.262852 0
0 0.262898 0
0 0.263294 0
0.021973 0.263874 0
0.297292 0.26157 0
1 0.254261 0
1 0.281331 0.0128328
1 0.699229 0.473548
1 1 1
0 1 0.00720226
0 1 0.00836194
0 1 0.0104067
0.042649 1 0.0161288
0.33135 1 0.0295109
1 1 0.0649882
1 1 0.187503
1 1 1
1 1 1
0.45922 1 0.646036
0.478691 1 0.652415
0.507713 1 0.663005
0.605264 1 0.696345
0.92723 1 0.809018
1 1 1
1 1 1
1 1 1
1 1 1
1 1 1
1 1 1
1 1 1
1 1 1
1 1 1
1 1 1
1 1 1
1 1 1
1 1 1
1 1 1
1 1 1
1 1 1
1 1 1
1 1 1
1 1 1
1 1 1
1 1 1
1 1 1
0 0 0.0862745
0 0 0.0855879
0.00927749 0 0.0848402
0.0831464 0 0.0810254
0.330556 0 0.0530709
1 0 0
1 0 0
1 0.160327 0.317082
1 1 1
0 0 0.0834058
0 0 0.0826123
0.00611887 0 0.0816968
0.0793164 0 0.0771954
0.326055 0 0.048249
1 0 0
1 0 0
1 0.185061 0.325734
1 1 1
0 0 0.0787213
0 0 0.0777295
0.000900282 0 0.076463
0.0726329 0 0.0704967
0.320943 0 0.042771
1 0 0
1 0 0
1 0.221851 0.339101
1 1 1
0 0.0246281 0.0572976
0 0.0233768 0.0560464
0 0.0219577 0.0546273
0.0521553 0.0173648 0.0500343
0.313512 0.00216678 0.0348363
1 0 0.00138857
1 0 0
1 0.338766 0.385626
1 1 1
0 0.262882 0.0188754
0 0.262928 0.0189212
0 0.26334 0.0193332
0.0220493 0.263935 0.0199283
0.297429 0.261723 0.017731
1 0.254612 0.0106508
1 0.282048 0.0379492
1 0.700313 0.498314
1 1 1
0 1 0.0321965
0 1 0.0333562
0 1 0.0354009
0.0432593 1 0.0411383
0.33196 1 0.054551
1 1 0.0901198
1 1 0.212558
1 1 1
1 1 1
0.460487 1 0.718502
0.480003 1 0.726162
0.509071 1 0.738888
0.606592 1 0.779339
0.928542 1 0.927291
1 1 1
1 1 1
1 1 1
1 1 1
1 1 1
1 1 1
1 1 1
1 1 1
1 1 1
1 1 1
1 1 1
1 1 1
1 1 1
1 1 1
1 1 1
1 1 1
1 1 1
1 1 1
1 1 1
1 1 1
1 1 1
1 1 1
0 0 0.162707
0 0 0.161975
0.00808728 0 0.161151
0.081651 0 0.157015
0.328557 0 0.128405
1 0 0.0740063
1 0 0.0346838
1 0.164294 0.408148
1 1 1
0 0 0.159655
0 0 0.158816
0.0047303 0 0.157778
0.0775311 0 0.152895
0.324422 0 0.123995
1 0 0.0736706
1 0 0.0380407
1 0.189029 0.416236
1 1 1
0 0 0.154635
0 0 0.153552
0 0 0.152132
0.0700847 0 0.145449
0.319677 0 0.118914
1 0 0.0737926
1 0 0.0434882
1 0.225834 0.42858
1 1 1
0 0.0227054 0.13286
0 0.021561 0.131716
0 0.0202945 0.130449
0.0508431 0.0160525 0.126207
0.312932 0.00155642 0.111711
1 0 0.0793774
1 0 0.0649271
1 0.342809 0.46865
1 1 1
0 0.26302 0.0965133
0 0.263096 0.0965744
0 0.263539 0.0970169
0.0223239 0.26421 0.0976883
0.297932 0.262257 0.0957351
1 0.255772 0.0892805
1 0.284398 0.117769
1 0.703807 0.666239
1 1 1
0 1 0.11162
0 1 0.112779
0 1 0.114839
0.0452277 1 0.120592
0.333898 1 0.134112
1 1 0.16997
1 1 0.298375
1 1 1
1 1 1
0.464576 1 1
0.484291 1 1
0.513466 1 1
0.610803 1 1
0.932754 1 1
1 1 1
1 1 1
1 1 1
1 1 1
1 1 1
1 1 1
1 1 1
1 1 1
1 1 1
1 1 1
1 1 1
1 1 1
1 1 1
1 1 1
1 1 1
1 1 1
1 1 1
1 1 1
1 1 1
1 1 1
1 1 1
1 1 1
0 0 0.426383
0 0 0.425422
0.00364691 0 0.424231
0.0759136 0 0.41857
0.323339 0 0.387854
1 0 0.333623
1 0 0.295766
1 0.17731 1
1 1 1
0 0 0.422477
0 0 0.421332
0 0 0.419821
0.0702983 0 0.41268
0.320073 0 0.383978
1 0 0.333486
1 0 0.299596
1 0.20209 1
1 1 1
0 0 0.415625
0 0 0.414038
0 0 0.411704
0.060502 0 0.402228
0.316289 0 0.379461
1 0 0.333959
1 0 0.305837
1 0.238941 1
1 1 1
0 0.0176242 0.393347
0 0.0167544 0.39237
0 0.0158389 0.391363
0.0473182 0.0125277 0.387686
0.311528 7.62951e-05 0.373785
1 0 0.341207
1 0 0.330388
1 0.3561 1
1 1 1
0 0.263813 0.359258
0 0.263935 0.359396
0 0.264469 0.360006
0.0235294 0.265431 0.361074
0.299825 0.264271 0.359777
1 0.259754 0.354711
1 0.292195 0.39086
1 0.715267 1
1 1 1
0 1 0.382574
0 1 0.383902
0 1 0.386236
0.0518654 1 0.392737
0.340398 1 0.407797
1 1 0.445884
1 1 0.633448
1 1 1
1 1 1
0.478309 1 1
0.498543 1 1
0.527993 1 1
0.624414 1 1
0.946593 1 1
1 1 1
1 1 1
1 1 1
1 1 1
1 1 1
1 1 1
1 1 1
1 1 1
1 1 1
1 1 1
1 1 1
1 1 1
1 1 1
1 1 1
1 1 1
1 1 1
1 1 1
1 1 1
1 1 1
1 1 1
1 1 1
1 1 1
0 0 1
0 0 1
0 0 1
0.0528725 0 1
0.313985 0 1
1 0 1
1 0 1
1 0.220432 1
1 1 1
0 0 1
0 0 1
0 0 1
0.0496071 0 1
0.312291 0 1
1 0 1
1 0 1
1 0.245319 1
1 1 1
0 0 1
0 0 1
0 0 1
0.0458228 0 1
0.310475 0 1
1 0 1
1 0 1
1 0.282475 1
1 1 1
0 0.00849927 1
0 0.00810254 1
0 0.00787366 1
0.0413214 0.00653086 1
0.310491 0 1
1 0 1
1 0 1
1 0.400046 1
1 1 1
0 0.268956 1
0 0.269245 1
0 0.270039 1
0.0298619 0.271794 1
0.307958 0.272969 1
1 0.274388 1
1 0.318715 1
1 0.753201 1
1 1 1
0 1 1
0 1 1
0 1 1
0.0746624 1 1
0.362722 1 1
1 1 1
1 1 1
1 1 1
1 1 1
0.525734 1 1
0.546517 1 1
0.576165 1 1
0.669657 1 1
0.99234 1 1
1 1 1
1 1 1
1 1 1
1 1 1
1 1 1
1 1 1
1 1 1
1 1 1
1 1 1
1 1 1
1 1 1
1 1 1
1 1 1
1 1 1
1 1 1
1 1 1
1 1 1
1 1 1
1 1 1
1 1 1
1 1 1
1 1 1
0 0 1
0 0 1
0 0 1
0.0452583 0 1
0.319646 0 1
1 0 1
1 0 1
1 0.366079 1
1 1 1
0 0 1
0 0 1
0 0 1
0.0453956 0 1
0.320256 0 1
1 0 1
1 0 1
1 0.391318 1
1 1 1
0 0 1
0 0 1
0 0 1
0.0461738 0 1
0.32166 0 1
1 0 1
1 0 1
1 0.428794 1
1 1 1
0 0.0157778 1
0 0.0161135 1
0 0.0169528 1
0.0536202 0.0188296 1
0.330602 0.0204318 1
1 0.0229648 1
1 0.0693675 1
1 0.543633 1
1 1 1
0 0.304463 1
0 0.30518 1
0 0.306584 1
0.0681315 0.310262 1
0.349187 0.31725 1
1 0.334356 1
1 0.41265 1
1 0.880339 1
1 1 1
0.0294957 1 1
0.0473793 1 1
0.0728923 1 1
0.157656 1 1
0.446281 1 1
1 1 1
1 1 1
1 1 1
1 1 1
0.681559 1 1
0.701137 1 1
0.729122 1 1
0.821912 1 1
1 1 1
1 1 1
1 1 1
1 1 1
1 1 1
1 1 1
1 1 1
1 1 1
1 1 1
1 1 1
1 1 1
1 1 1
1 1 1
1 1 1
1 1 1
1 1 1
1 1 1
1 1 1
1 1 1
1 1 1
1 1 1
1 1 1
1 1 1
0.0886854 0.0539864 1
0.10634 0.0551919 1
0.131502 0.0573434 1
0.215274 0.0633249 1
0.502617 0.0776074 1
1 0.115663 1
1 0.244694 1
1 0.821103 1
1 1 1
0.0923323 0.0747082 1
0.110002 0.0759289 1
0.13518 0.0780957 1
0.219028 0.0841535 1
0.506874 0.0986038 1
1 0.137224 1
1 0.267826 1
1 0.842939 1
1 1 1
0.0982223 0.105562 1
0.115908 0.106813 1
0.141115 0.10901 1
0.225071 0.115145 1
0.513741 0.129885 1
1 0.16936 1
1 0.302281 1
1 0.875425 1
1 1 1
0.120989 0.203342 1
0.138735 0.204654 1
0.164034 0.206928 1
0.248081 0.213352 1
0.540139 0.228962 1
1 0.271168 1
1 0.4112 1
1 0.977707 1
1 1 1
0.177783 0.534844 1
0.195697 0.536217 1
0.221378 0.538552 1
0.303548 0.545205 1
0.606027 0.561776 1
1 0.605875 1
1 0.740124 1
1 1 1
1 1 1
0.357092 1 1
0.374426 1 1
0.399634 1 1
0.487175 1 1
0.807141 1 1
1 1 1
1 1 1
1 1 1
1 1 1
1 1 1
1 1 1
1 1 1
1 1 1
1 1 1
1 1 1
1 1 1
1 1 1
1 1 1
1 1 1
1 1 1
1 1 1
1 1 1
1 1 1
1 1 1
1 1 1
1 1 1
1 1 1
1 1 1
1 1 1
1 1 1
1 1 1
1 1 1
1 1 1
1 1 1
1 1 1
1 1 1
1 1 1
1 1 1
1 1 1
1 1 1
1 1 1
1 1 1
1 1 1
1 1 1
1 1 1
1 1 1
1 1 1
1 1 1
1 1 1
1 1 1
1 1 1
1 1 1
1 1 1
1 1 1
1 1 1
1 1 1
1 1 1
1 1 1
1 1 1
1 1 1
1 1 1
1 1 1
1 1 1
1 1 1
1 1 1
1 1 1
1 1 1
1 1 1
1 1 1
1 1 1
1 1 1
1 1 1
1 1 1
1 1 1
1 1 1
1 1 1
1 1 1
1 1 1
1 1 1
1 1 1
1 1 1
1 1 1
1 1 1
1 1 1
1 1 1
1 1 1
1 1 1
1 1 1
1 1 1
1 1 1
1 1 1
1 1 1
1 1 1
1 1 1
1 1 1
1 1 1
1 1 1
1 1 1
1 1 1
1 1 1
1 1 1
1 1 1
1 1 1
1 1 1
1 1 1
1 1 1
1 1 1
1 1 1
1 1 1
1 1 1
1 1 1
1 1 1
1 1 1
1 1 1
1 1 1
1 1 1
1 1 1
