Assets/HMP LUTs/LUTs/HMPLUTs_Neptuno.cube
TITLE "Generated by Resolve"
LUT_3D_SIZE 9
0 0 0
0 0 0
0 0 0
0 0 0
0.15317 0 0
1 0 0
1 0 0
1 0 0
1 0 0
0 0 0
0 0 0
0 0 0
0 0 0
0.165896 0.00463874 0.00463874
1 0 0
1 0 0
1 0 0
1 0 0
0 0 0
0 0 0
0 0 0
0.0102388 9.15541e-05 9.15541e-05
0.18584 0.0245823 0.0245823
1 0.0229038 0.0229038
1 0 0
1 0 0
1 0 0
0.0208591 0.0355535 0.0355535
0.0288243 0.0382544 0.0382544
0.0394293 0.0427253 0.0427253
0.0690471 0.0588998 0.0588998
0.254414 0.0931411 0.0931411
1 0.102831 0.102831
1 0 0
1 0 0
1 0 0
0.253117 0.267826 0.267826
0.262135 0.271565 0.271565
0.27425 0.277546 0.277546
0.308248 0.2981 0.2981
0.524956 0.343496 0.343496
1 0.375998 0.375998
1 0 0
1 0 0
1 0 0
1 1 1
1 1 1
1 1 1
1 1 1
1 1 1
1 1 1
1 1 1
1 0 0
1 0 0
1 1 1
1 1 1
1 1 1
1 1 1
1 1 1
1 1 1
1 1 1
1 0 0
1 0 0
1 1 1
1 1 1
1 1 1
1 1 1
1 1 1
1 1 1
1 1 1
1 1 1
1 0 0
1 1 1
1 1 1
1 1 1
1 1 1
1 1 1
1 1 1
1 1 1
1 1 1
1 1 1
0 0 0
0 0 0
0 0 0
0 0 0
0.154421 0 0
1 0 0
1 0 0
1 0 0
1 0 0
0 0 0
0 0 0
0 0 0
0 0 0
0.167224 0.00595102 0.00595102
1 1.5259e-05 1.5259e-05
1 0 0
1 0 0
1 0 0
0 0 0
0 0 0
0 0 0
0.0112001 0.00106813 0.00106813
0.187228 0.0259556 0.0259556
1 0.0245823 0.0245823
1 0 0
1 0 0
1 0 0
0.0221408 0.0368505 0.0368505
0.0301213 0.0395514 0.0395514
0.0407568 0.0440528 0.0440528
0.0704356 0.0603037 0.0603037
0.255924 0.0946517 0.0946517
1 0.104555 0.104555
1 0 0
1 0 0
1 0 0
0.254765 0.269474 0.269474
0.263798 0.273228 0.273228
0.275914 0.27921 0.27921
0.309926 0.299779 0.299779
0.529412 0.34522 0.34522
1 0.377844 0.377844
1 0 0
1 0 0
1 0 0
1 1 1
1 1 1
1 1 1
1 1 1
1 1 1
1 1 1
1 1 1
1 0 0
1 0 0
1 1 1
1 1 1
1 1 1
1 1 1
1 1 1
1 1 1
1 1 1
1 0 0
1 0 0
1 1 1
1 1 1
1 1 1
1 1 1
1 1 1
1 1 1
1 1 1
1 1 1
1 0 0
1 1 1
1 1 1
1 1 1
1 1 1
1 1 1
1 1 1
1 1 1
1 1 1
1 1 1
0 0 0
0 0 0
0 0 0
0 0 0
0.156313 0 0
1 0 0
1 0 0
1 0 0
1 0 0
0 0 0
0 0 0
0 0 0
0 0 0
0.169192 0.00791943 0.00791943
1 0.00248722 0.00248722
1 0 0
1 0 0
1 0 0
0 0 0
0 0 0
0 0 0
0.0127108 0.00257877 0.00257877
0.189288 0.0280308 0.0280308
1 0.0270695 0.0270695
1 0 0
1 0 0
1 0 0
0.0240787 0.0387732 0.0387732
0.0320897 0.0415198 0.0415198
0.0427405 0.0460365 0.0460365
0.0725109 0.0623789 0.0623789
0.258183 0.09691 0.09691
1 0.107118 0.107118
1 0 0
1 0 0
1 0 0
0.257237 0.271946 0.271946
0.26627 0.2757 0.2757
0.278401 0.281697 0.281697
0.312428 0.302281 0.302281
0.536248 0.347799 0.347799
1 0.380575 0.380575
1 0 0
1 0 0
1 0 0
1 1 1
1 1 1
1 1 1
1 1 1
1 1 1
1 1 1
1 1 1
1 0 0
1 0 0
1 1 1
1 1 1
1 1 1
1 1 1
1 1 1
1 1 1
1 1 1
1 0 0
1 0 0
1 1 1
1 1 1
1 1 1
1 1 1
1 1 1
1 1 1
1 1 1
1 1 1
1 0 0
1 1 1
1 1 1
1 1 1
1 1 1
1 1 1
1 1 1
1 1 1
1 1 1
1 1 1
0 0 0
0 0 0
0 0 0
0 0 0
0.162432 0.00117494 0.00117494
1 0 0
1 0 0
1 0 0
1 0 0
0 0 0
0 0 0
0 0 0
0.00376898 0 0
0.17557 0.0142977 0.0142977
1 0.0103761 0.0103761
1 0 0
1 0 0
1 0 0
0 0 0
0 0 0
0 0 0
0.0178531 0.00772107 0.00772107
0.195956 0.0346838 0.0346838
1 0.0350347 0.0350347
1 0 0
1 0 0
1 0 0
0.0303349 0.0450294 0.0450294
0.038407 0.047837 0.047837
0.0491798 0.0524758 0.0524758
0.0791943 0.0690623 0.0690623
0.265446 0.104173 0.104173
1 0.115328 0.115328
1 0 0
1 0 0
1 0 0
0.265126 0.279835 0.279835
0.274174 0.283619 0.283619
0.286336 0.289631 0.289631
0.320439 0.310292 0.310292
0.559655 0.356023 0.356023
1 0.389319 0.389319
1 0 0
1 0 0
1 0 0
1 1 1
1 1 1
1 1 1
1 1 1
1 1 1
1 1 1
1 1 1
1 0 0
1 0 0
1 1 1
1 1 1
1 1 1
1 1 1
1 1 1
1 1 1
1 1 1
1 0 0
1 0 0
1 1 1
1 1 1
1 1 1
1 1 1
1 1 1
1 1 1
1 1 1
1 1 1
1 0 0
1 1 1
1 1 1
1 1 1
1 1 1
1 1 1
1 1 1
1 1 1
1 1 1
1 1 1
0 0 0
0 0 0
0 0 0
0.00846876 0 0
0.183154 0.0218814 0.0218814
1 0.0196536 0.0196536
1 0 0
1 0 0
1 0 0
0 0 0
0 0 0
0 0 0
0.0186465 0.00849927 0.00849927
0.196933 0.0356603 0.0356603
1 0.0362097 0.0362097
1 0 0
1 0 0
1 0 0
0 0.00671397 0.00671397
0 0.00866712 0.00866712
0.00892653 0.0122225 0.0122225
0.0364843 0.0263371 0.0263371
0.218112 0.0568399 0.0568399
1 0.0611276 0.0611276
1 0 0
1 0 0
1 0 0
0.0513924 0.0661021 0.0661021
0.0596628 0.0690929 0.0690929
0.0706798 0.0739757 0.0739757
0.101427 0.0912947 0.0912947
0.289342 0.128069 0.128069
1 0.142138 0.142138
1 0 0
1 0 0
1 0 0
0.290974 0.305684 0.305684
0.300084 0.309514 0.309514
0.312306 0.315602 0.315602
0.346639 0.336507 0.336507
0.652476 0.382895 0.382895
1 0.417884 0.417884
1 0 0
1 0 0
1 0 0
1 1 1
1 1 1
1 1 1
1 1 1
1 1 1
1 1 1
1 1 1
1 0 0
1 0 0
1 1 1
1 1 1
1 1 1
1 1 1
1 1 1
1 1 1
1 1 1
1 0 0
1 0 0
1 1 1
1 1 1
1 1 1
1 1 1
1 1 1
1 1 1
1 1 1
1 1 1
1 0 0
1 1 1
1 1 1
1 1 1
1 1 1
1 1 1
1 1 1
1 1 1
1 1 1
1 1 1
0.0224002 0.0370947 0.0370947
0.0303807 0.0398108 0.0398108
0.0410163 0.0443122 0.0443122
0.0706951 0.0605631 0.0605631
0.256214 0.0949416 0.0949416
1 0.104891 0.104891
1 0 0
1 0 0
1 0 0
0.035462 0.0501717 0.0501717
0.043595 0.0530251 0.0530251
0.0544289 0.0577249 0.0577249
0.0846571 0.0745098 0.0745098
0.271336 0.110063 0.110063
1 0.121965 0.121965
1 0 0
1 0 0
1 0 0
0.055787 0.0704814 0.0704967
0.0640879 0.073518 0.073518
0.0751507 0.0784466 0.0784466
0.106035 0.0958877 0.0958877
0.294255 0.132967 0.132967
1 0.147616 0.147616
1 0 0
1 0 0
1 0 0
0.125139 0.139834 0.139834
0.133776 0.143221 0.143221
0.145373 0.148669 0.148669
0.177737 0.16759 0.16759
0.369772 0.208484 0.208484
1 0.230716 0.230716
1 0 0
1 0 0
1 0 0
0.376745 0.391424 0.391424
0.385977 0.395407 0.395407
0.398413 0.401709 0.401709
0.433417 0.423285 0.423285
1 0.464576 0.464576
1 0.543572 0.543572
1 0 0
1 0 0
1 0 0
1 1 1
1 1 1
1 1 1
1 1 1
1 1 1
1 1 1
1 1 1
1 0 0
1 0 0
1 1 1
1 1 1
1 1 1
1 1 1
1 1 1
1 1 1
1 1 1
1 0 0
1 0 0
1 1 1
1 1 1
1 1 1
1 1 1
1 1 1
1 1 1
1 1 1
1 1 1
1 0 0
1 1 1
1 1 1
1 1 1
1 1 1
1 1 1
1 1 1
1 1 1
1 1 1
1 1 1
0.272053 0.286763 0.286763
0.281117 0.290547 0.290547
0.293294 0.29659 0.29659
0.327459 0.317311 0.317311
0.582086 0.363226 0.363226
1 0.396979 0.396979
1 0 0
1 0 0
1 0 0
0.288594 0.303304 0.303304
0.297688 0.307134 0.307134
0.309926 0.313222 0.313222
0.344228 0.334096 0.334096
0.642908 0.380438 0.380438
1 0.415259 0.415259
1 0 0
1 0 0
1 0 0
0.313512 0.328222 0.328222
0.322652 0.332082 0.332082
0.334951 0.338247 0.338247
0.369467 0.359335 0.359335
0.753124 0.406271 0.406271
1 0.442512 0.442512
1 0 0
1 0 0
1 0 0
0.394446 0.40914 0.40914
0.403708 0.413138 0.413138
0.416205 0.419501 0.419501
0.449317 0.441154 0.441154
1 0.491142 0.491142
1 0.603738 0.603738
1 0 0
1 0 0
1 0 0
1 1 1
1 1 1
1 1 1
1 1 1
1 1 1
1 1 1
1 0.286687 0.286687
1 0 0
1 0 0
1 1 1
1 1 1
1 1 1
1 1 1
1 1 1
1 1 1
1 1 1
1 0 0
1 0 0
1 1 1
1 1 1
1 1 1
1 1 1
1 1 1
1 1 1
1 1 1
1 0 0
1 0 0
1 1 1
1 1 1
1 1 1
1 1 1
1 1 1
1 1 1
1 1 1
1 1 1
1 0 0
1 1 1
1 1 1
1 1 1
1 1 1
1 1 1
1 1 1
1 1 1
1 1 1
1 1 1
1 1 1
1 1 1
1 1 1
1 1 1
1 1 1
1 1 1
1 1 1
1 0 0
1 0 0
1 1 1
1 1 1
1 1 1
1 1 1
1 1 1
1 1 1
1 1 1
1 0 0
1 0 0
1 1 1
1 1 1
1 1 1
1 1 1
1 1 1
1 1 1
1 1 1
1 0 0
1 0 0
1 1 1
1 1 1
1 1 1
1 1 1
1 1 1
1 1 1
1 1 1
1 0 0
1 0 0
1 1 1
1 1 1
1 1 1
1 1 1
1 1 1
1 1 1
1 1 1
1 0 0
1 0 0
1 1 1
1 1 1
1 1 1
1 1 1
1 1 1
1 1 1
1 1 1
1 0 0
1 0 0
1 1 1
1 1 1
1 1 1
1 1 1
1 1 1
1 1 1
1 1 1
1 1 1
1 0 0
1 1 1
1 1 1
1 1 1
1 1 1
1 1 1
1 1 1
1 1 1
1 1 1
1 0 0
1 1 1
1 1 1
1 1 1
1 1 1
1 1 1
1 1 1
1 1 1
1 1 1
1 1 1
1 1 1
1 1 1
1 1 1
1 1 1
1 1 1
1 1 1
1 1 1
1 0 0
1 0 0
1 1 1
1 1 1
1 1 1
1 1 1
1 1 1
1 1 1
1 1 1
1 0 0
1 0 0
1 1 1
1 1 1
1 1 1
1 1 1
1 1 1
1 1 1
1 1 1
1 0 0
1 0 0
1 1 1
1 1 1
1 1 1
1 1 1
1 1 1
1 1 1
1 1 1
1 0 0
1 0 0
1 1 1
1 1 1
1 1 1
1 1 1
1 1 1
1 1 1
1 1 1
1 0 0
1 0 0
1 1 1
1 1 1
1 1 1
1 1 1
1 1 1
1 1 1
1 1 1
1 1 1
1 0 0
1 1 1
1 1 1
1 1 1
1 1 1
1 1 1
1 1 1
1 1 1
1 1 1
1 0 0
1 1 1
1 1 1
1 1 1
1 1 1
1 1 1
1 1 1
1 1 1
1 1 1
1 0 0
1 1 1
1 1 1
1 1 1
1 1 1
1 1 1
1 1 1
1 1 1
1 1 1
1 1 1
