Assets/HMP LUTs/LUTs/HMPLUTs_Pluto.cube
TITLE "Generated by Resolve"
LUT_3D_SIZE 33
0 0 0
0 0 0
0 0 0
0 0 0
0 0 0
0 0 0
0 0 0
0 0 0
0 0 0
0.00787366 0.00787366 0.00787366
0.0194247 0.0194247 0.0194247
0.0349279 0.0349279 0.0349279
0.0557565 0.0557565 0.0557565
0.0837262 0.0837262 0.0837262
0.120287 0.120287 0.120287
0.19057 0.19057 0.19057
0.273732 0.273732 0.273732
0.444633 0.444633 0.444633
0.830777 0.830777 0.830777
1 1 1
1 1 1
1 1 1
1 1 1
1 1 1
1 1 1
1 1 1
1 1 1
1 1 1
1 1 1
1 1 1
1 1 1
1 1 1
1 1 1
0 0 0
0 0 0
0 0 0
0 0 0
0 0 0
0 0 0
0 0 0
0 0 0
0.00222782 0.00222782 0.00222782
0.0105745 0.0105745 0.0105745
0.0221256 0.0221256 0.0221256
0.0376287 0.0376287 0.0376287
0.0584573 0.0584573 0.0584573
0.0864271 0.0864271 0.0864271
0.122972 0.122972 0.122972
0.193271 0.193271 0.193271
0.276432 0.276432 0.276432
0.447333 0.447333 0.447333
0.833478 0.833478 0.833478
1 1 1
1 1 1
1 1 1
1 1 1
1 1 1
1 1 1
1 1 1
1 1 1
1 1 1
1 1 1
1 1 1
1 1 1
1 1 1
1 1 1
0 0 0
0 0 0
0 0 0
0 0 0
0 0 0
0 0 0
0 0 0
0 0 0
0.00492866 0.00492866 0.00492866
0.0132753 0.0132753 0.0132753
0.0248264 0.0248264 0.0248264
0.0403296 0.0403296 0.0403296
0.0611582 0.0611582 0.0611582
0.0891127 0.0891127 0.0891127
0.125673 0.125673 0.125673
0.195972 0.195972 0.195972
0.279133 0.279133 0.279133
0.450034 0.450034 0.450034
0.836179 0.836179 0.836179
1 1 1
1 1 1
1 1 1
1 1 1
1 1 1
1 1 1
1 1 1
1 1 1
1 1 1
1 1 1
1 1 1
1 1 1
1 1 1
1 1 1
0 0 0
0 0 0
0 0 0
0 0 0
0 0 0
0 0 0
0 0 0
0.00122072 0.00122072 0.00122072
0.00761425 0.00761425 0.00761425
0.0159762 0.0159762 0.0159762
0.0275273 0.0275273 0.0275273
0.0430304 0.0430304 0.0430304
0.063859 0.063859 0.063859
0.0918135 0.0918135 0.0918135
0.128374 0.128374 0.128374
0.198672 0.198672 0.198672
0.281834 0.281834 0.281834
0.45272 0.45272 0.45272
0.83888 0.83888 0.83888
1 1 1
1 1 1
1 1 1
1 1 1
1 1 1
1 1 1
1 1 1
1 1 1
1 1 1
1 1 1
1 1 1
1 1 1
1 1 1
1 1 1
0 0 0
0 0 0
0 0 0
0 0 0
0 0 0
0 0 0
0 0 0
0.00392157 0.00392157 0.00392157
0.0103151 0.0103151 0.0103151
0.018677 0.018677 0.018677
0.0302281 0.0302281 0.0302281
0.0457313 0.0457313 0.0457313
0.0665599 0.0665599 0.0665599
0.0945144 0.0945144 0.0945144
0.131075 0.131075 0.131075
0.201373 0.201373 0.201373
0.28452 0.28452 0.28452
0.455421 0.455421 0.455421
0.841566 0.841566 0.841566
1 1 1
1 1 1
1 1 1
1 1 1
1 1 1
1 1 1
1 1 1
1 1 1
1 1 1
1 1 1
1 1 1
1 1 1
1 1 1
1 1 1
0 0 0
0 0 0
0 0 0
0 0 0
0 0 0
0 0 0
0.0018616 0.0018616 0.0018616
0.00662242 0.00662242 0.00662242
0.0130159 0.0130159 0.0130159
0.0213779 0.0213779 0.0213779
0.032929 0.032929 0.032929
0.0484321 0.0484321 0.0484321
0.0692607 0.0692607 0.0692607
0.0972152 0.0972152 0.0972152
0.133776 0.133776 0.133776
0.204074 0.204074 0.204074
0.287236 0.287236 0.287236
0.458122 0.458122 0.458122
0.844282 0.844282 0.844282
1 1 1
1 1 1
1 1 1
1 1 1
1 1 1
1 1 1
1 1 1
1 1 1
1 1 1
1 1 1
1 1 1
1 1 1
1 1 1
1 1 1
0 0 0
0 0 0
0 0 0
0 0 0
0 0 0
0.00154116 0.00154116 0.00154116
0.00509651 0.00509651 0.00509651
0.00985733 0.00985733 0.00985733
0.0162509 0.0162509 0.0162509
0.0246128 0.0246128 0.0246128
0.0361639 0.0361639 0.0361639
0.051667 0.051667 0.051667
0.0724956 0.0724956 0.0724956
0.10045 0.10045 0.10045
0.137011 0.137011 0.137011
0.207309 0.207309 0.207309
0.290471 0.290471 0.290471
0.461357 0.461357 0.461357
0.847517 0.847517 0.847517
1 1 1
1 1 1
1 1 1
1 1 1
1 1 1
1 1 1
1 1 1
1 1 1
1 1 1
1 1 1
1 1 1
1 1 1
1 1 1
1 1 1
0 0 0
0 0 0
0 0 0
0 0 0
0.00291447 0.00291447 0.00291447
0.00588998 0.00588998 0.00588998
0.00943008 0.00943008 0.00943008
0.0142061 0.0142061 0.0142061
0.0205997 0.0205997 0.0205997
0.0289464 0.0289464 0.0289464
0.0404974 0.0404974 0.0404974
0.0560159 0.0560159 0.0560159
0.0768444 0.0768444 0.0768444
0.104799 0.104799 0.104799
0.14136 0.14136 0.14136
0.211643 0.211643 0.211643
0.294804 0.294804 0.294804
0.465705 0.465705 0.465705
0.85185 0.85185 0.85185
1 1 1
1 1 1
1 1 1
1 1 1
1 1 1
1 1 1
1 1 1
1 1 1
1 1 1
1 1 1
1 1 1
1 1 1
1 1 1
1 1 1
0 0 0
0 0 0
0.00282292 0.00282292 0.00282292
0.00578317 0.00578317 0.00578317
0.00874342 0.00874342 0.00874342
0.0117189 0.0117189 0.0117189
0.0152743 0.0152743 0.0152743
0.0200351 0.0200351 0.0200351
0.0264286 0.0264286 0.0264286
0.0347906 0.0347906 0.0347906
0.0463417 0.0463417 0.0463417
0.0618448 0.0618448 0.0618448
0.0826734 0.0826734 0.0826734
0.110628 0.110628 0.110628
0.147189 0.147189 0.147189
0.217487 0.217487 0.217487
0.300649 0.300649 0.300649
0.471534 0.471534 0.471534
0.857679 0.857679 0.857679
1 1 1
1 1 1
1 1 1
1 1 1
1 1 1
1 1 1
1 1 1
1 1 1
1 1 1
1 1 1
1 1 1
1 1 1
1 1 1
1 1 1
0.00451667 0.00451667 0.00451667
0.00747692 0.00747692 0.00747692
0.0104372 0.0104372 0.0104372
0.0133974 0.0133974 0.0133974
0.0163577 0.0163577 0.0163577
0.0193332 0.0193332 0.0193332
0.0228733 0.0228733 0.0228733
0.0276493 0.0276493 0.0276493
0.0340429 0.0340429 0.0340429
0.0423896 0.0423896 0.0423896
0.0539406 0.0539406 0.0539406
0.0694591 0.0694591 0.0694591
0.0902724 0.0902724 0.0902724
0.118242 0.118242 0.118242
0.154803 0.154803 0.154803
0.225086 0.225086 0.225086
0.308248 0.308248 0.308248
0.479149 0.479149 0.479149
0.865293 0.865293 0.865293
1 1 1
1 1 1
1 1 1
1 1 1
1 1 1
1 1 1
1 1 1
1 1 1
1 1 1
1 1 1
1 1 1
1 1 1
1 1 1
1 1 1
0.0150301 0.0150301 0.0150301
0.0180056 0.0180056 0.0180056
0.0209659 0.0209659 0.0209659
0.0239261 0.0239261 0.0239261
0.0268864 0.0268864 0.0268864
0.0298466 0.0298466 0.0298466
0.033402 0.033402 0.033402
0.0381628 0.0381628 0.0381628
0.0445716 0.0445716 0.0445716
0.0529183 0.0529183 0.0529183
0.0644694 0.0644694 0.0644694
0.0799725 0.0799725 0.0799725
0.100801 0.100801 0.100801
0.128771 0.128771 0.128771
0.165331 0.165331 0.165331
0.235615 0.235615 0.235615
0.318776 0.318776 0.318776
0.489677 0.489677 0.489677
0.875822 0.875822 0.875822
1 1 1
1 1 1
1 1 1
1 1 1
1 1 1
1 1 1
1 1 1
1 1 1
1 1 1
1 1 1
1 1 1
1 1 1
1 1 1
1 1 1
0.0291752 0.0291752 0.0291752
0.0321355 0.0321355 0.0321355
0.0350958 0.0350958 0.0350958
0.038056 0.038056 0.038056
0.0410163 0.0410163 0.0410163
0.0439765 0.0439765 0.0439765
0.0475319 0.0475319 0.0475319
0.0523079 0.0523079 0.0523079
0.0587015 0.0587015 0.0587015
0.0670481 0.0670481 0.0670481
0.0785992 0.0785992 0.0785992
0.0941176 0.0941176 0.0941176
0.114931 0.114931 0.114931
0.142901 0.142901 0.142901
0.179461 0.179461 0.179461
0.249744 0.249744 0.249744
0.332906 0.332906 0.332906
0.503807 0.503807 0.503807
0.889952 0.889952 0.889952
1 1 1
1 1 1
1 1 1
1 1 1
1 1 1
1 1 1
1 1 1
1 1 1
1 1 1
1 1 1
1 1 1
1 1 1
1 1 1
1 1 1
0.0481422 0.0481422 0.0481422
0.0511025 0.0511025 0.0511025
0.054078 0.054078 0.054078
0.0570382 0.0570382 0.0570382
0.0599985 0.0599985 0.0599985
0.0629587 0.0629587 0.0629587
0.0665141 0.0665141 0.0665141
0.0712749 0.0712749 0.0712749
0.0776837 0.0776837 0.0776837
0.0860304 0.0860304 0.0860304
0.0975814 0.0975814 0.0975814
0.113085 0.113085 0.113085
0.133913 0.133913 0.133913
0.161883 0.161883 0.161883
0.198428 0.198428 0.198428
0.268727 0.268727 0.268727
0.351888 0.351888 0.351888
0.522789 0.522789 0.522789
0.908934 0.908934 0.908934
1 1 1
1 1 1
1 1 1
1 1 1
1 1 1
1 1 1
1 1 1
1 1 1
1 1 1
1 1 1
1 1 1
1 1 1
1 1 1
1 1 1
0.0736248 0.0736248 0.0736248
0.076585 0.076585 0.076585
0.0795453 0.0795453 0.0795453
0.0825055 0.0825055 0.0825055
0.085481 0.085481 0.085481
0.0884413 0.0884413 0.0884413
0.0919966 0.0919966 0.0919966
0.0967575 0.0967575 0.0967575
0.103166 0.103166 0.103166
0.111513 0.111513 0.111513
0.123064 0.123064 0.123064
0.138567 0.138567 0.138567
0.159396 0.159396 0.159396
0.18735 0.18735 0.18735
0.223911 0.223911 0.223911
0.294209 0.294209 0.294209
0.377371 0.377371 0.377371
0.548257 0.548257 0.548257
0.934417 0.934417 0.934417
1 1 1
1 1 1
1 1 1
1 1 1
1 1 1
1 1 1
1 1 1
1 1 1
1 1 1
1 1 1
1 1 1
1 1 1
1 1 1
1 1 1
0.106935 0.106935 0.106935
0.109911 0.109911 0.109911
0.112871 0.112871 0.112871
0.115831 0.115831 0.115831
0.118791 0.118791 0.118791
0.121752 0.121752 0.121752
0.125307 0.125307 0.125307
0.130068 0.130068 0.130068
0.136477 0.136477 0.136477
0.144823 0.144823 0.144823
0.156374 0.156374 0.156374
0.171878 0.171878 0.171878
0.192706 0.192706 0.192706
0.220676 0.220676 0.220676
0.257237 0.257237 0.257237
0.32752 0.32752 0.32752
0.410681 0.410681 0.410681
0.581582 0.581582 0.581582
0.967727 0.967727 0.967727
1 1 1
1 1 1
1 1 1
1 1 1
1 1 1
1 1 1
1 1 1
1 1 1
1 1 1
1 1 1
1 1 1
1 1 1
1 1 1
1 1 1
0.170993 0.170993 0.170993
0.173953 0.173953 0.173953
0.176913 0.176913 0.176913
0.179873 0.179873 0.179873
0.182834 0.182834 0.182834
0.185809 0.185809 0.185809
0.189349 0.189349 0.189349
0.194125 0.194125 0.194125
0.200519 0.200519 0.200519
0.208881 0.208881 0.208881
0.220432 0.220432 0.220432
0.235935 0.235935 0.235935
0.256764 0.256764 0.256764
0.284718 0.284718 0.284718
0.321279 0.321279 0.321279
0.391577 0.391577 0.391577
0.474723 0.474723 0.474723
0.645624 0.645624 0.645624
1 1 1
1 1 1
1 1 1
1 1 1
1 1 1
1 1 1
1 1 1
1 1 1
1 1 1
1 1 1
1 1 1
1 1 1
1 1 1
1 1 1
1 1 1
0.246769 0.246769 0.246769
0.249729 0.249729 0.249729
0.252689 0.252689 0.252689
0.25565 0.25565 0.25565
0.258625 0.258625 0.258625
0.261585 0.261585 0.261585
0.265141 0.265141 0.265141
0.269902 0.269902 0.269902
0.27631 0.27631 0.27631
0.284657 0.284657 0.284657
0.296208 0.296208 0.296208
0.311711 0.311711 0.311711
0.33254 0.33254 0.33254
0.360494 0.360494 0.360494
0.397055 0.397055 0.397055
0.467353 0.467353 0.467353
0.550515 0.550515 0.550515
0.721401 0.721401 0.721401
1 1 1
1 1 1
1 1 1
1 1 1
1 1 1
1 1 1
1 1 1
1 1 1
1 1 1
1 1 1
1 1 1
1 1 1
1 1 1
1 1 1
1 1 1
0.402502 0.402502 0.402502
0.405463 0.405463 0.405463
0.408423 0.408423 0.408423
0.411383 0.411383 0.411383
0.414343 0.414343 0.414343
0.417319 0.417319 0.417319
0.420859 0.420859 0.420859
0.425635 0.425635 0.425635
0.432029 0.432029 0.432029
0.440375 0.440375 0.440375
0.451926 0.451926 0.451926
0.467445 0.467445 0.467445
0.488273 0.488273 0.488273
0.516228 0.516228 0.516228
0.552789 0.552789 0.552789
0.623072 0.623072 0.623072
0.706233 0.706233 0.706233
0.877134 0.877134 0.877134
1 1 1
1 1 1
1 1 1
1 1 1
1 1 1
1 1 1
1 1 1
1 1 1
1 1 1
1 1 1
1 1 1
1 1 1
1 1 1
1 1 1
1 1 1
0.754376 0.754376 0.754376
0.757336 0.757336 0.757336
0.760296 0.760296 0.760296
0.763256 0.763256 0.763256
0.766217 0.766217 0.766217
0.769192 0.769192 0.769192
0.772732 0.772732 0.772732
0.777508 0.777508 0.777508
0.783902 0.783902 0.783902
0.792264 0.792264 0.792264
0.803815 0.803815 0.803815
0.819318 0.819318 0.819318
0.840146 0.840146 0.840146
0.868101 0.868101 0.868101
0.904662 0.904662 0.904662
0.97496 0.97496 0.97496
1 1 1
1 1 1
1 1 1
1 1 1
1 1 1
1 1 1
1 1 1
1 1 1
1 1 1
1 1 1
1 1 1
1 1 1
1 1 1
1 1 1
1 1 1
1 1 1
1 1 1
1 1 1
1 1 1
1 1 1
1 1 1
1 1 1
1 1 1
1 1 1
1 1 1
1 1 1
1 1 1
1 1 1
1 1 1
1 1 1
1 1 1
1 1 1
1 1 1
1 1 1
1 1 1
1 1 1
1 1 1
1 1 1
1 1 1
1 1 1
1 1 1
1 1 1
1 1 1
1 1 1
1 1 1
1 1 1
1 1 1
1 1 1
1 1 1
1 1 1
1 1 1
1 1 1
1 1 1
1 1 1
1 1 1
1 1 1
1 1 1
1 1 1
1 1 1
1 1 1
1 1 1
1 1 1
1 1 1
1 1 1
1 1 1
1 1 1
1 1 1
1 1 1
1 1 1
1 1 1
1 1 1
1 1 1
1 1 1
1 1 1
1 1 1
1 1 1
1 1 1
1 1 1
1 1 1
1 1 1
1 1 1
1 1 1
1 1 1
1 1 1
1 1 1
1 1 1
1 1 1
1 1 1
1 1 1
1 1 1
1 1 1
1 1 1
1 1 1
1 1 1
1 1 1
1 1 1
1 1 1
1 1 1
1 1 1
1 1 1
1 1 1
1 1 1
1 1 1
1 1 1
1 1 1
1 1 1
1 1 1
1 1 1
1 1 1
1 1 1
1 1 1
1 1 1
1 1 1
1 1 1
1 1 1
1 1 1
1 1 1
1 1 1
1 1 1
1 1 1
1 1 1
1 1 1
1 1 1
1 1 1
1 1 1
1 1 1
1 1 1
1 1 1
1 1 1
1 1 1
1 1 1
1 1 1
1 1 1
1 1 1
1 1 1
1 1 1
1 1 1
1 1 1
1 1 1
1 1 1
1 1 1
1 1 1
1 1 1
1 1 1
1 1 1
1 1 1
1 1 1
1 1 1
1 1 1
1 1 1
1 1 1
1 1 1
1 1 1
1 1 1
1 1 1
1 1 1
1 1 1
1 1 1
1 1 1
1 1 1
1 1 1
1 1 1
1 1 1
1 1 1
1 1 1
1 1 1
1 1 1
1 1 1
1 1 1
1 1 1
1 1 1
1 1 1
1 1 1
1 1 1
1 1 1
1 1 1
1 1 1
1 1 1
1 1 1
1 1 1
1 1 1
1 1 1
1 1 1
1 1 1
1 1 1
1 1 1
1 1 1
1 1 1
1 1 1
1 1 1
1 1 1
1 1 1
1 1 1
1 1 1
1 1 1
1 1 1
1 1 1
1 1 1
1 1 1
1 1 1
1 1 1
1 1 1
1 1 1
1 1 1
1 1 1
1 1 1
1 1 1
1 1 1
1 1 1
1 1 1
1 1 1
1 1 1
1 1 1
1 1 1
1 1 1
1 1 1
1 1 1
1 1 1
1 1 1
1 1 1
1 1 1
1 1 1
1 1 1
1 1 1
1 1 1
1 1 1
1 1 1
1 1 1
1 1 1
1 1 1
1 1 1
1 1 1
1 1 1
1 1 1
1 1 1
1 1 1
1 1 1
1 1 1
1 1 1
1 1 1
1 1 1
1 1 1
1 1 1
1 1 1
1 1 1
1 1 1
1 1 1
1 1 1
1 1 1
1 1 1
1 1 1
1 1 1
1 1 1
1 1 1
1 1 1
1 1 1
1 1 1
1 1 1
1 1 1
1 1 1
1 1 1
1 1 1
1 1 1
1 1 1
1 1 1
1 1 1
1 1 1
1 1 1
1 1 1
1 1 1
1 1 1
1 1 1
1 1 1
1 1 1
1 1 1
1 1 1
1 1 1
1 1 1
1 1 1
1 1 1
1 1 1
1 1 1
1 1 1
1 1 1
1 1 1
1 1 1
1 1 1
1 1 1
1 1 1
1 1 1
