Assets/HMP LUTs/LUTs/HMPLUTs_Chocolata.cube
TITLE "Generated by Resolve"
LUT_3D_SIZE 5
0 0 0
0 0 0
1 0 0
1 0 1
1 0 1
0 0 0
0 0 0
1 0 0.0119631
1 0 1
1 0 1
0 1 0.38909
0 0.98996 0.389944
0.905547 0.877623 0.476356
1 0.260029 1
1 0 1
0 1 1
0 1 1
0 1 1
1 1 1
1 1 1
0 1 1
0 1 1
0 1 1
0 1 1
1 1 1
0 0 0
0 0 0
1 0 0.0972152
1 0 1
1 0 1
0 0 0
0 0 0
1 0 0.148959
1 0 1
1 0 1
0 1 0.522316
0 0.982238 0.523079
0.897276 0.869505 0.608316
1 0.249546 1
1 0 1
0 1 1
0 1 1
0 1 1
1 1 1
1 1 1
0 1 1
0 1 1
0 1 1
0 1 1
1 1 1
0 0 1
0 0 1
1 0 1
1 0 1
1 0 1
0 0 1
0 0 1
1 0 1
1 0 1
1 0 1
0 0.947158 1
0 0.92871 1
0.841108 0.814008 1
1 0.163439 1
1 0 1
0 1 1
0 1 1
0 1 1
1 1 1
1 1 1
0 1 1
0 1 1
0 1 1
0 1 1
1 1 1
0 0 1
0 0 1
0.972168 0 1
1 0 1
1 0 1
0 0 1
0 0 1
0.900191 0 1
1 0 1
1 0 1
0 0.538949 1
0 0.516289 1
0.395438 0.361639 1
1 0 1
1 0 1
0 1 1
0 1 1
0 1 1
1 1 1
1 1 1
0 1 1
0 1 1
0 1 1
0 1 1
1 1 1
0 0 1
0 0 1
0 0 1
1 0 1
1 0 1
0 0 1
0 0 1
0 0 1
1 0 1
1 0 1
0 0 1
0 0 1
0 0 1
1 0 1
1 0 1
0 1 1
0 1 1
0 1 1
1 1 1
1 1 1
0 1 1
0 1 1
0 1 1
0 1 1
1 1 1
