Assets/HMP LUTs/LUTs/HMPLUTs_Adelfo.cube
TITLE "Generated by Resolve"
LUT_3D_SIZE 33
0 0 0
0 0 0
0 0 0
0 0 0
0 0 0
0 0 0
0 0 0
0 0 0
0.00616464 0 0
0.0180819 0 0
0.0343938 0 0
0.0563821 0 0
0.0871748 0 0
0.129259 0 0
0.187671 0 0
0.266972 0 0
0.371847 0 0
0.502663 0 0
0.684321 0 0
0.937575 0 0
1 0 0
1 0 0
1 0 0
1 0 0
1 0 0
1 0 0
1 0 0
1 0 0
1 0 0
1 0 0
1 0 0
1 0 0
1 0 0
0 0 0
0 0 0
0 0 0
0 0 0
0 0 0
0 0 0
0 0 0
0 0 0
0.00695811 0 0
0.0189059 0 0
0.0348669 0 0
0.0572976 0 0
0.0877546 0 0
0.130236 0 0
0.188403 0 0
0.268147 0 0
0.373053 0 0
0.503899 0 0
0.68545 0 0
0.939071 0 0
1 0 0
1 0 0
1 0 0
1 0 0
1 0 0
1 0 0
1 0 0
1 0 0
1 0 0
1 0 0
1 0 0
1 0 0
1 0 0
0 0 0
0 0 0
0 0 0
0 0 0
0 0 0
0 0 0
0 0 0
0 0 0
0.00775158 0 0
0.0194247 0 0
0.0357214 0 0
0.0581979 0 0
0.0887007 0 0
0.130892 0 0
0.189502 0 0
0.269306 0 0
0.374243 0 0
0.505104 0 0
0.686793 0 0
0.940215 0 0
1 0.000488289 0
1 0.00482185 0
1 0.000946059 0
1 0 0
1 0 0
1 0 0
1 0 0
1 0 0
1 0 0
1 0 0
1 0 0
1 0 0
1 0 0
0 0 0
0 0 0
0 0 0
0 0 0
0 0 0
0 0 0
0 0 0
0 0 0
0.00814832 0 0
0.0201572 0 0
0.0365759 0 0
0.0587015 0 0
0.0896315 0 0
0.131899 0 0
0.1906 0 0
0.270069 0 0
0.375067 0 0
0.50602 0 0
0.688014 0 0
0.941665 0.000274662 0
1 0.00578317 0
1 0.0103761 0
1 0.00593576 0
1 0 0
1 0 0
1 0 0
1 0 0
1 0 0
1 0 0
1 0 0
1 0 0
1 0 0
1 0 0
0 0 0
0 0 0
0 0 0
0 0 0
0 0 0
0 0 0
0 0 0
0.000122072 0 0
0.00895705 0 0
0.0209812 0 0
0.0374151 0 0
0.0595865 0 0
0.0903487 0 0
0.132891 0 0
0.191684 0 0
0.271199 0 0
0.376226 0 0
0.507164 0 0
0.689097 0.000854505 0
0.943099 0.00569162 0
1 0.0111849 0
1 0.0159304 0.00138857
1 0.0112612 0
1 0 0
1 0 0
1 0 0
1 0 0
1 0 0
1 0 0
1 0 0
1 0 0
1 0 0
1 0 0
0 0 0
0 0 0
0 0 0
0 0 0
0 0 0
0 0 0
0 0 0
0.000900282 0 0
0.00973526 0 0
0.0217899 0 0
0.0378882 0 0
0.0604562 0 0
0.0911116 0 0
0.133501 0 0
0.192386 0 0
0.272312 0 0
0.377386 0 0
0.508339 0.00251774 0
0.690394 0.00616464 0
0.944244 0.0108186 0
1 0.0167544 0
1 0.0211337 0.00285344
1 0.0166171 0
1 0 0
1 0 0
1 0 0
1 0 0
1 0 0
1 0 0
1 0 0
1 0 0
1 0 0
1 0 0
0 0 0
0 0 0
0 0 0
0 0 0
0 0 0
0 0 0
0 0 0
0.00183108 0 0
0.0105135 0 0
0.022385 0 0
0.0388952 0 0
0.0612039 0 0
0.0922103 0 0
0.134676 0 0
0.193668 0.00151064 0
0.273274 0.00315862 0
0.378424 0.00544747 0
0.509407 0.00833143 0
0.691615 0.0121614 0
0.945876 0.0173037 0
1 0.0231022 0.000274662
1 0.0278325 0.00500496
1 0.0226749 0
1 0 0
1 0 0
1 0 0
1 0 0
1 0 0
1 0 0
1 0 0
1 0 0
1 0 0
1 0 0
0 0.00109865 0
0 0.00137331 0
0 0.00164797 0
0 0.00190738 0
0 0.00213626 0
0 0.002121 0
0 0.00231937 0
0.00270085 0.00270085 0
0.0115969 0.00318914 0
0.0236973 0.00381476 0
0.0398718 0.00425727 0
0.0625315 0.00523384 0
0.0933089 0.00611887 0
0.136263 0.00772107 0
0.195117 0.00910964 0
0.275029 0.0111543 0
0.380255 0.0136416 0
0.511254 0.0167086 0
0.693645 0.0207675 0
0.947875 0.0258793 0
1 0.0320287 0.0030518
1 0.0364538 0.00747692
1 0.031281 0.00228885
1 0 0
1 0 0
1 0 0
1 0 0
1 0 0
1 0 0
1 0 0
1 0 0
1 0 0
1 0 0
0 0.0106813 0
0 0.0109865 0
0 0.0112612 0
0 0.0115511 0
0 0.0118105 0
0 0.0120699 0
0 0.0123751 0
0.00437934 0.0127871 0
0.0129244 0.0129244 0
0.0250706 0.0135958 0
0.0416724 0.014435 0
0.0640269 0.0151369 0
0.0952926 0.0165103 0
0.138003 0.0178683 0
0.197299 0.0196689 0
0.276997 0.0216068 0
0.382315 0.0243381 0
0.513375 0.0276799 0
0.69601 0.0319982 0
0.950698 0.0376745 0.000289921
1 0.0437629 0.00637827
1 0.0484627 0.0110781
1 0.0425574 0.00517281
1 0 0
1 0 0
1 0 0
1 0 0
1 0 0
1 0 0
1 0 0
1 0 0
1 0 0
1 0 0
0 0.0239109 0
0 0.0242313 0
0 0.0245212 0
0 0.0248112 0
0 0.0251164 0
0 0.025391 0
0 0.0257267 0
0.00627146 0.026154 0
0.0151522 0.0266423 0
0.0270542 0.0270542 0
0.0437324 0.027985 0
0.0665904 0.0291752 0
0.0975967 0.0302892 0
0.140475 0.0318151 0
0.199939 0.0337835 0
0.279759 0.0359808 0
0.385046 0.0390021 0
0.516304 0.0426795 0
0.699229 0.0473793 0
0.954223 0.0534066 0.00454719
1 0.0597391 0.0108797
1 0.0640574 0.015198
1 0.0577707 0.00891127
1 0.0125124 0
1 0 0
1 0 0
1 0 0
1 0 0
1 0 0
1 0 0
1 0 0
1 0 0
1 0 0
0 0.0421759 0
0 0.0425269 0
0 0.0428473 0
0 0.0431678 0
0 0.0434882 0
0 0.0437934 0
0.00236515 0.0441596 0
0.00900282 0.0446326 0
0.0177768 0.0449989 0
0.0299229 0.0456703 0
0.0467079 0.0467079 0
0.0692912 0.0476234 0
0.100847 0.0492866 0
0.143862 0.0509651 0
0.203601 0.0531777 0
0.283543 0.0557107 0
0.388571 0.0590677 0
0.520256 0.0631876 0
0.703578 0.0683604 0.00375372
0.958633 0.0744488 0.00984207
1 0.0814374 0.0168307
1 0.0855726 0.0209659
1 0.0778821 0.0132753
1 0.0292515 0
1 0 0
1 0 0
1 0 0
1 0 0
1 0 0
1 0 0
1 0 0
1 0 0
1 0 0
0 0.0675517 0
0 0.0679179 0
0 0.0682689 0
0 0.0684672 0
0 0.0685893 0
0.000946059 0.0689403 0
0.00588998 0.069337 0
0.0125582 0.0698558 0
0.0216526 0.0705425 0
0.0340124 0.0714122 0
0.0505074 0.0721599 0
0.0736095 0.0736095 0
0.104936 0.0750439 0
0.148226 0.0769818 0
0.208301 0.07953 0
0.288334 0.082414 0
0.393103 0.086244 0
0.525261 0.0908827 0.00459297
0.709041 0.0966049 0.0103304
0.964828 0.103578 0.0173037
1 0.110445 0.0241855
1 0.114275 0.0280003
1 0.105165 0.0188907
1 0.0513771 0
1 0 0
1 0 0
1 0 0
1 0 0
1 0 0
1 0 0
1 0 0
1 0 0
1 0 0
0 0.102358 0
0 0.102541 0
0 0.10277 0
0 0.103151 0
0.00192264 0.103532 0
0.00604257 0.103914 0
0.011017 0.104356 0
0.0177462 0.104936 0
0.0269017 0.105684 0
0.0391546 0.106462 0
0.0560006 0.107561 0
0.0793011 0.109194 0
0.110872 0.110872 0
0.154437 0.113085 0
0.214817 0.115969 0
0.294987 0.119326 0.00315862
0.399374 0.12369 0.0075227
0.532067 0.128954 0.0127871
0.716396 0.135332 0.0191653
0.97229 0.142473 0.0263066
1 0.149554 0.0333867
1 0.152758 0.0365911
1 0.141573 0.0254215
1 0.0803845 0
1 0 0
1 0 0
1 0 0
1 0 0
1 0 0
1 0 0
1 0 0
1 0 0
1 0 0
0 0.150607 0
0 0.151049 0
0.0009308 0.151263 0
0.00486763 0.151537 0
0.00898756 0.151965 0
0.0131533 0.152377 0
0.0181735 0.152865 0
0.024979 0.153506 0
0.0342107 0.154345 0
0.0464027 0.155047 0
0.0635691 0.156466 0
0.0870527 0.158297 0.00077821
0.118883 0.160235 0.00273136
0.162799 0.162799 0.00527962
0.223514 0.16611 0.00860609
0.303746 0.16997 0.0124514
0.407614 0.17499 0.0174563
0.540871 0.180972 0.0234073
0.725765 0.188083 0.0304723
0.982101 0.195773 0.038117
1 0.202838 0.0451362
1 0.204761 0.0470588
1 0.190112 0.0324865
1 0.118608 0
1 0 0
1 0 0
1 0 0
1 0 0
1 0 0
1 0 0
1 0 0
1 0 0
1 0 0
0.00296025 0.217945 0.00296025
0.00686656 0.21828 0.00331121
0.0107271 0.218524 0.00354009
0.0148623 0.218997 0.00402838
0.0190433 0.219455 0.00450141
0.0232548 0.219913 0.00495918
0.0283207 0.220462 0.00550851
0.0352026 0.221164 0.00622568
0.0445411 0.222095 0.00715648
0.0568551 0.222904 0.00799573
0.0741894 0.224475 0.00958267
0.0977798 0.226352 0.0115053
0.130007 0.228656 0.0138399
0.174304 0.231495 0.0167697
0.235157 0.235157 0.0205081
0.315465 0.239475 0.0249485
0.418448 0.244862 0.0305028
0.55201 0.25098 0.03682
0.737408 0.258381 0.04448
0.993942 0.26598 0.0523842
1 0.272145 0.0588235
1 0.271901 0.0585641
1 0.252674 0.0385595
1 0.169009 0
1 0.0122072 0
1 0 0
1 0 0
1 0 0
1 0 0
1 0 0
1 0 0
1 0 0
1 0 0
0.0167391 0.307774 0.0167391
0.0208438 0.308278 0.0172885
0.0250095 0.308782 0.0178225
0.0291905 0.30927 0.0183413
0.033402 0.309758 0.0188602
0.0375525 0.31014 0.0192721
0.0423896 0.31043 0.0195773
0.0493324 0.311162 0.0203555
0.0587778 0.312139 0.0213931
0.0716106 0.313405 0.0227512
0.088716 0.314672 0.0241093
0.112642 0.316793 0.0263676
0.145022 0.319112 0.0288548
0.189746 0.322164 0.0321202
0.250492 0.326055 0.0363012
0.330602 0.330602 0.0412146
0.432456 0.336294 0.047364
0.566552 0.342718 0.0543221
0.751934 0.349752 0.0619821
1 0.356619 0.0694896
1 0.360998 0.0742809
1 0.357153 0.0700694
1 0.32781 0.0381933
1 0.235355 0
1 0.0799878 0
1 0 0
1 0 0
1 0 0
1 0 0
1 0 0
1 0 0
1 0 0
1 0 0
0.0357366 0.422797 0.0357366
0.0398718 0.42327 0.0363165
0.0440681 0.423743 0.0368811
0.0482795 0.424216 0.0374456
0.0525368 0.424674 0.037995
0.0568246 0.425116 0.038529
0.0619669 0.425635 0.0391546
0.0686046 0.426017 0.0396124
0.0780957 0.426932 0.0407263
0.0910201 0.428138 0.0421607
0.108248 0.429358 0.0436408
0.132311 0.431342 0.0460365
0.164889 0.433585 0.0487221
0.209903 0.436484 0.0522164
0.270039 0.440131 0.0566262
0.349554 0.444404 0.0617533
0.449622 0.449622 0.06804
0.583444 0.455131 0.0746777
0.76849 0.461143 0.0819104
1 0.46598 0.0877546
1 0.466728 0.0886549
1 0.457343 0.077348
1 0.414511 0.0257725
1 0.320745 0
1 0.172595 0
1 0 0
1 0 0
1 0 0
1 0 0
1 0 0
1 0 0
1 0 0
1 0 0
0.059266 0.570657 0.059266
0.0634165 0.571145 0.0598459
0.0675975 0.571618 0.0604105
0.0718242 0.572076 0.0609751
0.0760815 0.572534 0.0615396
0.0803693 0.572992 0.0620737
0.0854658 0.573465 0.0626535
0.0921645 0.573907 0.0631876
0.101671 0.574823 0.0642863
0.11458 0.576013 0.0657206
0.131945 0.577371 0.0673381
0.15581 0.579187 0.0695354
0.188403 0.581338 0.0721447
0.232883 0.584161 0.0755169
0.292058 0.587655 0.0797284
0.370199 0.591546 0.0844129
0.467552 0.59588 0.0896315
0.600595 0.600595 0.0953231
0.783413 0.604379 0.0998856
1 0.605905 0.101701
1 0.600839 0.095613
1 0.574975 0.0644541
1 0.51812 0
1 0.429694 0
1 0.296544 0
1 0.085771 0
1 0 0
1 0 0
1 0 0
1 0 0
1 0 0
1 0 0
1 0 0
0.0809339 0.767681 0.0809339
0.085008 0.768093 0.0814374
0.089128 0.768521 0.0819409
0.0932784 0.768917 0.0824292
0.0974594 0.769329 0.0829175
0.101472 0.769543 0.0831769
0.106432 0.769894 0.0836042
0.113313 0.770504 0.0843366
0.122667 0.771298 0.0852827
0.135378 0.77232 0.0865187
0.152346 0.773327 0.0877394
0.175982 0.774945 0.0896925
0.208103 0.776654 0.0917372
0.251148 0.77879 0.094316
0.308461 0.781125 0.0971389
0.384421 0.783719 0.100267
0.479103 0.78645 0.103548
0.609033 0.788052 0.105486
0.78706 0.78706 0.10428
1 0.778042 0.0934157
1 0.756588 0.0675822
1 0.71722 0.0201724
1 0.656687 0
1 0.571725 0
1 0.449424 0
1 0.261769 0
1 0 0
1 0 0
1 0 0
1 0 0
1 0 0
1 0 0
1 0 0
0.0768749 1 0.0768749
0.080705 1 0.0771344
0.0845502 1 0.0773785
0.0882429 1 0.0773938
0.0921035 1 0.0775616
0.0960555 1 0.07776
0.100816 1 0.0779889
0.107256 1 0.0782788
0.115984 1 0.0786145
0.127611 1 0.0787518
0.143755 1 0.0791485
0.16556 1 0.0792859
0.195743 1 0.0794385
0.2365 1 0.0792401
0.290791 1 0.0784009
0.362768 1 0.0762188
0.45272 1 0.0717784
0.574594 1 0.0640116
0.742351 0.992325 0.0504311
0.97406 0.97406 0.0284428
1 0.946349 0
1 0.907286 0
1 0.850172 0
1 0.76733 0
1 0.647883 0
1 0.476539 0
1 0.211353 0
1 0 0
1 0 0
1 0 0
1 0 0
1 0 0
1 0 0
0 1 0
0 1 0
0 1 0
0 1 0
0 1 0
0 1 0
0.00299077 1 0
0.00894179 1 0
0.0172427 1 0
0.0285344 1 0
0.0437781 1 0
0.0648966 1 0
0.0937362 1 0
0.133501 1 0
0.188327 1 0
0.262943 1 0
0.361349 1 0
0.484459 1 0
0.65214 1 0
0.885267 1 0
1 1 0
1 1 0
1 1 0
1 1 0
1 0.921309 0
1 0.753994 0
1 0.51397 0
1 0.13817 0
1 0 0
1 0 0
1 0 0
1 0 0
1 0 0
0 1 0
0 1 0
0 1 0
0 1 0
0 1 0
0 1 0
0 1 0
0 1 0
0 1 0
0 1 0
0 1 0
0 1 0
0 1 0
0 1 0
0.0337682 1 0
0.110246 1 0
0.21619 1 0
0.355352 1 0
0.526406 1 0
0.760815 1 0
1 1 0
1 1 0
1 1 0
1 1 0
1 1 0
1 1 0
1 0.902022 0
1 0.565835 0
1 0.0352789 0
1 0 0
1 0 0
1 0 0
1 0 0
0 1 0
0 1 0
0 1 0
0 1 0
0 1 0
0 1 0
0 1 0
0 1 0
0 1 0
0 1 0
0 1 0
0 1 0
0 1 0
0 1 0
0 1 0
0 1 0
0.000335698 1 0
0.147875 1 0
0.346029 1 0
0.584924 1 0
0.912505 1 0
1 1 0
1 1 0
1 1 0
1 1 0
1 1 0
1 1 0
1 1 0
1 0.637873 0
1 0 0
1 0 0
1 0 0
1 0 0
0 1 0
0 1 0
0 1 0
0 1 0
0 1 0
0 1 0
0 1 0
0 1 0
0 1 0
0 1 0
0 1 0
0 1 0
0 1 0
0 1 0
0 1 0
0 1 0
0 1 0
0 1 0
0.0519112 1 0
0.332372 1 0
0.666362 1 0
1 1 0
1 1 0
1 1 0
1 1 0
1 1 0
1 1 0
1 1 0
1 1 0
1 0.738109 0
1 0 0
1 0 0
1 0 0
0 1 0
0 1 0
0 1 0
0 1 0
0 1 0
0 1 0
0 1 0
0 1 0
0 1 0
0 1 0
0 1 0
0 1 0
0 1 0
0 1 0
0 1 0
0 1 0
0 1 0
0 1 0
0 1 0
0 1 0
0.31252 1 0
0.779873 1 0
1 1 0
1 1 0
1 1 0
1 1 0
1 1 0
1 1 0
1 1 0
1 1 0
1 0.877836 0
1 0 0
1 0 0
0 1 0
0 1 0
0 1 0
0 1 0
0 1 0
0 1 0
0 1 0
0 1 0
0 1 0
0 1 0
0 1 0
0 1 0
0 1 0
0 1 0
0 1 0
0 1 0
0 1 0
0 1 0
0 1 0
0 1 0
0 1 0
0.283787 1 0
0.938247 1 0
1 1 0
1 1 0
1 1 0
1 1 0
1 1 0
1 1 0
1 1 0
1 1 0
1 1 0
1 0 0
0 1 0
0 1 0
0 1 0
0 1 0
0 1 0
0 1 0
0 1 0
0 1 0
0 1 0
0 1 0
0 1 0
0 1 0
0 1 0
0 1 0
0 1 0
0 1 0
0 1 0
0 1 0
0 1 0
0 1 0
0 1 0
0 1 0
0.242191 1 0
1 1 0
1 1 0
1 1 0
1 1 0
1 1 0
1 1 0
1 1 0
1 1 0
1 1 0
1 1 0
0 1 0
0 1 0
0 1 0
0 1 0
0 1 0
0 1 0
0 1 0
0 1 0
0 1 0
