Assets/HMP LUTs/LUTs/HMPLUTs_Quica.cube
TITLE "Generated by Resolve"
LUT_3D_SIZE 33
0.00190738 0 0.0080415
0.00791943 0 0.00759899
0.0139315 0 0.00714122
0.0199435 0 0.00669871
0.0259556 0 0.0062562
0.0319829 0 0.00579843
0.0391852 0 0.00526436
0.0488594 0 0.00453193
0.0613718 0 0.00369268
0.0786603 0 0.00244144
0.102068 0 0.000686656
0.133852 0 0
0.177127 0 0
0.235691 0 0
0.31429 0 0
0.417563 0 0
0.546181 0 0
0.691554 0 0
0.852628 0 0
1 0 0
1 0 0
1 0 0
1 0 0.0411078
1 0.116487 0.176486
1 0.349767 0.409781
1 0.664134 0.724132
1 1 1
1 1 1
1 1 1
1 1 1
1 1 1
1 1 1
1 1 1
0.000839246 0 0.00697337
0.0068513 0 0.00653086
0.0128634 0 0.00607309
0.0188754 0 0.00563058
0.0248875 0 0.00517281
0.0309148 0 0.0047303
0.038117 0 0.00419623
0.0477913 0 0.0034638
0.0603037 0 0.00262455
0.0775921 0 0.00137331
0.100999 0 0
0.132784 0 0
0.176059 0 0
0.234409 0 0
0.313451 0 0
0.416464 0 0
0.545174 0 0
0.690547 0 0
0.851392 0 0
1 0 0
1 0 0
1 0 0
1 0 0.041413
1 0.124285 0.178439
1 0.357397 0.411566
1 0.671763 0.725917
1 1 1
1 1 1
1 1 1
1 1 1
1 1 1
1 1 1
1 1 1
0 0 0.00590524
0.00578317 0 0.00546273
0.0117952 0 0.00500496
0.0178073 0 0.00456245
0.0238193 0 0.00410468
0.0298466 0 0.00366217
0.0370489 0 0.0031281
0.0467231 0 0.00239567
0.0592203 0 0.00155642
0.076524 0 0.000289921
0.0999313 0 0
0.131716 0 0
0.17499 0 0
0.233371 0 0
0.312413 0 0
0.415488 0 0
0.544076 0 0
0.689342 0 0
0.850324 0 0
1 0 0
1 0 0
1 0 0
1 0 0.0415198
1 0.131731 0.180056
1 0.365026 0.413352
1 0.679393 0.727703
1 1 1
1 1 1
1 1 1
1 1 1
1 1 1
1 1 1
1 1 1
0 0 0.00483711
0.00471504 0 0.00437934
0.0107271 0 0.00393683
0.0167391 0 0.00349432
0.0227512 0 0.00303655
0.0287785 0 0.00259403
0.0359808 0 0.00204471
0.045655 0 0.00132753
0.0581521 0 0.000488289
0.0754559 0 0
0.0988632 0 0
0.130648 0 0
0.173922 0 0
0.232532 0 0
0.311559 0 0
0.41445 0 0
0.542931 0 0
0.688319 0 0
0.849088 0 0
1 0 0
1 0 0
1 0 0
1 0 0.0419318
1 0.139574 0.18204
1 0.372656 0.415137
1 0.687022 0.729488
1 1 1
1 1 1
1 1 1
1 1 1
1 1 1
1 1 1
1 1 1
0 0 0.00376898
0.00364691 0 0.00331121
0.00965896 0 0.0028687
0.015671 0 0.00241093
0.0216831 0 0.00196841
0.0276951 0 0.0015259
0.0349126 0 0.000976577
0.0445869 0 0.000259403
0.057084 0 0
0.0743877 0 0
0.0977951 0 0
0.12958 0 0
0.172686 0 0
0.231495 0 0
0.310506 0 0
0.413336 0 0
0.541939 0 0
0.687099 0 0
0.84802 0 0
1 0 0
1 0 0
1 0 0
1 0.00547799 0.0420996
1 0.147051 0.183688
1 0.380285 0.416907
1 0.694636 0.731273
1 1 1
1 1 1
1 1 1
1 1 1
1 1 1
1 1 1
1 1 1
0 0 0.00270085
0.00257877 0 0.00224308
0.00859083 0 0.00180056
0.0146029 0 0.00134279
0.0206149 0 0.000900282
0.026627 0 0.000442512
0.0338293 0 0
0.0435187 0 0
0.0560159 0 0
0.0733043 0 0
0.0967269 0 0
0.128511 0 0
0.171649 0 0
0.23061 0 0
0.309621 0 0
0.412406 0 0
0.54078 0 0
0.686076 0 0
0.846754 0 0
1 0 0
1 0 0
1 0 0
1 0.0117952 0.0425727
1 0.154925 0.185687
1 0.38793 0.418692
1 0.702281 0.733059
1 1 1
1 1 1
1 1 1
1 1 1
1 1 1
1 1 1
1 1 1
0 0 0.00140383
0.00129702 0 0.000961318
0.00730907 0 0.000518807
0.0133211 0 6.10361e-05
0.0193332 0 0
0.0253452 0 0
0.0325475 0 0
0.042237 0 0
0.0547341 0 0
0.0720226 0 0
0.0954299 0 0
0.127031 0 0
0.170459 0 0
0.22945 0 0
0.308339 0 0
0.411109 0 0
0.53959 0 0
0.684657 0 0
0.845472 0 0
1 0 0
1 0 0
1 0 0
1 0.019089 0.0428626
1 0.163973 0.187732
1 0.39707 0.420844
1 0.711421 0.735195
1 1 1
1 1 1
1 1 1
1 1 1
1 1 1
1 1 1
1 1 1
0 0 0
0 0 0
0.0055848 0 0
0.0115969 0 0
0.0176089 0 0
0.023621 0 0
0.0308385 0 0
0.0405127 0 0
0.0530098 0 0
0.0702831 0 0
0.093492 0 0
0.125536 0 0
0.169055 0 0
0.227863 0 0
0.306676 0 0
0.409491 0 0
0.53782 0 0
0.682795 0 0
0.843565 0 0
1 0 0
1 0 0
1 0 0
1 0.0290684 0.0434272
1 0.176257 0.190616
1 0.409354 0.423713
1 0.723705 0.738064
1 1 1
1 1 1
1 1 1
1 1 1
1 1 1
1 1 1
1 1 1
0 0 0
0 0 0
0.00360113 0 0
0.00961318 0 0
0.0156252 0 0
0.0216373 0 0
0.0285039 0 0
0.0382849 0 0
0.0507362 0 0
0.0682383 0 0
0.0917067 0 0
0.123751 0 0
0.167193 0 0
0.226062 0 0
0.304829 0 0
0.407431 0 0
0.535775 0 0
0.680659 0 0
0.841398 0 0
1 0 0
1 0 0
1 0 0
1 0.0426642 0.0448463
1 0.192782 0.194965
1 0.425696 0.427893
1 0.740063 0.742245
1 1 1
1 1 1
1 1 1
1 1 1
1 1 1
1 1 1
1 1 1
0 0.00910964 0
0 0.00869764 0
0.000320439 0.00831617 0
0.00639353 0.00793469 0
0.0124819 0.00755322 0
0.0185702 0.00717174 0
0.0256962 0.00656138 0
0.0354467 0.00590524 0
0.0480964 0.00521859 0
0.0653849 0.00395209 0
0.0890516 0.00247196 0
0.120958 0.00015259 0
0.164416 0 0
0.223011 0 0
0.301808 0 0
0.404395 0 0
0.532418 0 0
0.677241 0 0
0.837903 0 0
1 0 0
1 0 0
1 0.0040589 0
1 0.0614786 0.0466926
1 0.21532 0.200534
1 0.447837 0.433051
1 0.762203 0.747402
1 1 1
1 1 1
1 1 1
1 1 1
1 1 1
1 1 1
1 1 1
0 0.0282139 0
0 0.0278325 0
0 0.027451 0
0.00263981 0.0270695 0
0.0087129 0.0266728 0
0.014786 0.026276 0
0.0218967 0.0256352 0
0.0316625 0.0250095 0
0.0442817 0.0242924 0
0.0615396 0.0229953 0
0.0851453 0.0214389 0
0.116976 0.0190433 0
0.160372 0.0157321 0
0.218906 0.0109712 0
0.297459 0.00460822 0
0.400031 0 0
0.527947 0 0
0.672679 0 0
0.83328 0 0
1 0 0
1 0.0031281 0
1 0.0247044 0
1 0.0869306 0.0492561
1 0.245365 0.207691
1 0.477592 0.439918
1 0.791943 0.754284
1 1 1
1 1 1
1 1 1
1 1 1
1 1 1
1 1 1
1 1 1
0 0.0539101 0
0 0.0534066 0
0 0.0529183 0
0 0.0525063 0
0.00320439 0.0521096 0
0.00927749 0.0516976 0
0.0165408 0.0512093 0
0.0260929 0.05037 0
0.0386969 0.0496376 0
0.0561074 0.0484932 0
0.0794842 0.0467079 0
0.111254 0.0442512 0
0.154543 0.0408331 0
0.213169 0.0361639 0
0.2916 0.0296941 0
0.393851 0.0216373 0
0.52163 0.0131838 0
0.666407 0.00917067 0
0.826902 0.0125429 0
1 0.0184634 0
1 0.0289616 0
1 0.053315 0
1 0.122026 0.0534218
1 0.285557 0.216953
1 0.517601 0.448997
1 0.831952 0.763348
1 1 1
1 1 1
1 1 1
1 1 1
1 1 1
1 1 1
1 1 1
0 0.0878767 0
0 0.0874495 0
0 0.0870375 0
0 0.0865339 0
0 0.0860151 0
0.00128176 0.0855879 0
0.00851453 0.0850843 0
0.0182345 0.0843977 0
0.0306096 0.0834363 0
0.0479744 0.0822461 0
0.0713054 0.080415 0
0.103197 0.0780804 0
0.146242 0.0744182 0
0.204715 0.0695964 0
0.28304 0.0630045 0
0.385153 0.0548104 0
0.512993 0.0464332 0
0.657542 0.0422065 0
0.818372 0.0458991 0
1 0.0522011 0
1 0.0643015 0
1 0.092546 0
1 0.170703 0.0601968
1 0.339223 0.228733
1 0.57142 0.460929
1 0.885786 0.77528
1 1 1
1 1 1
1 1 1
1 1 1
1 1 1
1 1 1
1 1 1
0 0.132998 0
0 0.13257 0
0 0.132128 0
0 0.13167 0
0 0.131075 0
0 0.130648 0
0 0.130129 0
0.00701915 0.129412 0
0.0193637 0.12842 0
0.0366827 0.127184 0
0.0599832 0.125322 0
0.0917678 0.122881 0
0.134798 0.119203 0
0.193118 0.114244 0
0.271336 0.107546 0
0.373419 0.0993057 0
0.501167 0.090837 0
0.645823 0.086717 0
0.80705 0.0908217 0
1 0.0981918 0
1 0.112917 0
1 0.147463 0
1 0.238514 0.0717937
1 0.410254 0.243534
1 0.643687 0.476967
1 0.958038 0.791318
1 1 1
1 1 1
1 1 1
1 1 1
1 1 1
1 1 1
1 1 1
0 0.192721 0
0 0.192279 0
0 0.191821 0
0 0.191379 0
0 0.190921 0
0 0.190478 0
0 0.189776 0
0 0.189029 0
0.00433356 0.18819 0
0.0214542 0.186755 0
0.0448615 0.185 0
0.076463 0.182376 0
0.119539 0.178759 0
0.177722 0.173648 0
0.256001 0.16701 0
0.35816 0.158846 0
0.485939 0.150408 0
0.631006 0.1467 0
0.79321 0.151781 0
1 0.161257 0
1 0.18056 0
1 0.22591 0
1 0.333272 0.0917525
1 0.506401 0.264881
1 0.74052 0.499001
1 1 0.813352
1 1 1
1 1 1
1 1 1
1 1 1
1 1 1
1 1 1
1 1 1
0 0.271595 0
0 0.271031 0
0 0.270588 0
0 0.27013 0
0 0.269688 0
0 0.26923 0
0 0.268635 0
0 0.267796 0
0 0.266972 0
0.00358587 0.265553 0
0.0269932 0.263798 0
0.0586252 0.261204 0
0.101762 0.257633 0
0.160098 0.252674 0
0.238621 0.246281 0
0.340993 0.238346 0
0.469368 0.230503 0
0.615747 0.228107 0
0.779843 0.23508 0
1 0.248737 0
1 0.276463 0
1 0.339422 0.00123598
1 0.462699 0.124514
1 0.63534 0.297154
1 0.869459 0.531273
1 1 0.845624
1 1 1
1 1 1
1 1 1
1 1 1
1 1 1
1 1 1
1 1 1
0 0.373251 0
0 0.372656 0
0 0.372229 0
0 0.371817 0
0 0.371405 0
0 0.370993 0
0 0.370489 0
0 0.369635 0
0 0.368872 0
0 0.367636 0
0.0175631 0.365942 0
0.0494087 0.363561 0
0.0928511 0.360296 0
0.151675 0.35584 0
0.230793 0.350027 0
0.334173 0.343099 0
0.464164 0.336873 0
0.61323 0.337148 0
0.781979 0.348775 0
1 0.371176 0
1 0.415579 0
1 0.500328 0.0505684
1 0.629938 0.180179
1 0.803281 0.353521
1 1 0.58764
1 1 0.902007
1 1 1
1 1 1
1 1 1
1 1 1
1 1 1
1 1 1
1 1 1
0 0.514214 0
0 0.513756 0
0 0.513451 0
0 0.513146 0
0 0.51284 0
0 0.512535 0
0 0.512123 0
0 0.511482 0
0 0.510948 0
0 0.509972 0
0.0173037 0.508797 0
0.0497749 0.507057 0
0.0941329 0.504692 0
0.154131 0.501396 0
0.235187 0.497536 0
0.341253 0.493294 0
0.475425 0.491249 0
0.631296 0.498344 0
0.811322 0.521248 0
1 0.561166 0
1 0.626993 0.0341039
1 0.724773 0.131899
1 0.852537 0.259648
1 1 0.434012
1 1 0.668132
1 1 0.982483
1 1 1
1 1 1
1 1 1
1 1 1
1 1 1
1 1 1
1 1 1
0 0.756573 0
0 0.756588 0
0 0.756619 0
0 0.756405 0
0 0.756405 0
0 0.756436 0
0 0.756497 0
0 0.756573 0
0 0.756619 0
0 0.756817 0
0 0.756878 0
0.0182498 0.757198 0
0.0648814 0.757122 0
0.128725 0.757671 0
0.214588 0.758618 0
0.327642 0.761364 0
0.471656 0.769162 0
0.639979 0.788693 0
0.835492 0.827085 0
1 0.881468 0.00691234
1 0.95169 0.0771344
1 1 0.173846
1 1 0.3037
1 1 0.478065
1 1 0.712169
1 1 1
1 1 1
1 1 1
1 1 1
1 1 1
1 1 1
1 1 1
1 1 1
0 1 0
0 1 0
0 1 0
0 1 0
0 1 0
0 1 0
0 1 0
0 1 0
0 1 0
0 1 0
0.00730907 1 0
0.0439307 1 0
0.0933394 1 0
0.159854 1 0
0.249317 1 0
0.366125 1 0
0.513329 1 0
0.683513 1 0
0.880201 1 0
1 1 0.0509041
1 1 0.122927
1 1 0.219638
1 1 0.349493
1 1 0.523857
1 1 0.757977
1 1 1
1 1 1
1 1 1
1 1 1
1 1 1
1 1 1
1 1 1
1 1 1
0 1 0
0 1 0
0 1 0
0 1 0
0 1 0
0 1 0
0 1 0
0.00550851 1 0
0.0198367 1 0
0.0395972 1 0
0.0663157 1 0
0.102541 1 0
0.151766 1 0
0.218326 1 0
0.307637 1 0
0.424643 1 0
0.572381 1 0
0.743877 1 0.0180514
0.940581 1 0.0576181
1 1 0.111284
1 1 0.183307
1 1 0.280018
1 1 0.409873
1 1 0.584222
1 1 0.818341
1 1 1
1 1 1
1 1 1
1 1 1
1 1 1
1 1 1
1 1 1
1 1 1
0.03299 1 0.0391241
0.0398566 1 0.0395209
0.0467231 1 0.0399329
0.0535744 1 0.0403296
0.060441 1 0.0407263
0.0673075 1 0.0411231
0.0755322 1 0.0416114
0.0865644 1 0.0422522
0.100908 1 0.0432441
0.120668 1 0.0444343
0.147372 1 0.0459907
0.183597 1 0.0479896
0.232837 1 0.0505226
0.299382 1 0.0537881
0.388708 1 0.0581826
0.505699 1 0.0648814
0.653452 1 0.0763867
0.824948 1 0.0991073
1 1 0.138689
1 1 0.19234
1 1 0.264363
1 1 0.361074
1 1 0.490929
1 1 0.665293
1 1 0.899413
1 1 1
1 1 1
1 1 1
1 1 1
1 1 1
1 1 1
1 1 1
1 1 1
0.141848 1 0.147982
0.148699 1 0.148379
0.155566 1 0.148775
0.162432 1 0.149172
0.169284 1 0.149569
0.17615 1 0.149981
0.184375 1 0.150454
0.195422 1 0.151095
0.209751 1 0.152087
0.229511 1 0.153292
0.256229 1 0.154849
0.292454 1 0.156847
0.34168 1 0.159365
0.40824 1 0.162631
0.497551 1 0.167025
0.614557 1 0.173724
0.762295 1 0.185245
0.933791 1 0.207965
1 1 0.247532
1 1 0.301198
1 1 0.37322
1 1 0.469932
1 1 0.599786
1 1 0.774136
1 1 1
1 1 1
1 1 1
1 1 1
1 1 1
1 1 1
1 1 1
1 1 1
1 1 1
0.287999 1 0.294133
0.294865 1 0.29453
0.301717 1 0.294926
0.308583 1 0.295323
0.315435 1 0.295735
0.322316 1 0.296132
0.330541 1 0.296605
0.341573 1 0.297246
0.355917 1 0.298253
0.375662 1 0.299443
0.40238 1 0.300999
0.438605 1 0.302998
0.487846 1 0.305516
0.554391 1 0.308782
0.643702 1 0.313191
0.760708 1 0.319875
0.908446 1 0.331395
1 1 0.354116
1 1 0.393698
1 1 0.447349
1 1 0.519371
1 1 0.616083
1 1 0.745937
1 1 0.920302
1 1 1
1 1 1
1 1 1
1 1 1
1 1 1
1 1 1
1 1 1
1 1 1
1 1 1
0.484245 1 0.490379
0.491112 1 0.490776
0.497963 1 0.491173
0.504829 1 0.491585
0.511681 1 0.491981
0.518563 1 0.492378
0.526787 1 0.492851
0.53782 1 0.493492
0.552163 1 0.494499
0.571923 1 0.495689
0.598627 1 0.497246
0.634852 1 0.499245
0.684092 1 0.501762
0.750637 1 0.505028
0.839948 1 0.509438
0.956954 1 0.516121
1 1 0.527642
1 1 0.550362
1 1 0.589944
1 1 0.643595
1 1 0.715618
1 1 0.812329
1 1 0.942184
1 1 1
1 1 1
1 1 1
1 1 1
1 1 1
1 1 1
1 1 1
1 1 1
1 1 1
1 1 1
0.747753 1 0.753887
0.75462 1 0.754284
0.761471 1 0.754681
0.768338 1 0.755077
0.775189 1 0.755489
0.782071 1 0.755886
0.790295 1 0.756359
0.801328 1 0.757
0.815671 1 0.757992
0.835416 1 0.759197
0.862135 1 0.760754
0.89836 1 0.762753
0.947585 1 0.76527
1 1 0.768536
1 1 0.772946
1 1 0.779629
1 1 0.79115
1 1 0.81387
1 1 0.853437
1 1 0.907103
1 1 0.979126
1 1 1
1 1 1
1 1 1
1 1 1
1 1 1
1 1 1
1 1 1
1 1 1
1 1 1
1 1 1
1 1 1
1 1 1
1 1 1
1 1 1
1 1 1
1 1 1
1 1 1
1 1 1
1 1 1
1 1 1
1 1 1
1 1 1
1 1 1
1 1 1
1 1 1
1 1 1
1 1 1
1 1 1
1 1 1
1 1 1
1 1 1
1 1 1
1 1 1
1 1 1
1 1 1
1 1 1
1 1 1
1 1 1
1 1 1
1 1 1
1 1 1
1 1 1
1 1 1
1 1 1
1 1 1
1 1 1
1 1 1
1 1 1
1 1 1
1 1 1
1 1 1
1 1 1
1 1 1
1 1 1
