Assets/HMP LUTs/LUTs/HMPLUTs_Ozzy.cube
TITLE "Generated by Resolve"
LUT_3D_SIZE 33
0 0 0
0 0 0
0 0 0
0 0 0
0.00257877 0 0
0.00943008 0 0
0.0173648 0 0
0.027924 0 0
0.0422065 0 0
0.0611582 0 0
0.0861982 0 0
0.120211 0 0
0.166461 0 0
0.230686 0 0
0.328878 0 0
0.509285 0 0
0.63801 0 0
0.760952 0 0
0.909422 0 0
1 0 0
1 0 0
1 0 0
1 0.0758526 0.0784619
1 0.213993 0.216602
1 0.399786 0.402396
1 0.650431 0.65304
1 0.986969 0.989578
1 1 1
1 1 1
1 1 1
1 1 1
1 1 1
1 1 1
0 0 0
0 0 0
0 0 0
0 0 0
0.00366217 0 0
0.0104982 0 0
0.0184482 0 0
0.0290074 0 0
0.0432746 0 0
0.0620127 0 0
0.0873274 0 0
0.12134 0 0
0.16759 0 0
0.231968 0 0
0.330098 0 0
0.510277 0 0
0.639139 0 0
0.762051 0 0
0.910369 0 0
1 0 0
1 0 0
1 0 0
1 0.0817121 0.0815747
1 0.220066 0.219913
1 0.405707 0.40557
1 0.656352 0.656214
1 0.992889 0.992752
1 1 1
1 1 1
1 1 1
1 1 1
1 1 1
1 1 1
0 0 0
0 0 0
0 0 0
0 0 0
0.00474556 0 0
0.0115816 0 0
0.0195315 0 0
0.0297398 0 0
0.0441749 0 0
0.0631571 0 0
0.0886549 0 0
0.122667 0 0
0.168902 0 0
0.233036 0 0
0.331151 0 0
0.511437 0 0
0.640085 0 0
0.762966 0 0
0.911482 0 0
1 0 0
1 0 0
1 0.0016022 0
1 0.0873426 0.0844587
1 0.226062 0.223178
1 0.411627 0.408743
1 0.662272 0.659373
1 0.99881 0.995926
1 1 1
1 1 1
1 1 1
1 1 1
1 1 1
1 1 1
0 0.00135805 0
0 0.000762951 0
0 0.00015259 0
0 0 0
0.00576791 0 0
0.0124208 0 0
0.0204623 0 0
0.0310216 0 0
0.0453651 0 0
0.0645304 0 0
0.0898451 0 0
0.123857 0 0
0.170062 0 0
0.234333 0 0
0.332418 0 0
0.512474 0 0
0.64123 0 0
0.764126 0 0
0.912505 0 0
1 0 0
1 0 0
1 0.00689708 0.00135805
1 0.0931716 0.0876326
1 0.231998 0.226444
1 0.417517 0.411963
1 0.668162 0.662608
1 1 0.999161
1 1 1
1 1 1
1 1 1
1 1 1
1 1 1
1 1 1
0 0.00518807 0
0 0.00425727 0
0 0.0037232 0
0.000442512 0.00325017 0
0.00679026 0.00277714 0
0.0135195 0.00195315 0
0.021561 0.00128176 0
0.0322271 0.000396735 0
0.0466621 0 0
0.0656291 0 0
0.0910658 0 0
0.125139 0 0
0.171298 0 0
0.23534 0 0
0.33341 0 0
0.513542 0 0
0.642176 0 0
0.765026 0 0
0.913603 0 0
1 0 0
1 0 0
1 0.0120089 0.00366217
1 0.0988022 0.0904555
1 0.237827 0.22948
1 0.423453 0.415106
1 0.674098 0.665751
1 1 1
1 1 1
1 1 1
1 1 1
1 1 1
1 1 1
1 1 1
0 0.00895705 0
0 0.00834669 0
0 0.00770581 0
0.00134279 0.00723278 0
0.00769055 0.00675975 0
0.0146029 0.00613413 0
0.0226444 0.00546273 0
0.0331121 0.00437934 0
0.0475471 0.00317388 0
0.0667124 0.0016022 0
0.0920272 0 0
0.125994 0 0
0.172122 0 0
0.236332 0 0
0.334356 0 0
0.514321 0 0
0.642893 0 0
0.765881 0 0
0.914321 0 0
1 0 0
1 0 0
1 0.0174868 0.00604257
1 0.104829 0.0933852
1 0.244068 0.232624
1 0.42948 0.418036
1 0.680125 0.668681
1 1 1
1 1 1
1 1 1
1 1 1
1 1 1
1 1 1
1 1 1
0 0.0137179 0
0 0.0131991 0
0 0.012665 0
0.00270085 0.0121614 0
0.00888075 0.0115358 0
0.0158083 0.0109102 0
0.0238346 0.0102235 0
0.0345159 0.00933852 0
0.0487526 0.00793469 0
0.0679026 0.00636301 0
0.0932021 0.00410468 0
0.127321 0.00128176 0
0.173297 0 0
0.2374 0 0
0.335378 0 0
0.515328 0 0
0.644007 0 0
0.766827 0 0
0.915496 0 0
1 0 0
1 0 0
1 0.023743 0.00872816
1 0.111711 0.0966964
1 0.251179 0.236164
1 0.436652 0.421637
1 0.687297 0.672282
1 1 1
1 1 1
1 1 1
1 1 1
1 1 1
1 1 1
1 1 1
0 0.0201724 0.000442512
0 0.0196384 0
0 0.0191196 0
0.00445563 0.0186313 0
0.0107271 0.0180819 0
0.0175326 0.0173495 0
0.0255589 0.0166781 0
0.0362249 0.0157778 0
0.0506294 0.0145418 0
0.0695964 0.0127718 0
0.0950332 0.0106508 0
0.128923 0.00759899 0
0.174975 0.00340276 0
0.238956 0 0
0.336858 0 0
0.516945 0 0
0.645396 0 0
0.768215 0 0
0.916945 0 0
1 0 0
1 0 0
1 0.0322423 0.0125124
1 0.121035 0.101305
1 0.260807 0.241077
1 0.446265 0.426535
1 0.69691 0.67718
1 1 1
1 1 1
1 1 1
1 1 1
1 1 1
1 1 1
1 1 1
0 0.0288701 0.00285344
0 0.028336 0.00233463
0.000488289 0.0278172 0.00180056
0.00677501 0.0272374 0.00122072
0.0130159 0.0266575 0.000640879
0.019913 0.0260166 0
0.0279393 0.02533 0
0.0385748 0.0244144 0
0.052903 0.0230869 0
0.0718853 0.0213321 0
0.0970932 0.0189975 0
0.131151 0.0161135 0
0.17702 0.0117189 0
0.241077 0.00538643 0
0.338933 0 0
0.518761 0 0
0.647364 0 0
0.770184 0 0
0.919051 0 0
1 0 0
1 0 0
1 0.0437781 0.0177615
1 0.133715 0.107698
1 0.273808 0.247791
1 0.459159 0.433143
1 0.709804 0.683787
1 1 1
1 1 1
1 1 1
1 1 1
1 1 1
1 1 1
1 1 1
0 0.0404212 0.00621042
0 0.0397192 0.00550851
0.00364691 0.0391699 0.00495918
0.00999466 0.0386664 0.00445563
0.0163272 0.0381628 0.00395209
0.023209 0.0375219 0.00329595
0.0311894 0.0367895 0.00256352
0.0416571 0.0356909 0.00148013
0.0560159 0.0344091 0.000198367
0.0749828 0.032639 0
0.100298 0.030396 0
0.134127 0.0272984 0
0.180087 0.0229953 0
0.244007 0.0165103 0
0.341894 0.00460822 0
0.52166 0 0
0.650034 0 0
0.773037 0 0
0.921996 0 0
1 0 0
1 0.00724804 0
1 0.0594492 0.0252232
1 0.150851 0.11664
1 0.291249 0.257038
1 0.476402 0.442191
1 0.727047 0.692836
1 1 1
1 1 1
1 1 1
1 1 1
1 1 1
1 1 1
1 1 1
0 0.0553902 0.0105592
0.00161746 0.0548257 0.00999466
0.00813306 0.0542611 0.00944533
0.0144808 0.0537575 0.00892653
0.020798 0.053254 0.00842298
0.0276799 0.0525978 0.00776684
0.0354925 0.0516976 0.00688182
0.0460975 0.0507515 0.0059205
0.060441 0.0494392 0.00462348
0.0793927 0.0476692 0.00283818
0.104631 0.0453498 0.000518807
0.138399 0.0421759 0
0.184298 0.0378271 0
0.248203 0.0313268 0
0.345861 0.0191958 0
0.525673 0 0
0.654047 0 0
0.777188 0 0
0.926436 0 0
1 0.000747692 0
1 0.0256046 0
1 0.0801404 0.0353094
1 0.173617 0.128801
1 0.314321 0.26949
1 0.499443 0.454612
1 0.750072 0.705257
1 1 1
1 1 1
1 1 1
1 1 1
1 1 1
1 1 1
1 1 1
0.00141909 0.0754559 0.0168612
0.00791943 0.074876 0.0162966
0.0142367 0.0741283 0.0155337
0.0205692 0.0735943 0.0150149
0.0268559 0.0730755 0.0144961
0.0337224 0.0724041 0.0138094
0.0417029 0.0716564 0.013077
0.0521859 0.0706035 0.0120089
0.0664378 0.0691997 0.010605
0.0854505 0.0674754 0.00889601
0.110567 0.0650339 0.00645457
0.144289 0.0618143 0.00323491
0.190127 0.0574044 0
0.254017 0.0508888 0
0.351659 0.0387579 0
0.531334 0.00924697 0
0.659892 0.00030518 0
0.783123 0.0019379 0
0.933013 0.00961318 0
1 0.0225681 0
1 0.0511177 0
1 0.108659 0.0500649
1 0.204166 0.145586
1 0.3449 0.286305
1 0.530236 0.471641
1 0.780865 0.722286
1 1 1
1 1 1
1 1 1
1 1 1
1 1 1
1 1 1
1 1 1
0.00984207 0.101656 0.0252842
0.0163119 0.101061 0.0246891
0.022797 0.100481 0.0241093
0.0291142 0.0999466 0.0235599
0.0352331 0.0992294 0.022858
0.0420844 0.0985428 0.0221714
0.0500343 0.0977951 0.0214237
0.0606088 0.0968032 0.0204318
0.0747845 0.0953384 0.018967
0.0937057 0.0935225 0.0171511
0.118791 0.0910506 0.0146792
0.152667 0.0879835 0.0116121
0.198444 0.0834974 0.00712596
0.262135 0.0767987 0.000427253
0.359777 0.0646525 0
0.539498 0.0352026 0
0.668299 0.0264897 0
0.791959 0.0285496 0
0.943145 0.0375372 0
1 0.0527657 0
1 0.0864424 0.010071
1 0.14699 0.0706188
1 0.245258 0.168887
1 0.385443 0.309071
1 0.571389 0.495003
1 0.822019 0.745647
1 1 1
1 1 1
1 1 1
1 1 1
1 1 1
1 1 1
1 1 1
0.0215 0.136324 0.0369421
0.0279698 0.135729 0.036347
0.0344549 0.135134 0.0357519
0.0407568 0.134585 0.0352178
0.0469215 0.133928 0.0345464
0.0537118 0.133181 0.0337987
0.0616617 0.132418 0.033051
0.0722362 0.131426 0.0320592
0.0864576 0.130007 0.0306249
0.105318 0.12813 0.0287633
0.130556 0.125811 0.0264439
0.164263 0.122576 0.023209
0.210071 0.118135 0.0187533
0.273777 0.111452 0.0120699
0.371557 0.0994278 4.57771e-05
0.55169 0.0703899 0
0.680781 0.0619821 0
0.805432 0.0650492 0
0.958602 0.0759899 0
1 0.0955062 0
1 0.134722 0.0353399
1 0.199313 0.0999313
1 0.300633 0.201251
1 0.439719 0.340337
1 0.626383 0.527016
1 0.877028 0.777661
1 1 1
1 1 1
1 1 1
1 1 1
1 1 1
1 1 1
1 1 1
0.0375219 0.182818 0.0529793
0.0438849 0.182101 0.0522621
0.05037 0.181521 0.0516823
0.0566873 0.180987 0.0511482
0.062974 0.180468 0.0506142
0.0698405 0.179782 0.0499275
0.0777752 0.179004 0.0491493
0.0882124 0.17789 0.0480354
0.102541 0.176562 0.0467079
0.121401 0.174701 0.0448463
0.14667 0.172412 0.0425574
0.180438 0.169238 0.0393835
0.226413 0.16495 0.0350958
0.290425 0.158572 0.0287175
0.388663 0.147005 0.0171664
0.569268 0.118441 0
0.699504 0.111177 0
0.826291 0.116381 0
0.983276 0.131136 0.00129702
1 0.157717 0.027863
1 0.201587 0.0717479
1 0.271183 0.141329
1 0.375357 0.245502
1 0.513466 0.383612
1 0.70013 0.570275
1 0.950774 0.82092
1 1 1
1 1 1
1 1 1
1 1 1
1 1 1
1 1 1
1 1 1
0.059266 0.247074 0.0747082
0.0656291 0.246357 0.0740063
0.0721447 0.245808 0.0734569
0.0785229 0.245319 0.0729686
0.0848554 0.244846 0.0724804
0.0917678 0.244205 0.0718547
0.099794 0.243519 0.0711681
0.110262 0.242435 0.0700847
0.124681 0.241215 0.0688487
0.143801 0.239597 0.0672465
0.169177 0.237415 0.0650645
0.203265 0.234562 0.062211
0.249683 0.230732 0.058381
0.314443 0.225101 0.0527352
0.413611 0.214466 0.0421149
0.595743 0.187411 0.0150607
0.728511 0.182696 0.0103304
0.859815 0.192401 0.0200504
1 0.21387 0.0415198
1 0.246128 0.0737774
1 0.295399 0.123049
1 0.370123 0.197772
1 0.475441 0.30309
1 0.612924 0.440574
1 0.799588 0.627237
1 1 0.877882
1 1 1
1 1 1
1 1 1
1 1 1
1 1 1
1 1 1
1 1 1
0.0876478 0.342611 0.10309
0.0942092 0.342107 0.102586
0.100786 0.341619 0.102083
0.107286 0.341268 0.101747
0.113771 0.340932 0.101411
0.120836 0.340444 0.100923
0.12903 0.339925 0.100404
0.139696 0.339055 0.0995193
0.154437 0.33814 0.0986191
0.174029 0.336996 0.0974746
0.199954 0.335363 0.0958419
0.234897 0.333379 0.093843
0.282567 0.330785 0.091249
0.34905 0.326863 0.0873426
0.450797 0.318822 0.0793011
0.636622 0.29546 0.0559396
0.774151 0.295506 0.0559854
0.910719 0.310475 0.0709544
1 0.33669 0.0971542
1 0.37435 0.134813
1 0.429252 0.189731
1 0.507729 0.268193
1 0.61033 0.370809
1 0.749355 0.509834
1 0.936019 0.696498
1 1 0.947143
1 1 1
1 1 1
1 1 1
1 1 1
1 1 1
1 1 1
1 1 1
0.114748 0.506722 0.13019
0.121447 0.506355 0.129824
0.128344 0.506188 0.129656
0.135119 0.506096 0.129564
0.141848 0.50602 0.129488
0.149157 0.505776 0.129244
0.157656 0.505562 0.12903
0.168688 0.505043 0.128511
0.183978 0.504677 0.128161
0.204273 0.50425 0.127718
0.231113 0.503517 0.127001
0.267216 0.502693 0.126162
0.316365 0.501579 0.125048
0.384787 0.499611 0.123079
0.488762 0.493782 0.11725
0.677165 0.473014 0.0964828
0.817838 0.476188 0.0996567
0.958373 0.49514 0.118608
1 0.525994 0.149462
1 0.568566 0.192035
1 0.627054 0.250523
1 0.704295 0.327764
1 0.806851 0.43032
1 0.945876 0.569345
1 1 0.756008
1 1 1
1 1 1
1 1 1
1 1 1
1 1 1
1 1 1
1 1 1
1 1 1
0 0.830411 0.00222782
0 0.830442 0.00225834
0.000976577 0.830457 0.00228885
0.00787366 0.830503 0.00231937
0.0145113 0.83032 0.00213626
0.0219883 0.830259 0.00207523
0.0306859 0.830243 0.00205997
0.0422522 0.830259 0.00207523
0.0578927 0.830243 0.00205997
0.0784161 0.83003 0.00184634
0.105898 0.829969 0.00178531
0.143023 0.830137 0.00196841
0.193027 0.829892 0.00170901
0.262699 0.829175 0.000991836
0.368383 0.825055 0
0.55903 0.806531 0
0.702419 0.812421 0
0.845396 0.833814 0.00563058
1 0.867323 0.0391546
1 0.910307 0.0821241
1 0.966323 0.13814
1 1 0.215259
1 1 0.318791
1 1 0.457801
1 1 0.64448
1 1 0.895125
1 1 1
1 1 1
1 1 1
1 1 1
1 1 1
1 1 1
1 1 1
0 1 0
0 1 0
0 1 0
0 1 0
0 1 0
0 1 0
0 1 0
0 1 0
0 1 0
0 1 0
0 1 0
0 1 0
0 1 0
0 1 0
0.076051 1 0
0.266438 1 0
0.408667 1 0
0.551232 1 0
0.72607 1 0
0.964981 1 0
1 1 0
1 1 0
1 1 0.0248569
1 1 0.163867
1 1 0.35053
1 1 0.601175
1 1 0.937728
1 1 1
1 1 1
1 1 1
1 1 1
1 1 1
1 1 1
0 1 0
0 1 0
0 1 0
0 1 0
0 1 0
0 1 0
0 1 0
0 1 0
0 1 0
0 1 0
0 1 0
0 1 0
0 1 0
0 1 0
0 1 0
0 1 0
0.0112764 1 0
0.153841 1 0
0.328679 1 0
0.56759 1 0
0.888029 1 0
1 1 0
1 1 0
1 1 0
1 1 0
1 1 0.203784
1 1 0.540337
1 1 0.992233
1 1 1
1 1 1
1 1 1
1 1 1
1 1 1
0 1 0
0 1 0
0 1 0
0 1 0
0 1 0
0 1 0
0 1 0
0 1 0
0 1 0
0 1 0
0 1 0
0 1 0
0 1 0
0 1 0
0 1 0
0 1 0
0 1 0
0 1 0
0 1 0
0.0340124 1 0
0.354437 1 0
0.784695 1 0
1 1 0
1 1 0
1 1 0
1 1 0
1 1 0.00674449
1 1 0.45864
1 1 1
1 1 1
1 1 1
1 1 1
1 1 1
0 1 0
0 1 0
0 1 0
0 1 0
0 1 0
0 1 0
0 1 0
0 1 0
0 1 0
0 1 0
0 1 0
0 1 0
0 1 0
0 1 0
0 1 0
0 1 0
0 1 0
0 1 0
0 1 0
0 1 0
0 1 0
0.0682383 1 0
0.645945 1 0
1 1 0
1 1 0
1 1 0
1 1 0
1 1 0
1 1 0.348959
1 1 1
1 1 1
1 1 1
1 1 1
0 1 0
0 1 0
0 1 0
0 1 0
0 1 0
0 1 0
0 1 0
0 1 0
0 1 0
0 1 0
0 1 0
0 1 0
0 1 0
0 1 0
0 1 0
0 1 0
0 1 0
0 1 0
0 1 0
0 1 0
0 1 0
0 1 0
0 1 0
0.459663 1 0
1 1 0
1 1 0
1 1 0
1 1 0
1 1 0
1 1 0.201663
1 1 1
1 1 1
1 1 1
0 1 0
0 1 0
0 1 0
0 1 0
0 1 0
0 1 0
0 1 0
0 1 0
0 1 0
0 1 0
0 1 0
0 1 0
0 1 0
0 1 0
0 1 0
0 1 0
0 1 0
0 1 0
0 1 0
0 1 0
0 1 0
0 1 0
0 1 0
0 1 0
0.209506 1 0
1 1 0
1 1 0
1 1 0
1 1 0
1 1 0
1 1 0.00389105
1 1 1
1 1 1
0 1 0
0 1 0
0 1 0
0 1 0
0 1 0
0 1 0
0 1 0
0 1 0
0 1 0
0 1 0
0 1 0
0 1 0
0 1 0
0 1 0
0 1 0
0 1 0
0 1 0
0 1 0
0 1 0
0 1 0
0 1 0
0 1 0
0 1 0
0 1 0
0 1 0
0 1 0
1 1 0
1 1 0
1 1 0
1 1 0
1 1 0
1 1 0
1 1 1
0 1 0
0 1 0
0 1 0
0 1 0
0 1 0
0 1 0
0 1 0
0 1 0
0 1 0
0 1 0
0 1 0
0 1 0
0 1 0
0 1 0
0 1 0
0 1 0
0 1 0
0 1 0
0 1 0
0 1 0
0 1 0
0 1 0
0 1 0
0 1 0
0 1 0
0 1 0
0 1 0
1 1 0
1 1 0
1 1 0
1 1 0
1 1 0
1 1 0
0 1 0
0 1 0
0 1 0
0 1 0
0 1 0
0 1 0
0 1 0
0 1 0
0 1 0
