Assets/HMP LUTs/LUTs/HMPLUTs_Chocolata.cube
TITLE "Generated by Resolve"
LUT_3D_SIZE 33
0 0 0
0 0 0
0 0 0
0 0 0
0 0 0
0 0 0
0 0 0
0 0 0
0 0 0
0.0186465 0 0
0.0719615 0 0
0.131746 0 0
0.205966 0 0
0.300832 0 0
0.425345 0 0
0.60264 0 0
1 0 0
1 0 0.111727
1 0 0.301366
1 0 0.541604
1 0 0.848447
1 0 1
1 0 1
1 0 1
1 0 1
1 0 1
1 0 1
1 0 1
1 0 1
1 0 1
1 0 1
1 0 1
1 0 1
0 0 0
0 0 0
0 0 0
0 0 0
0 0 0
0 0 0
0 0 0
0 0 0
0 0 0
0.0171664 0 0
0.0705425 0 0
0.130404 0 0
0.204761 0 0
0.299855 0 0
0.424887 0 0
0.606317 0 0
1 0 0
1 0 0.116991
1 0 0.305592
1 0 0.545037
1 0 0.851209
1 0 1
1 0 1
1 0 1
1 0 1
1 0 1
1 0 1
1 0 1
1 0 1
1 0 1
1 0 1
1 0 1
1 0 1
0 0 0
0 0 0
0 0 0
0 0 0
0 0 0
0 0 0
0 0 0
0 0 0
0 0 0
0.015671 0 0
0.0691081 0 0
0.129046 0 0
0.203555 0 0
0.298894 0 0
0.424567 0 0
0.608164 0 0
1 0 0
1 0 0.122026
1 0 0.309651
1 0 0.548333
1 0 0.853849
1 0 1
1 0 1
1 0 1
1 0 1
1 0 1
1 0 1
1 0 1
1 0 1
1 0 1
1 0 1
1 0 1
1 0 1
0 0 0
0 0 0
0 0 0
0 0 0
0 0 0
0 0 0
0 0 0
0 0 0
0 0 0
0.0141604 0 0
0.0676585 0 0
0.127703 0 0
0.20235 0 0
0.297993 0 0
0.424506 0 0
0.609155 0 0
1 0 0
1 0 0.126864
1 0 0.313558
1 0 0.551476
1 0 0.856367
1 0 1
1 0 1
1 0 1
1 0 1
1 0 1
1 0 1
1 0 1
1 0 1
1 0 1
1 0 1
1 0 1
1 0 1
0 0 0
0 0 0
0 0 0
0 0 0
0 0 0
0 0 0
0 0 0
0 0 0
0 0 0
0.0126192 0 0
0.0661784 0 0
0.126329 0 0
0.20116 0 0
0.297154 0 0
0.424872 0 0
0.609522 0 0
1 0 0
1 0 0.131472
1 0 0.317281
1 0 0.554482
1 0 0.858732
1 0 1
1 0 1
1 0 1
1 0 1
1 0 1
1 0 1
1 0 1
1 0 1
1 0 1
1 0 1
1 0 1
1 0 1
0 0 0
0 0 0
0 0 0
0 0 0
0 0 0
0 0 0
0 0 0
0 0 0
0 0 0
0.0110323 0 0
0.064683 0 0
0.124956 0 0
0.199985 0 0
0.296407 0 0
0.42707 0 0
0.609384 0 0
1 0 0
1 0 0.135866
1 0 0.320821
1 0 0.557305
1 0 0.860685
1 0 1
1 0 1
1 0 1
1 0 1
1 0 1
1 0 1
1 0 1
1 0 1
1 0 1
1 0 1
1 0 1
1 0 1
0 0 0
0 0 0
0 0 0
0 0 0
0 0 0
0 0 0
0 0 0
0 0 0
0 0 0
0.00910964 0 0
0.0628672 0 0
0.123293 0 0
0.198627 0 0
0.295689 0 0
0.428214 0 0
0.608606 0 0
1 0 0
1 0 0.14081
1 0 0.324788
1 0 0.560464
1 0 0.863127
1 0 1
1 0 1
1 0 1
1 0 1
1 0 1
1 0 1
1 0 1
1 0 1
1 0 1
1 0 1
1 0 1
1 0 1
0 0 0
0 0 0
0 0 0
0 0 0
0 0 0
0 0 0
0 0 0
0 0 0
0 0 0
0.00643931 0 0
0.0603494 0 0
0.12105 0 0
0.196872 0 0
0.29543 0 0
0.427558 0 0
0.606622 0 0
1 0 0.00323491
1 0 0.146868
1 0 0.32961
1 0 0.563958
1 0 0.865934
1 0 1
1 0 1
1 0 1
1 0 1
1 0 1
1 0 1
1 0 1
1 0 1
1 0 1
1 0 1
1 0 1
1 0 1
0 0 0
0 0 0
0 0 0
0 0 0
0 0 0
0 0 0
0 0 0
0 0 0
0 0 0
0.00257877 0 0
0.0567941 0 0
0.118013 0 0
0.19498 0 0
0.297536 0 0
0.424811 0 0
0.602167 0 0
1 0 0.0119631
1 0 0.15375
1 0 0.334676
1 0 0.567941
1 0 0.868696
1 0 1
1 0 1
1 0 1
1 0 1
1 0 1
1 0 1
1 0 1
1 0 1
1 0 1
1 0 1
1 0 1
1 0 1
0 0.00242618 0
0 0.00210575 0
0 0.00178531 0
0 0.00144961 0
0 0.00108339 0
0 0.000717174 0
0 0.000259403 0
0 0 0
0 0 0
0 0 0
0.0513466 0 0
0.114168 0 0
0.194919 0 0
0.292851 0 0
0.417914 0 0
0.591974 0 0
1 0 0.0196689
1 0 0.159289
1 0 0.338582
1 0 0.570123
1 0 0.869307
1 0 1
1 0 1
1 0 1
1 0 1
1 0 1
1 0 1
1 0 1
1 0 1
1 0 1
1 0 1
1 0 1
1 0 1
0 0.0454414 0
0 0.045304 0
0 0.045182 0
0 0.0450599 0
0 0.0449531 0
0 0.0448615 0
0 0.0447547 0
0 0.0446632 0
0 0.04477 0
0 0.045655 0
0.0438544 0.042649 0
0.105837 0.0407568 0
0.181811 0.0389105 0
0.277577 0.0368048 0
0.401053 0.0341955 0
0.566842 0.0305791 0
1 0.00846876 0.0197757
1 0 0.156893
1 0 0.333898
1 0 0.563317
1 0 0.860502
1 0 1
1 0 1
1 0 1
1 0 1
1 0 1
1 0 1
1 0 1
1 0 1
1 0 1
1 0 1
1 0 1
1 0 1
0 0.106828 0
0 0.106813 0
0 0.106722 0
0 0.1066 0
0 0.106416 0
0 0.106188 0
0 0.105852 0
0 0.105272 0
0 0.104234 0
0 0.102159 0
0.0364233 0.0973831 0
0.0969253 0.0940719 0
0.171572 0.0909285 0
0.266102 0.0876326 0
0.388357 0.0838941 0
0.550042 0.0793774 0
1 0.0569009 0.0349584
1 0.0173648 0.169268
1 0 0.343587
1 0 0.570413
1 0 0.86508
1 0 1
1 0 1
1 0 1
1 0 1
1 0 1
1 0 1
1 0 1
1 0 1
1 0 1
1 0 1
1 0 1
1 0 1
0 0.176761 0
0 0.176394 0
0 0.175982 0
0 0.175555 0
0 0.175097 0
0 0.174609 0
0 0.173968 0
0 0.173022 0
0 0.171542 0
0 0.168917 0
0.0267948 0.163531 0
0.0865339 0.159472 0
0.160342 0.15552 0
0.253941 0.151324 0
0.375174 0.146639 0
0.534127 0.141176 0
1 0.11812 0.0609903
1 0.0776837 0.192233
1 0.0261692 0.36347
1 0 0.587182
1 0 0.878767
1 0 1
1 0 1
1 0 1
1 0 1
1 0 1
1 0 1
1 0 1
1 0 1
1 0 1
1 0 1
1 0 1
1 0 1
0 0.26186 0
0 0.261341 0
0 0.260792 0
0 0.260227 0
0 0.259617 0
0 0.258991 0
0 0.258198 0
0 0.257053 0
0 0.255299 0
0 0.252338 0
0.0144808 0.246494 0
0.0736858 0.241917 0
0.146853 0.237339 0
0.239673 0.232395 0
0.360006 0.226856 0
0.517113 0.220478 0.0243534
1 0.196735 0.0991073
1 0.155383 0.227115
1 0.102907 0.394888
1 0.0357671 0.615045
1 0 0.903014
1 0 1
1 0 1
1 0 1
1 0 1
1 0 1
1 0 1
1 0 1
1 0 1
1 0 1
1 0 1
1 0 1
1 0 1
0 0.370199 0.013138
0 0.369574 0.0142519
0 0.368917 0.0153353
0 0.368246 0.0163882
0 0.367544 0.0174105
0 0.366827 0.0183871
0 0.365911 0.019501
0 0.364599 0.0209049
0 0.362646 0.0225223
0 0.359426 0.0239414
0 0.353201 0.0234073
0.0572366 0.34818 0.0268864
0.12987 0.343053 0.0334783
0.222034 0.337453 0.0437934
0.341558 0.331121 0.0591287
0.497429 0.323827 0.081239
1 0.29926 0.152789
1 0.256916 0.277348
1 0.203372 0.441367
1 0.135149 0.657465
1 0.048127 0.941207
1 0 1
1 0 1
1 0 1
1 0 1
1 0 1
1 0 1
1 0 1
1 0 1
1 0 1
1 0 1
1 0 1
1 0 1
0 0.518853 0.105196
0 0.518013 0.10605
0 0.517159 0.106859
0 0.516258 0.107637
0 0.515312 0.108385
0 0.514336 0.109087
0 0.5131 0.10985
0 0.511315 0.11075
0 0.508644 0.111666
0 0.504143 0.111986
0 0.495308 0.109468
0.0355077 0.488548 0.111299
0.107851 0.48188 0.116182
0.199588 0.474922 0.124651
0.318441 0.467414 0.137987
0.473671 0.459144 0.157916
0.983749 0.434028 0.226871
1 0.392004 0.348623
1 0.340063 0.510109
1 0.275486 0.724407
1 0.19559 1
1 0.0977798 1
1 0 1
1 0 1
1 0 1
1 0 1
1 0 1
1 0 1
1 0 1
1 0 1
1 0 1
1 0 1
1 0 1
0 1 0.38909
0 1 0.389471
0 1 0.389822
0 1 0.390097
0 1 0.390326
0 1 0.390478
0 0.998001 0.39057
0 0.994827 0.390509
0 0.98996 0.389944
0 0.981643 0.387686
0 0.964675 0.380255
0 0.952163 0.378286
0.028748 0.940337 0.379507
0.12076 0.928496 0.384253
0.239612 0.916579 0.393866
0.395453 0.904738 0.410361
0.905547 0.877623 0.476356
1 0.836072 0.595331
1 0.787961 0.755367
1 0.731884 0.97026
1 0.666453 1
1 0.589654 1
1 0.498848 1
1 0.390539 1
1 0.260029 1
1 0.100999 1
1 0 1
1 0 1
1 0 1
1 0 1
1 0 1
1 0 1
1 0 1
0 1 0.839841
0 1 0.840009
0 1 0.840101
0 1 0.840146
0 1 0.840146
0 1 0.84007
0 1 0.839872
0 1 0.839429
0 1 0.838376
0 1 0.835477
0 1 0.827161
0 1 0.824033
0 1 0.823728
0 1 0.826505
0.103319 1 0.83357
0.260884 1 0.847089
0.77467 1 0.909514
1 1 1
1 1 1
1 1 1
1 1 1
1 1 1
1 1 1
1 1 1
1 0.958587 1
1 0.787442 1
1 0.579141 1
1 0.323018 1
1 0.00492866 1
1 0 1
1 0 1
1 0 1
1 0 1
0 1 1
0 1 1
0 1 1
0 1 1
0 1 1
0 1 1
0 1 1
0 1 1
0 1 1
0 1 1
0 1 1
0 1 1
0 1 1
0 1 1
0 1 1
0.0887617 1 1
0.610376 1 1
1 1 1
1 1 1
1 1 1
1 1 1
1 1 1
1 1 1
1 1 1
1 1 1
1 1 1
1 1 1
1 1 1
1 0.863355 1
1 0.447272 1
1 0 1
1 0 1
1 0 1
0 1 1
0 1 1
0 1 1
0 1 1
0 1 1
0 1 1
0 1 1
0 1 1
0 1 1
0 1 1
0 1 1
0 1 1
0 1 1
0 1 1
0 1 1
0 1 1
0.401724 1 1
1 1 1
1 1 1
1 1 1
1 1 1
1 1 1
1 1 1
1 1 1
1 1 1
1 1 1
1 1 1
1 1 1
1 1 1
1 1 1
1 1 1
1 0.300694 1
1 0 1
0 1 1
0 1 1
0 1 1
0 1 1
0 1 1
0 1 1
0 1 1
0 1 1
0 1 1
0 1 1
0 1 1
0 1 1
0 1 1
0 1 1
0 1 1
0 1 1
0.135653 1 1
0.9953 1 1
1 1 1
1 1 1
1 1 1
1 1 1
1 1 1
1 1 1
1 1 1
1 1 1
1 1 1
1 1 1
1 1 1
1 1 1
1 1 1
1 1 1
1 0.806882 1
0 1 1
0 1 1
0 1 1
0 1 1
0 1 1
0 1 1
0 1 1
0 1 1
0 1 1
0 1 1
0 1 1
0 1 1
0 1 1
0 1 1
0 1 1
0 1 1
0 1 1
0.649943 1 1
1 1 1
1 1 1
1 1 1
1 1 1
1 1 1
1 1 1
1 1 1
1 1 1
1 1 1
1 1 1
1 1 1
1 1 1
1 1 1
1 1 1
1 1 1
0 1 1
0 1 1
0 1 1
0 1 1
0 1 1
0 1 1
0 1 1
0 1 1
0 1 1
0 1 1
0 1 1
0 1 1
0 1 1
0 1 1
0 1 1
0 1 1
0 1 1
0.207584 1 1
1 1 1
1 1 1
1 1 1
1 1 1
1 1 1
1 1 1
1 1 1
1 1 1
1 1 1
1 1 1
1 1 1
1 1 1
1 1 1
1 1 1
1 1 1
0 1 1
0 1 1
0 1 1
0 1 1
0 1 1
0 1 1
0 1 1
0 1 1
0 1 1
0 1 1
0 1 1
0 1 1
0 1 1
0 1 1
0 1 1
0 1 1
0 1 1
0 1 1
0.735958 1 1
1 1 1
1 1 1
1 1 1
1 1 1
1 1 1
1 1 1
1 1 1
1 1 1
1 1 1
1 1 1
1 1 1
1 1 1
1 1 1
1 1 1
0 1 1
0 1 1
0 1 1
0 1 1
0 1 1
0 1 1
0 1 1
0 1 1
0 1 1
0 1 1
0 1 1
0 1 1
0 1 1
0 1 1
0 1 1
0 1 1
0 1 1
0 1 1
0 1 1
1 1 1
1 1 1
1 1 1
1 1 1
1 1 1
1 1 1
1 1 1
1 1 1
1 1 1
1 1 1
1 1 1
1 1 1
1 1 1
1 1 1
0 1 1
0 1 1
0 1 1
0 1 1
0 1 1
0 1 1
0 1 1
0 1 1
0 1 1
0 1 1
0 1 1
0 1 1
0 1 1
0 1 1
0 1 1
0 1 1
0 1 1
0 1 1
0 1 1
0.462196 1 1
1 1 1
1 1 1
1 1 1
1 1 1
1 1 1
1 1 1
1 1 1
1 1 1
1 1 1
1 1 1
1 1 1
1 1 1
1 1 1
0 1 1
0 1 1
0 1 1
0 1 1
0 1 1
0 1 1
0 1 1
0 1 1
0 1 1
0 1 1
0 1 1
0 1 1
0 1 1
0 1 1
0 1 1
0 1 1
0 1 1
0 1 1
0 1 1
0 1 1
1 1 1
1 1 1
1 1 1
1 1 1
1 1 1
1 1 1
1 1 1
1 1 1
1 1 1
1 1 1
1 1 1
1 1 1
1 1 1
0 1 1
0 1 1
0 1 1
0 1 1
0 1 1
0 1 1
0 1 1
0 1 1
0 1 1
