Assets/HMP LUTs/LUTs/HMPLUTs_Neptuno.cube
TITLE "Generated by Resolve"
LUT_3D_SIZE 5
0 0 0
0 0 0
0.15317 0 0
1 0 0
1 0 0
0 0 0
0 0 0
0.18584 0.0245823 0.0245823
1 0 0
1 0 0
0.253117 0.267826 0.267826
0.27425 0.277546 0.277546
0.524956 0.343496 0.343496
1 0 0
1 0 0
1 1 1
1 1 1
1 1 1
1 1 1
1 0 0
1 1 1
1 1 1
1 1 1
1 1 1
1 1 1
0 0 0
0 0 0
0.156313 0 0
1 0 0
1 0 0
0 0 0
0 0 0
0.189288 0.0280308 0.0280308
1 0 0
1 0 0
0.257237 0.271946 0.271946
0.278401 0.281697 0.281697
0.536248 0.347799 0.347799
1 0 0
1 0 0
1 1 1
1 1 1
1 1 1
1 1 1
1 0 0
1 1 1
1 1 1
1 1 1
1 1 1
1 1 1
0 0 0
0 0 0
0.183154 0.0218814 0.0218814
1 0 0
1 0 0
0 0.00671397 0.00671397
0.00892653 0.0122225 0.0122225
0.218112 0.0568399 0.0568399
1 0 0
1 0 0
0.290974 0.305684 0.305684
0.312306 0.315602 0.315602
0.652476 0.382895 0.382895
1 0 0
1 0 0
1 1 1
1 1 1
1 1 1
1 1 1
1 0 0
1 1 1
1 1 1
1 1 1
1 1 1
1 1 1
0.272053 0.286763 0.286763
0.293294 0.29659 0.29659
0.582086 0.363226 0.363226
1 0 0
1 0 0
0.313512 0.328222 0.328222
0.334951 0.338247 0.338247
0.753124 0.406271 0.406271
1 0 0
1 0 0
1 1 1
1 1 1
1 1 1
1 0.286687 0.286687
1 0 0
1 1 1
1 1 1
1 1 1
1 1 1
1 0 0
1 1 1
1 1 1
1 1 1
1 1 1
1 1 1
1 1 1
1 1 1
1 1 1
1 1 1
1 0 0
1 1 1
1 1 1
1 1 1
1 1 1
1 0 0
1 1 1
1 1 1
1 1 1
1 1 1
1 0 0
1 1 1
1 1 1
1 1 1
1 1 1
1 0 0
1 1 1
1 1 1
1 1 1
1 1 1
1 1 1
