Assets/HMP LUTs/LUTs/HMPLUTs_Lurder.cube
TITLE "Generated by Resolve"
LUT_3D_SIZE 9
0 0 0
0 0 0
0.0115511 0 0
0.139803 0 0
0.665309 0 0.0448615
1 0 0.402853
1 0 1
1 0 1
1 0 1
0 0 0
0 0 0
0.00689708 0 0
0.136507 0 0
0.656809 0 0.0196994
1 0 0.377569
1 0 1
1 0 1
1 0 1
0 0 0
0 0 0
0 0 0
0.131014 0 0
0.644709 0 0
1 0 0.33933
1 0 1
1 0 1
1 0 1
0 0.110628 0
0 0.107362 0
0.0127108 0.104952 0
0.112978 0.101625 0
0.61117 0.0484932 0
1 0 0.212222
1 0 1
1 0 1
1 0 1
0.00274662 0.514839 0
0.0382239 0.508125 0
0.0884108 0.499001 0
0.22356 0.479103 0
0.619852 0.464164 0
1 0.236881 0
1 0 0.342184
1 0 1
1 0 1
0 0.74905 0
0 0.74905 0
0 0.74905 0
0 0.74905 0
0.118517 0.74905 0
1 0.74905 0
1 0.74905 0
1 0 0.0643473
1 0 1
0 0.74905 0
0 0.74905 0
0 0.74905 0
0 0.74905 0
0 0.74905 0
0 0.74905 0
1 0.74905 0
1 0.74905 0
1 0 0
0 0.74905 0
0 0.74905 0
0 0.74905 0
0 0.74905 0
0 0.74905 0
0 0.74905 0
0 0.74905 0
1 0.74905 0
1 0.74905 0
0 0.74905 0
0 0.74905 0
0 0.74905 0
0 0.74905 0
0 0.74905 0
0 0.74905 0
0 0.74905 0
0 0.74905 0
1 0.74905 0
0 0 0
0 0 0
0.0109255 0 0
0.139651 0 0
0.659831 0 0.0931258
1 0 0.451041
1 0 1
1 0 1
1 0 1
0 0 0
0 0 0
0.0065919 0 0
0.136538 0 0
0.651026 0 0.0680552
1 0 0.425711
1 0 1
1 0 1
1 0 1
0 0 0
0 0 0
0 0 0
0.131182 0 0
0.638636 0 0.0321355
1 0 0.387579
1 0 1
1 0 1
1 0 1
0 0.111589 0
0 0.107607 0
0.0127108 0.103532 0
0.112078 0.0999313 0
0.605081 0.0471809 0
1 0 0.260533
1 0 1
1 0 1
1 0 1
0 0.513802 0
0.0332799 0.506828 0
0.084123 0.497292 0
0.223728 0.475395 0
0.617319 0.460731 0
1 0.233661 0
1 0 0.423468
1 0 1
1 0 1
0 0.74905 0
0 0.74905 0
0 0.74905 0
0 0.74905 0
0.10869 0.74905 0
1 0.74905 0
1 0.74905 0
1 0 0.145815
1 0 1
0 0.74905 0
0 0.74905 0
0 0.74905 0
0 0.74905 0
0 0.74905 0
0 0.74905 0
1 0.74905 0
1 0.74905 0
1 0 0
0 0.74905 0
0 0.74905 0
0 0.74905 0
0 0.74905 0
0 0.74905 0
0 0.74905 0
0 0.74905 0
1 0.74905 0
1 0.74905 0
0 0.74905 0
0 0.74905 0
0 0.74905 0
0 0.74905 0
0 0.74905 0
0 0.74905 0
0 0.74905 0
0 0.74905 0
1 0.74905 0
0 0 0
0 0 0
0.00781262 0 0
0.13872 0 0.0292973
0.652033 0 0.163119
1 0 0.521813
1 0 1
1 0 1
1 0 1
0 0 0
0 0 0
0.005066 0 0
0.13611 0 0.00906386
0.642893 0 0.137911
1 0 0.497795
1 0 1
1 0 1
1 0 1
0 0 0
0 0 0
0 0 0
0.131273 0 0
0.630243 0 0.102083
1 0 0.459678
1 0 1
1 0 1
1 0 1
0 0.113436 0
0 0.109041 0
0.00869764 0.102892 0
0.110689 0.0973526 0
0.597009 0.0450599 0
1 0 0.332876
1 0 1
1 0 1
1 0 1
0 0.512413 0
0.0246738 0.505272 0
0.0762493 0.495277 0
0.221759 0.470802 0
0.613581 0.455726 0
1 0.228885 0
1 0 0.544427
1 0 1
1 0 1
0 0.74905 0
0 0.74905 0
0 0.74905 0
0 0.74905 0
0.0938582 0.74905 0
1 0.74905 0
1 0.74905 0
1 0 0.265553
1 0 1
0 0.74905 0
0 0.74905 0
0 0.74905 0
0 0.74905 0
0 0.74905 0
0 0.74905 0
1 0.74905 0
1 0.74905 0
1 0 0
0 0.74905 0
0 0.74905 0
0 0.74905 0
0 0.74905 0
0 0.74905 0
0 0.74905 0
0 0.74905 0
1 0.74905 0
1 0.74905 0
0 0.74905 0
0 0.74905 0
0 0.74905 0
0 0.74905 0
0 0.74905 0
0 0.74905 0
0 0.74905 0
0 0.74905 0
1 0.74905 0
0 0 0.150286
0 0 0.165759
0 0 0.187106
0.125551 0 0.236271
0.630365 0 0.385397
1 0 0.752636
1 0 1
1 0 1
1 0 1
0 0 0.128176
0 0 0.144518
0 0 0.167254
0.124681 0 0.218372
0.620844 0 0.358831
1 0 0.727398
1 0 1
1 0 1
1 0 1
0 0 0.092546
0 0 0.110292
0 0 0.135439
0.123461 0 0.191531
0.608515 0 0.321813
1 0 0.689448
1 0 1
1 0 1
1 0 1
0 0.117968 0
0 0.113863 0
0 0.1075 0.00668345
0.106554 0.0885023 0.087129
0.578851 0.0371405 0.212696
1 0 0.56347
1 0 1
1 0 1
1 0 1
0 0.509209 0
0 0.502022 0
0.0426337 0.492027 0
0.198032 0.463478 0
0.597864 0.437613 0.0519875
1 0.213092 0.243259
1 0 0.928512
1 0 1
1 0 1
0 0.74905 0
0 0.74905 0
0 0.74905 0
0 0.74905 0
0.0407721 0.74905 0
1 0.74905 0
1 0.74905 0
1 0 0.649088
1 0 1
0 0.74905 0
0 0.74905 0
0 0.74905 0
0 0.74905 0
0 0.74905 0
0 0.74905 0
1 0.74905 0
1 0.74905 0
1 0 0
0 0.74905 0
0 0.74905 0
0 0.74905 0
0 0.74905 0
0 0.74905 0
0 0.74905 0
0 0.74905 0
1 0.74905 0
1 0.74905 0
0 0.74905 0
0 0.74905 0
0 0.74905 0
0 0.74905 0
0 0.74905 0
0 0.74905 0
0 0.74905 0
0 0.74905 0
1 0.74905 0
0 0 0.800931
0 0 0.810285
0 0 0.824918
0.0510567 0 0.878645
0.589426 0 1
1 0 1
1 0 1
1 0 1
1 0 1
0 0 0.764965
0 0 0.774624
0 0 0.789929
0.0467842 0 0.849439
0.576883 0 1
1 0 1
1 0 1
1 0 1
1 0 1
0 0 0.717159
0 0 0.728756
0 0 0.746792
0.0410925 0 0.809537
0.56025 0 1
1 0 1
1 0 1
1 0 1
1 0 1
0 0.115389 0.579889
0 0.110124 0.594354
0 0.102602 0.616709
0.0245823 0.0803235 0.691875
0.52903 0.00614939 0.912978
1 0 1
1 0 1
1 0 1
1 0 1
0 0.508385 0.278828
0 0.49984 0.302998
0 0.488441 0.337484
0.0492866 0.459876 0.439902
0.556085 0.386542 0.734325
1 0.156024 1
1 0 1
1 0 1
1 0 1
0 0.74905 0
0 0.74905 0
0 0.74905 0
0 0.74905 0
0 0.74905 0
1 0.74905 0
1 0.74905 0
1 0 1
1 0 1
0 0.74905 0
0 0.74905 0
0 0.74905 0
0 0.74905 0
0 0.74905 0
0 0.74905 0
1 0.74905 0
1 0.74905 0
1 0 0
0 0.74905 0
0 0.74905 0
0 0.74905 0
0 0.74905 0
0 0.74905 0
0 0.74905 0
0 0.74905 0
1 0.74905 0
1 0.74905 0
0 0.74905 0
0 0.74905 0
0 0.74905 0
0 0.74905 0
0 0.74905 0
0 0.74905 0
0 0.74905 0
0 0.74905 0
1 0.74905 0
0 0 1
0 0 1
0 0 1
0 0 1
0.20589 0 1
1 0 1
1 0 1
1 0 1
1 0 1
0 0 1
0 0 1
0 0 1
0 0 1
0.199985 0 1
1 0 1
1 0 1
1 0 1
1 0 1
0 0 1
0 0 1
0 0 1
0 0 1
0.190814 0 1
1 0 1
1 0 1
1 0 1
1 0 1
0 0.097612 1
0 0.0917372 1
0 0.0829938 1
0 0.0550546 1
0.158938 0 1
1 0 1
1 0 1
1 0 1
1 0 1
0 0.469062 1
0 0.462837 1
0 0.453605 1
0 0.423255 1
0.0777447 0.313649 1
1 0 1
1 0 1
1 0 1
1 0 1
0 0.74905 0
0 0.74905 0
0 0.74905 0
0 0.74905 0
0 0.74905 0.0790723
1 0.74905 1
1 0.74905 1
1 0 1
1 0 1
0 0.74905 0
0 0.74905 0
0 0.74905 0
0 0.74905 0
0 0.74905 0
0 0.74905 0
1 0.74905 0
1 0.74905 0
1 0 1
0 0.74905 0
0 0.74905 0
0 0.74905 0
0 0.74905 0
0 0.74905 0
0 0.74905 0
0 0.74905 0
1 0.74905 0
1 0.74905 0
0 0.74905 0
0 0.74905 0
0 0.74905 0
0 0.74905 0
0 0.74905 0
0 0.74905 0
0 0.74905 0
0 0.74905 0
1 0.74905 0
0 0 1
0 0 1
0 0 1
0 0 1
0 0 1
0.282856 0 1
1 0 1
1 0 1
1 0 1
0 0 1
0 0 1
0 0 1
0 0 1
0 0 1
0.259663 0 1
1 0 1
1 0 1
1 0 1
0 0 1
0 0 1
0 0 1
0 0 1
0 0 1
0.221378 0 1
1 0 1
1 0 1
1 0 1
0 0 1
0 0 1
0 0 1
0 0 1
0 0 1
0.0623789 0 1
1 0 1
1 0 1
1 0 1
0 0.290486 1
0 0.279042 1
0 0.261173 1
0 0.20145 1
0 0 1
0 0 1
1 0 1
1 0 1
1 0 1
0 0.74905 1
0 0.74905 1
0 0.74905 1
0 0.74905 1
0 0.74905 1
0 0.74905 1
1 0.110475 1
1 0 1
1 0 1
0 0.74905 0
0 0.74905 0
0 0.74905 0
0 0.74905 0
0 0.74905 0
0 0.74905 0
1 0.74905 1
1 0.74905 1
1 0 1
0 0.74905 0
0 0.74905 0
0 0.74905 0
0 0.74905 0
0 0.74905 0
0 0.74905 0
0 0.74905 0
1 0.74905 0
1 0.74905 0
0 0.74905 0
0 0.74905 0
0 0.74905 0
0 0.74905 0
0 0.74905 0
0 0.74905 0
0 0.74905 0
0 0.74905 0
1 0.74905 0
0 0 1
0 0 1
0 0 1
0 0 1
0 0 1
0 0 1
0 0 1
1 0 1
1 0 1
0 0 1
0 0 1
0 0 1
0 0 1
0 0 1
0 0 1
0 0 1
1 0 1
1 0 1
0 0 1
0 0 1
0 0 1
0 0 1
0 0 1
0 0 1
0 0 1
1 0 1
1 0 1
0 0 1
0 0 1
0 0 1
0 0 1
0 0 1
0 0 1
0 0 1
1 0 1
1 0 1
0 0 1
0 0 1
0 0 1
0 0 1
0 0 1
0 0 1
0 0 1
1 0 1
1 0 1
0 0.74905 1
0 0.74905 1
0 0.74905 1
0 0.74905 1
0 0.74905 1
0 0.74905 1
0 0 1
1 0 1
1 0 1
0 0.74905 1
0 0.74905 1
0 0.74905 1
0 0.74905 1
0 0.74905 1
0 0.74905 1
0 0.74905 1
1 0.74905 1
1 0 1
0 0.74905 0
0 0.74905 0
0 0.74905 0
0 0.74905 0
0 0.74905 0
0 0.74905 0
0 0.74905 0
1 0.74905 1
1 0.74905 1
0 0.74905 0
0 0.74905 0
0 0.74905 0
0 0.74905 0
0 0.74905 0
0 0.74905 0
0 0.74905 0
0 0.74905 0
1 0.74905 0
0 0 1
0 0 1
0 0 1
0 0 1
0 0 1
0 0 1
0 0 1
0 0 1
1 0 1
0 0 1
0 0 1
0 0 1
0 0 1
0 0 1
0 0 1
0 0 1
0 0 1
1 0 1
0 0 1
0 0 1
0 0 1
0 0 1
0 0 1
0 0 1
0 0 1
0 0 1
1 0 1
0 0 1
0 0 1
0 0 1
0 0 1
0 0 1
0 0 1
0 0 1
0 0 1
1 0 1
0 0 1
0 0 1
0 0 1
0 0 1
0 0 1
0 0 1
0 0 1
0 0 1
1 0 1
0 0 1
0 0 1
0 0 1
0 0 1
0 0 1
0 0 1
0 0 1
0 0 1
1 0 1
0 0.74905 1
0 0.74905 1
0 0.74905 1
0 0.74905 1
0 0.74905 1
0 0.74905 1
0 0.74905 1
0 0 1
1 0 1
0 0.74905 1
0 0.74905 1
0 0.74905 1
0 0.74905 1
0 0.74905 1
0 0.74905 1
0 0.74905 1
0 0.74905 1
1 0.74905 1
0 0.74905 0
0 0.74905 0
0 0.74905 0
0 0.74905 0
0 0.74905 0
0 0.74905 0
0 0.74905 0
0 0.74905 0
1 0.74905 1
