Assets/HMP LUTs/LUTs/HMPLUTs_Lurder.cube
TITLE "Generated by Resolve"
LUT_3D_SIZE 33
0 0 0
0 0 0
0 0 0
0 0 0
0 0 0
0 0 0
0 0 0
0 0 0
0.0115511 0 0
0.0309911 0 0
0.0576486 0 0
0.0930037 0 0
0.139803 0 0
0.203479 0 0
0.29102 0 0
0.430716 0 0
0.665309 0 0.0448615
0.930861 0 0.0959945
1 0 0.170306
1 0 0.27013
1 0 0.402853
1 0 0.580987
1 0 0.816083
1 0 1
1 0 1
1 0 1
1 0 1
1 0 1
1 0 1
1 0 1
1 0 1
1 0 1
1 0 1
0 0 0
0 0 0
0 0 0
0 0 0
0 0 0
0 0 0
0 0 0
0 0 0
0.0104372 0 0
0.0299382 0 0
0.056672 0 0
0.0921187 0 0
0.13901 0 0
0.202594 0 0
0.290028 0 0
0.429526 0 0
0.663172 0 0.0384985
0.929473 0 0.0886549
1 0 0.163363
1 0 0.263935
1 0 0.396506
1 0 0.574487
1 0 0.812222
1 0 1
1 0 1
1 0 1
1 0 1
1 0 1
1 0 1
1 0 1
1 0 1
1 0 1
1 0 1
0 0 0
0 0 0
0 0 0
0 0 0
0 0 0
0 0 0
0 0 0
0 0 0
0.00927749 0 0
0.0288548 0 0
0.0556649 0 0
0.0911879 0 0
0.138201 0 0
0.201694 0 0
0.289036 0 0
0.428382 0 0
0.661036 0 0.0321965
0.928054 0 0.0813764
1 0 0.156374
1 0 0.257816
1 0 0.390204
1 0 0.567895
1 0 0.80499
1 0 1
1 0 1
1 0 1
1 0 1
1 0 1
1 0 1
1 0 1
1 0 1
1 0 1
1 0 1
0 0 0
0 0 0
0 0 0
0 0 0
0 0 0
0 0 0
0 0 0
0 0 0
0.00810254 0 0
0.0277256 0 0
0.0546273 0 0
0.0902419 0 0
0.137362 0 0
0.200809 0 0
0.288075 0 0
0.427268 0 0
0.658915 0 0.0259251
0.926589 0 0.0740368
1 0 0.149264
1 0 0.251621
1 0 0.383871
1 0 0.561318
1 0 0.797742
1 0 1
1 0 1
1 0 1
1 0 1
1 0 1
1 0 1
1 0 1
1 0 1
1 0 1
1 0 1
0 0 0
0 0 0
0 0 0
0 0 0
0 0 0
0 0 0
0 0 0
0 0 0
0.00689708 0 0
0.0265812 0 0
0.0535439 0 0
0.0892653 0 0
0.136507 0 0
0.199908 0 0
0.287358 0 0
0.426184 0 0
0.656809 0 0.0196994
0.925093 0 0.0667124
1 0 0.142123
1 0 0.245411
1 0 0.377569
1 0 0.554772
1 0 0.790478
1 0 1
1 0 1
1 0 1
1 0 1
1 0 1
1 0 1
1 0 1
1 0 1
1 0 1
1 0 1
0 0 0
0 0 0
0 0 0
0 0 0
0 0 0
0 0 0
0 0 0
0 0 0
0.0056611 0 0
0.0254063 0 0
0.0524453 0 0
0.0882734 0 0
0.135622 0 0
0.199008 0 0
0.286809 0 0
0.425101 0 0
0.654734 0 0.0135348
0.923568 0 0.0594034
1 0 0.134859
1 0 0.239216
1 0 0.37116
1 0 0.548135
1 0 0.783032
1 0 1
1 0 1
1 0 1
1 0 1
1 0 1
1 0 1
1 0 1
1 0 1
1 0 1
1 0 1
0 0 0
0 0 0
0 0 0
0 0 0
0 0 0
0 0 0
0 0 0
0 0 0
0.00419623 0 0
0.0239872 0 0
0.0511177 0 0
0.0870527 0 0
0.134539 0 0
0.19794 0 0
0.286122 0 0
0.42385 0 0
0.652262 0 0.00616464
0.921706 0 0.0506447
1 0 0.126101
1 0 0.23183
1 0 0.363592
1 0 0.5402
1 0 0.774105
1 0 1
1 0 1
1 0 1
1 0 1
1 0 1
1 0 1
1 0 1
1 0 1
1 0 1
1 0 1
0 0 0
0 0 0
0 0 0
0 0 0
0 0 0
0 0 0
0 0 0
0 0 0
0.00224308 0 0
0.0220798 0 0
0.0492866 0 0
0.085359 0 0
0.133043 0 0
0.196765 0 0
0.285176 0 0
0.422202 0 0
0.649012 0 0
0.919142 0 0.0388952
1 0 0.114275
1 0 0.22182
1 0 0.353384
1 0 0.529534
1 0 0.76202
1 0 1
1 0 1
1 0 1
1 0 1
1 0 1
1 0 1
1 0 1
1 0 1
1 0 1
1 0 1
0 0 0
0 0 0
0 0 0
0 0 0
0 0 0
0 0 0
0 0 0
0 0 0
0 0 0
0.0194858 0 0
0.0467842 0 0
0.0830091 0 0
0.131014 0 0
0.195254 0 0
0.283787 0 0
0.419944 0 0
0.644709 0 0
0.915587 0 0.0234073
1 0 0.0983749
1 0 0.208148
1 0 0.33933
1 0 0.514824
1 0 0.745357
1 0 1
1 0 1
1 0 1
1 0 1
1 0 1
1 0 1
1 0 1
1 0 1
1 0 1
1 0 1
0 0.0121767 0
0 0.0117037 0
0 0.0114748 0
0 0.0114443 0
0 0.0115053 0
0 0.0115816 0
0 0.01149 0
0 0.0110781 0
0 0.0100099 0
0.0151522 0.00801099 0
0.0424964 0.00512703 0
0.078996 0.00131228 0
0.12755 0 0
0.192187 0 0
0.280919 0 0
0.4159 0 0
0.637842 0 0
0.909453 0 0
1 0 0.0735027
1 0 0.187747
1 0 0.318547
1 0 0.492821
1 0 0.719829
1 0 1
1 0 1
1 0 1
1 0 1
1 0 1
1 0 1
1 0 1
1 0 1
1 0 1
1 0 1
0 0.0359045 0
0 0.0352026 0
0 0.034638 0
0 0.0342718 0
0 0.0340887 0
0 0.0340581 0
0 0.0341497 0
0 0.0343023 0
0 0.0341497 0
0.0114748 0.0331884 0
0.0377508 0.0307774 0
0.0744335 0.0269932 0
0.123339 0.0219272 0
0.188495 0.0153201 0
0.277562 0.00627146 0
0.411383 0 0
0.629877 0 0
0.901793 0 0
1 0 0.041413
1 0 0.161456
1 0 0.2916
1 0 0.464073
1 0 0.687144
1 0 0.971649
1 0 1
1 0 1
1 0 1
1 0 1
1 0 1
1 0 1
1 0 1
1 0 1
1 0 1
0 0.0676432 0
0 0.066804 0
0 0.0660563 0
0 0.0654307 0
0 0.0649119 0
0 0.0645304 0
0 0.0642557 0
0 0.0641794 0
0.00135805 0.0643778 0
0.014374 0.0645151 0
0.0353246 0.0636912 0
0.0696574 0.0608682 0
0.118853 0.0558633 0
0.184588 0.0491646 0
0.274052 0.040177 0
0.406912 0.0263523 0
0.621439 0 0
0.892576 0 0
1 0 0.00137331
1 0 0.129244
1 0 0.258152
1 0 0.427482
1 0 0.644297
1 0 0.91371
1 0 1
1 0 1
1 0 1
1 0 1
1 0 1
1 0 1
1 0 1
1 0 1
1 0 1
0 0.110628 0
0 0.109712 0
0 0.108873 0
0 0.10808 0
0 0.107362 0
0 0.106706 0
0 0.10605 0
0.00242618 0.105394 0
0.0127108 0.104952 0
0.024918 0.105028 0
0.0409705 0.10544 0
0.0680705 0.104875 0
0.112978 0.101625 0
0.179294 0.0952316 0
0.269047 0.086244 0
0.4009 0.0729381 0
0.61117 0.0484932 0
0.879835 0.00970474 0
1 0 0
1 0 0.0854505
1 0 0.212222
1 0 0.376059
1 0 0.583383
1 0 0.826902
1 0 1
1 0 1
1 0 1
1 0 1
1 0 1
1 0 1
1 0 1
1 0 1
1 0 1
0 0.168093 0
0 0.167086 0
0 0.16611 0
0 0.165179 0
0 0.164294 0
0 0.163455 0
0.0049897 0.162524 0
0.0146944 0.161425 0
0.0269322 0.160235 0
0.041825 0.159228 0
0.0586709 0.158984 0
0.0804303 0.15964 0
0.115755 0.159411 0
0.175937 0.155673 0
0.266285 0.147295 0
0.397314 0.134218 0
0.603204 0.111833 0
0.866636 0.0756085 0
1 0.0279393 0
1 0 0.0351415
1 0 0.157336
1 0 0.312383
1 0 0.506432
1 0 0.704936
1 0 0.93492
1 0 1
1 0 1
1 0 1
1 0 1
1 0 1
1 0 1
1 0 1
1 0 1
0 0.242496 0
0 0.241398 0
0 0.240299 0
0.00213626 0.239246 0
0.00909438 0.238239 0
0.0159762 0.237247 0
0.0240787 0.236118 0
0.0346685 0.234699 0
0.0483558 0.232975 0
0.0656291 0.231083 0
0.0860761 0.22945 0
0.110185 0.228855 0
0.139849 0.229755 0
0.188495 0.229465 0
0.272099 0.224369 0
0.404929 0.212253 0
0.605692 0.190967 0
0.860136 0.157565 0
1 0.109316 0
1 0.0737926 0
1 0 0.104051
1 0 0.245838
1 0 0.420417
1 0 0.543801
1 0 0.796368
1 0 1
1 0 1
1 0 1
1 0 1
1 0 1
1 0 1
1 0 1
1 0 1
0.00495918 0.35111 0
0.0127108 0.349767 0
0.0203861 0.348455 0
0.0280003 0.347158 0
0.035523 0.345907 0
0.0429694 0.344686 0
0.0517739 0.343252 0
0.063386 0.341421 0
0.0785687 0.339101 0
0.0975662 0.336385 0
0.122301 0.333242 0
0.152132 0.330358 0
0.185977 0.329091 0
0.22678 0.33022 0
0.293996 0.329961 0
0.422248 0.322423 0
0.618921 0.302861 0
0.860288 0.270863 0
1 0.221622 0
1 0.178134 0
1 0.0939956 0.0311589
1 0 0.154406
1 0 0.281666
1 0 0.302007
1 0 0.636454
1 0 1
1 0 1
1 0 1
1 0 1
1 0 1
1 0 1
1 0 1
1 0 1
0.00274662 0.514839 0
0.0117342 0.513115 0
0.0206302 0.511437 0
0.0294804 0.509758 0
0.0382239 0.508125 0
0.0468757 0.506539 0
0.0571756 0.504631 0
0.0707866 0.502159 0
0.0884108 0.499001 0
0.111254 0.495033 0
0.141192 0.490105 0
0.178683 0.484489 0
0.22356 0.479103 0
0.273701 0.476112 0
0.330861 0.477378 0
0.433585 0.477501 0
0.619852 0.464164 0
0.854154 0.434485 0
1 0.382681 0
1 0.327703 0
1 0.236881 0
1 0.0868238 0
1 0 0
1 0 0
1 0 0.342184
1 0 0.916747
1 0 1
1 0 1
1 0 1
1 0 1
1 0 1
1 0 1
1 0 1
0 0.74905 0
0 0.74905 0
0 0.74905 0
0 0.74905 0
0.000808728 0.74905 0
0.0099031 0.74905 0
0.020737 0.74905 0
0.035172 0.748257 0
0.053666 0.744991 0
0.0792706 0.740536 0
0.113039 0.734737 0
0.156985 0.727428 0
0.212909 0.718669 0
0.281056 0.709453 0
0.357458 0.702739 0
0.450217 0.702159 0
0.60148 0.697505 0
0.827161 0.674586 0
1 0.619471 0
1 0.542672 0
1 0.435981 0
1 0.238239 0
1 0 0
1 0 0
1 0 0
1 0 0.541131
1 0 1
1 0 1
1 0 1
1 0 1
1 0 1
1 0 1
1 0 1
0 0.74905 0
0 0.74905 0
0 0.74905 0
0 0.74905 0
0 0.74905 0
0 0.74905 0
0 0.74905 0
0 0.74905 0
0 0.74905 0
0.0137179 0.74905 0
0.0472572 0.74905 0
0.0919356 0.74905 0
0.151003 0.74905 0
0.228229 0.74905 0
0.325231 0.74905 0
0.448554 0.74905 0
0.586007 0.74905 0
0.735683 0.74905 0
1 0.74905 0
1 0.74905 0
1 0.74905 0
1 0.74905 0
1 0.448371 0
1 0.0406195 0
1 0 0
1 0 0
1 0 0.502831
1 0 1
1 0 1
1 0 1
1 0 1
1 0 1
1 0 1
0 0.74905 0
0 0.74905 0
0 0.74905 0
0 0.74905 0
0 0.74905 0
0 0.74905 0
0 0.74905 0
0 0.74905 0
0 0.74905 0
0 0.74905 0
0 0.74905 0
0 0.74905 0
0 0.74905 0
0 0.74905 0
0 0.74905 0
0.120272 0.74905 0
0.376059 0.74905 0
0.61471 0.74905 0
0.886778 0.74905 0
1 0.74905 0
1 0.74905 0
1 0.74905 0
1 0.74905 0
1 0.74905 0
1 0.35465 0
1 0 0
1 0 0
1 0 0.316152
1 0 1
1 0 1
1 0 1
1 0 1
1 0 1
0 0.74905 0
0 0.74905 0
0 0.74905 0
0 0.74905 0
0 0.74905 0
0 0.74905 0
0 0.74905 0
0 0.74905 0
0 0.74905 0
0 0.74905 0
0 0.74905 0
0 0.74905 0
0 0.74905 0
0 0.74905 0
0 0.74905 0
0 0.74905 0
0.118517 0.74905 0
0.414847 0.74905 0
0.783017 0.74905 0
1 0.74905 0
1 0.74905 0
1 0.74905 0
1 0.74905 0
1 0.74905 0
1 0.74905 0
1 0.74905 0
1 0 0
1 0 0
1 0 0.0643473
1 0 1
1 0 1
1 0 1
1 0 1
0 0.74905 0
0 0.74905 0
0 0.74905 0
0 0.74905 0
0 0.74905 0
0 0.74905 0
0 0.74905 0
0 0.74905 0
0 0.74905 0
0 0.74905 0
0 0.74905 0
0 0.74905 0
0 0.74905 0
0 0.74905 0
0 0.74905 0
0 0.74905 0
0 0.74905 0
0.0459754 0.74905 0
0.479606 0.74905 0
0.997055 0.74905 0
1 0.74905 0
1 0.74905 0
1 0.74905 0
1 0.74905 0
1 0.74905 0
1 0.74905 0
1 0.74905 0
1 0.0239719 0
1 0 0
1 0 0
1 0 1
1 0 1
1 0 1
0 0.74905 0
0 0.74905 0
0 0.74905 0
0 0.74905 0
0 0.74905 0
0 0.74905 0
0 0.74905 0
0 0.74905 0
0 0.74905 0
0 0.74905 0
0 0.74905 0
0 0.74905 0
0 0.74905 0
0 0.74905 0
0 0.74905 0
0 0.74905 0
0 0.74905 0
0 0.74905 0
0 0.74905 0
0.56109 0.74905 0
1 0.74905 0
1 0.74905 0
1 0.74905 0
1 0.74905 0
1 0.74905 0
1 0.74905 0
1 0.74905 0
1 0.74905 0
1 0.33489 0
1 0 0
1 0 0
1 0 1
1 0 1
0 0.74905 0
0 0.74905 0
0 0.74905 0
0 0.74905 0
0 0.74905 0
0 0.74905 0
0 0.74905 0
0 0.74905 0
0 0.74905 0
0 0.74905 0
0 0.74905 0
0 0.74905 0
0 0.74905 0
0 0.74905 0
0 0.74905 0
0 0.74905 0
0 0.74905 0
0 0.74905 0
0 0.74905 0
0 0.74905 0
0.668559 0.74905 0
1 0.74905 0
1 0.74905 0
1 0.74905 0
1 0.74905 0
1 0.74905 0
1 0.74905 0
1 0.74905 0
1 0.74905 0
1 0.74905 0
1 0 0
1 0 0
1 0 1
0 0.74905 0
0 0.74905 0
0 0.74905 0
0 0.74905 0
0 0.74905 0
0 0.74905 0
0 0.74905 0
0 0.74905 0
0 0.74905 0
0 0.74905 0
0 0.74905 0
0 0.74905 0
0 0.74905 0
0 0.74905 0
0 0.74905 0
0 0.74905 0
0 0.74905 0
0 0.74905 0
0 0.74905 0
0 0.74905 0
0 0.74905 0
0.81149 0.74905 0
1 0.74905 0
1 0.74905 0
1 0.74905 0
1 0.74905 0
1 0.74905 0
1 0.74905 0
1 0.74905 0
1 0.74905 0
1 0.74905 0
1 0 0
1 0 0
0 0.74905 0
0 0.74905 0
0 0.74905 0
0 0.74905 0
0 0.74905 0
0 0.74905 0
0 0.74905 0
0 0.74905 0
0 0.74905 0
0 0.74905 0
0 0.74905 0
0 0.74905 0
0 0.74905 0
0 0.74905 0
0 0.74905 0
0 0.74905 0
0 0.74905 0
0 0.74905 0
0 0.74905 0
0 0.74905 0
0 0.74905 0
0 0.74905 0
1 0.74905 0
1 0.74905 0
1 0.74905 0
1 0.74905 0
1 0.74905 0
1 0.74905 0
1 0.74905 0
1 0.74905 0
1 0.74905 0
1 0.74905 0
1 0 0
0 0.74905 0
0 0.74905 0
0 0.74905 0
0 0.74905 0
0 0.74905 0
0 0.74905 0
0 0.74905 0
0 0.74905 0
0 0.74905 0
0 0.74905 0
0 0.74905 0
0 0.74905 0
0 0.74905 0
0 0.74905 0
0 0.74905 0
0 0.74905 0
0 0.74905 0
0 0.74905 0
0 0.74905 0
0 0.74905 0
0 0.74905 0
0 0.74905 0
0 0.74905 0
1 0.74905 0
1 0.74905 0
1 0.74905 0
1 0.74905 0
1 0.74905 0
1 0.74905 0
1 0.74905 0
1 0.74905 0
1 0.74905 0
1 0.74905 0
0 0.74905 0
0 0.74905 0
0 0.74905 0
0 0.74905 0
0 0.74905 0
0 0.74905 0
0 0.74905 0
0 0.74905 0
0 0.74905 0
