Assets/HMP LUTs/LUTs/HMPLUTs_Graeme.cube
TITLE "Generated by Resolve"
LUT_3D_SIZE 5
0 0 0
0 0 0
0.813611 0 0
1 0.218631 0.123186
1 1 1
0 0 0
0 0 0
0.855894 0 0
1 0.306691 0.0864424
1 1 1
0 0.803326 0
0 0.806607 0
0.921447 0.782879 0
1 0.94374 0
1 1 1
0 1 0
0.136584 1 0
1 1 0
1 1 0
1 1 1
1 1 1
1 1 1
1 1 1
1 1 1
1 1 1
0 0 0
0 0 0
0.858106 0 0
1 0.210956 0.320363
1 1 1
0 0 0
0 0 0
0.893187 0 0
1 0.299016 0.283619
1 1 1
0 0.808759 0
0 0.808713 0
0.932525 0.781613 0
1 0.936065 0.0328527
1 1 1
0 1 0.143145
0.128969 1 0.128206
1 1 0.0444495
1 1 0.16318
1 1 1
1 1 1
1 1 1
1 1 1
1 1 1
1 1 1
0 0 0.828824
0 0 0.879286
0.825437 0 0.947021
1 0.176196 1
1 1 1
0 0 0.876005
0 0 0.93402
0.891188 0 1
1 0.264286 1
1 1 1
0 0.784939 1
0 0.795895 1
0.744717 0.614725 0.877379
1 0.901579 1
1 1 1
0 1 1
0.0960861 1 1
1 1 1
1 1 1
1 1 1
1 1 1
1 1 1
1 1 1
1 1 1
1 1 1
0.295033 0.326955 1
0.411673 0.325185 1
1 0.312032 1
1 0.265904 1
1 1 1
0.292821 0.420203 1
0.409674 0.417304 1
1 0.394522 1
1 0.354009 1
1 1 1
0.128786 1 1
0.246113 1 1
1 0.932052 1
1 0.990784 1
1 1 1
0.0467384 1 1
0.188525 1 1
1 1 1
1 1 1
1 1 1
1 1 1
1 1 1
1 1 1
1 1 1
1 1 1
1 1 1
1 1 1
1 1 1
1 1 1
1 1 1
1 1 1
1 1 1
1 1 1
1 1 1
1 1 1
0.824842 1 1
0.965255 1 1
1 1 1
1 1 1
1 1 1
0.949203 1 1
1 1 1
1 1 1
1 1 1
1 1 1
1 1 1
1 1 1
1 1 1
1 1 1
1 1 1
