Assets/HMP LUTs/LUTs/HMPLUTs_Adelfo.cube
TITLE "Generated by Resolve"
LUT_3D_SIZE 5
0 0 0
0.00616464 0 0
0.371847 0 0
1 0 0
1 0 0
0 0.0106813 0
0.0129244 0.0129244 0
0.382315 0.0243381 0
1 0 0
1 0 0
0.0357366 0.422797 0.0357366
0.0780957 0.426932 0.0407263
0.449622 0.449622 0.06804
1 0.172595 0
1 0 0
0 1 0
0 1 0
0 1 0
1 1 0
1 0 0
0 1 0
0 1 0
0 1 0
0 1 0
1 1 0
0 0 0.00535592
0.00683604 0 0.00683604
0.372946 0 0.0139467
1 0 0
1 0 0
0 0.0115511 0.0115511
0.0138399 0.0138399 0.0138399
0.383536 0.0257115 0.0257115
1 0 0
1 0 0
0.0375525 0.424308 0.0749371
0.0799268 0.428458 0.0799268
0.450828 0.450828 0.106874
1 0.172595 0
1 0 0
0 1 0
0 1 0
0 1 0
1 1 0
1 0 0
0 1 0
0 1 0
0 1 0
0 1 0
1 1 0
0 0 0.365347
0.00793469 0 0.367498
0.377172 0 0.377172
1 0 0.218173
1 0 0
0 0.0140078 0.372992
0.016846 0.016846 0.37557
0.388327 0.0315404 0.388327
1 0 0.216785
1 0 0
0.0466621 0.431861 0.431861
0.0890974 0.436057 0.436057
0.458366 0.458366 0.458366
1 0.168002 0.168002
1 0 0
0 1 0
0 1 0
0 1 0
1 1 0
1 0 0
0 1 0
0 1 0
0 1 0
0 1 0
1 1 0
0 0 1
0 0 1
0.365911 0 1
1 0 1
1 0 0
0 0 1
0 0 1
0.380774 0.0226291 1
1 0 1
1 0 0
0.0322728 0.419928 1
0.0733501 0.422995 1
0.4318 0.4318 1
1 0.0241398 1
1 0 0
0 1 1
0 1 1
0 1 1
1 1 1
1 0 0
0 1 0
0 1 0
0 1 0
0 1 0
1 1 0
0 0 1
0 0 1
0 0 1
1 0 1
1 0 1
0 0 1
0 0 1
0 0 1
1 0 1
1 0 1
0 0 1
0 0 1
0 0 1
1 0 1
1 0 1
0 1 1
0 1 1
0 1 1
1 1 1
1 0 1
0 1 1
0 1 1
0 1 1
0 1 1
1 1 1
