Assets/HMP LUTs/LUTs/HMPLUTs_Stuart.cube
TITLE "Generated by Resolve"
LUT_3D_SIZE 9
0 0 0
0 0 0
0.0075227 0 0
0.129381 0 0
0.559869 0 0
1 0 0
1 0 0
1 0 0
1 0 0
0 0 0
0 0 0
0.00794995 0 0
0.129809 0 0
0.560281 0 0
1 0 0
1 0 0
1 0 0
1 0 0
0 0 0
0 0 0
0.00859083 0 0
0.130449 0 0
0.560891 0 0
1 0 0
1 0 0
1 0 0
1 0 0
0 0.117983 0
0 0.117845 0
0.0106508 0.117662 0
0.132494 0.117052 0
0.56286 0.115099 0
1 0.108705 0
1 0.087953 0
1 0.0204776 0
1 0 0
0 0.539849 0
0 0.539727 0
0.0173037 0.539544 0
0.139162 0.538979 0
0.569345 0.537133 0
1 0.53109 0
1 0.512444 0
1 0.453285 0
1 0.187304 0
0 1 0
0.0012665 1 0
0.0389715 1 0
0.160815 1 0
0.591897 1 0
1 1 0
1 1 0
1 1 0
1 1 0
0.045594 1 0.0578775
0.0711833 1 0.0577554
0.109361 1 0.0575723
0.229862 1 0.0569619
0.702342 1 0.0549935
1 1 0.0486152
1 1 0.0278477
1 1 0
1 1 0
0.281682 1 0.297765
0.315541 1 0.297597
0.367422 1 0.297353
0.502129 1 0.296559
1 1 0.293965
1 1 0.285588
1 1 0.25919
1 1 0.189212
1 1 0
1 1 1
1 1 1
1 1 1
1 1 1
1 1 1
1 1 1
1 1 1
1 1 1
1 1 0.86952
0 0 0
0 0 0
0.00714122 0 0
0.129 0 0
0.559518 0 0
1 0 0
1 0 0
1 0 0
1 0 0
0 0 0
0 0 0
0.00758373 0 0
0.129427 0 0
0.55993 0 0
1 0 0
1 0 0
1 0 0
1 0 0
0 0 0
0 0 0
0.00822461 0 0
0.130068 0 0
0.56054 0 0
1 0 0
1 0 0
1 0 0
1 0 0
0 0.117601 0
0 0.117479 0
0.0102693 0.117296 0
0.132128 0.116686 0
0.562509 0.114717 0
1 0.108324 0
1 0.0875715 0
1 0.0200961 0
1 0 0
0 0.539498 0
0 0.539376 0
0.0169375 0.539193 0
0.138781 0.538628 0
0.568978 0.536782 0
1 0.530739 0
1 0.512154 0
1 0.452888 0
1 0.186923 0
0 1 0.0174105
0.000900282 1 0.0172885
0.0385901 1 0.0170901
0.160449 1 0.0164797
0.59147 1 0.0145266
1 1 0.00813306
1 1 0
1 1 0
1 1 0
0.0452277 1 0.0878004
0.0708019 1 0.0876783
0.108995 1 0.0874952
0.22948 1 0.0868849
0.701579 1 0.0849165
1 1 0.0785382
1 1 0.0577707
1 1 0
1 1 0
0.281193 1 0.338064
0.315038 1 0.337881
0.366903 1 0.337636
0.501869 1 0.336812
1 1 0.334142
1 1 0.325475
1 1 0.297627
1 1 0.218067
1 1 0.00030518
1 1 1
1 1 1
1 1 1
1 1 1
1 1 1
1 1 1
1 1 1
1 1 1
1 1 0.927321
0 0 0.0306249
0 0 0.0305028
0.0065919 0 0.0303197
0.128435 0 0.0297093
0.558984 0 0.0277409
1 0 0.0213626
1 0 0.00108339
1 0 0
1 0 0
0 0 0.0310674
0 0 0.03093
0.00701915 0 0.0307469
0.128878 0 0.0301366
0.559396 0 0.0281682
1 0 0.0217899
1 0 0.0015259
1 0 0
1 0 0
0 0 0.0317082
0 0 0.0315709
0.00766003 0 0.0313878
0.129519 0 0.0307927
0.560006 0 0.0288243
1 0 0.0224308
1 0 0.00216678
1 0 0
1 0 0
0 0.117037 0.033753
0 0.116915 0.0336309
0.00972 0.116732 0.0334325
0.131563 0.116121 0.0328374
0.561959 0.114153 0.030869
1 0.107774 0.0244755
1 0.0870222 0.0037232
1 0.0195315 0
1 0 0
0 0.538964 0.0404212
0 0.538857 0.0402838
0.0163729 0.538674 0.0401007
0.138231 0.538109 0.0394903
0.568429 0.536263 0.0375372
1 0.530205 0.0311437
1 0.511727 0.0103914
1 0.452293 0
1 0.186358 0
0 1 0.0620737
0.000335698 1 0.0619516
0.0380255 1 0.0617533
0.159884 1 0.0611582
0.59086 1 0.0591897
1 1 0.0528115
1 1 0.0320439
1 1 0
1 1 0
0.0446632 1 0.132479
0.0702525 1 0.132357
0.108431 1 0.132158
0.228916 1 0.131548
0.70045 1 0.129595
1 1 0.123201
1 1 0.102449
1 1 0.0349737
1 1 0
0.280476 1 0.398505
0.314275 1 0.398337
0.36614 1 0.398077
0.501457 1 0.397284
1 1 0.394659
1 1 0.386114
1 1 0.358007
1 1 0.268086
1 1 0.04448
1 1 1
1 1 1
1 1 1
1 1 1
1 1 1
1 1 1
1 1 1
1 1 1
1 1 1
0 0 0.173175
0 0 0.173053
0.00480659 0 0.172854
0.12665 0 0.172244
0.55729 0 0.170291
1 0 0.163897
1 0 0.143145
1 0 0.0756695
1 0 0
0 0 0.173602
0 0 0.17348
0.00523384 0 0.173281
0.127092 0 0.172686
0.557702 0 0.170718
1 0 0.164324
1 0 0.143572
1 0 0.0760967
1 0 0
0 0 0.174243
0 0 0.174121
0.00587472 0 0.173922
0.127733 0 0.173327
0.558312 0 0.171359
1 0 0.164981
1 0 0.144213
1 0 0.0767376
1 0 0
0 0.115251 0.176303
0 0.115129 0.176165
0.00793469 0.114946 0.175982
0.129778 0.114336 0.175372
0.56025 0.112383 0.173404
1 0.105989 0.167025
1 0.0852369 0.146273
1 0.0177615 0.0787823
1 0 0
0 0.537301 0.182956
0 0.537179 0.182834
0.0145876 0.536995 0.182635
0.136446 0.536431 0.18204
0.566674 0.534569 0.180072
1 0.528496 0.173693
1 0.510369 0.152926
1 0.450401 0.0854505
1 0.184573 0
0 1 0.20441
0 1 0.204288
0.0362402 1 0.204105
0.158099 1 0.203525
0.588907 1 0.201633
1 1 0.195346
1 1 0.174594
1 1 0.107118
1 1 0
0.0428779 1 0.282429
0.0684672 1 0.282261
0.106645 1 0.282017
0.227131 1 0.281239
0.696803 1 0.278706
1 1 0.270542
1 1 0.244968
1 1 0.177508
1 1 0
0.278172 1 0.539574
0.311879 1 0.539467
0.363729 1 0.539284
0.500175 1 0.53872
1 1 0.536873
1 1 0.530831
1 1 0.51223
1 1 0.452979
1 1 0.187015
1 1 1
1 1 1
1 1 1
1 1 1
1 1 1
1 1 1
1 1 1
1 1 1
1 1 1
0 0 0.720409
0 0 0.720165
0 0 0.719799
0.120851 0 0.718624
0.551827 0 0.714839
1 0 0.702205
1 0 0.660426
1 0 0.573068
1 0 0.342184
0 0 0.721248
0 0 0.720989
0 0 0.720623
0.121294 0 0.719463
0.552239 0 0.715663
1 0 0.703075
1 0 0.661234
1 0 0.57351
1 0 0.342779
0 0 0.722484
0 0 0.72224
0.000564584 0 0.721874
0.121935 0 0.720699
0.552834 0 0.716899
1 0 0.704372
1 0 0.66244
1 0 0.574151
1 0 0.343648
0 0.109453 0.726436
0 0.109331 0.726192
0.00260929 0.109148 0.725826
0.12398 0.108537 0.724651
0.554757 0.106584 0.720867
1 0.100191 0.708461
1 0.0794385 0.666392
1 0.0119631 0.576226
1 0 0.346441
0 0.531807 0.7393
0 0.531685 0.739055
0.0087892 0.531518 0.738689
0.130648 0.530938 0.73753
0.561074 0.529061 0.73373
1 0.522896 0.721401
1 0.506111 0.679698
1 0.444129 0.583124
1 0.17879 0.35552
0 1 0.781125
0 1 0.78088
0.0304417 1 0.780514
0.1523 1 0.779355
0.582696 1 0.775555
1 1 0.763226
1 1 0.72314
1 1 0.607675
1 1 0.384878
0.0370794 1 0.917067
0.0626688 1 0.916823
0.100847 1 0.916457
0.221454 1 0.915282
0.684855 1 0.911498
1 1 0.899168
1 1 0.859083
1 1 0.728786
1 1 0.468498
0.270756 1 1
0.304112 1 1
0.355825 1 1
0.495857 1 1
1 1 1
1 1 1
1 1 1
1 1 1
1 1 0.747127
1 1 1
1 1 1
1 1 1
1 1 1
1 1 1
1 1 1
1 1 1
1 1 1
1 1 1
0 0 1
0 0 1
0 0 1
0.102007 0 1
0.534157 0 1
1 0 1
1 0 1
1 0 1
1 0 1
0 0 1
0 0 1
0 0 1
0.102434 0 1
0.534569 0 1
1 0 1
1 0 1
1 0 1
1 0 1
0 0 1
0 0 1
0 0 1
0.103075 0 1
0.535164 0 1
1 0 1
1 0 1
1 0 1
1 0 1
0 0.0906081 1
0 0.090486 1
0 0.0902876 1
0.105135 0.0896925 1
0.537102 0.0877241 1
1 0.0813306 1
1 0.0605783 1
1 0 1
1 0 1
0 0.514549 1
0 0.514443 1
0 0.51429 1
0.111788 0.513802 1
0.543343 0.512276 1
1 0.5075 1
1 0.492073 1
1 0.421958 1
1 0.15993 1
0 1 1
0 1 1
0.0115969 1 1
0.133455 1 1
0.563775 1 1
1 1 1
1 1 1
1 1 1
1 1 1
0.0182345 1 1
0.0438087 1 1
0.082002 1 1
0.203677 1 1
0.648844 1 1
1 1 1
1 1 1
1 1 1
1 1 1
0.247456 1 1
0.279377 1 1
0.330159 1 1
0.479362 1 1
1 1 1
1 1 1
1 1 1
1 1 1
1 1 1
1 1 1
1 1 1
1 1 1
1 1 1
1 1 1
1 1 1
1 1 1
1 1 1
1 1 1
0 0 1
0 0 1
0 0 1
0.0407263 0 1
0.483284 0 1
1 0 1
1 0 1
1 0 1
1 0 1
0 0 1
0 0 1
0 0 1
0.0411536 0 1
0.48368 0 1
1 0 1
1 0 1
1 0 1
1 0 1
0 0 1
0 0 1
0 0 1
0.0417945 0 1
0.484291 0 1
1 0 1
1 0 1
1 0 1
1 0 1
0 0.0293278 1
0 0.0292058 1
0 0.0290227 1
0.0438544 0.0284123 1
0.486198 0.0264439 1
1 0.0200656 1
1 0 1
1 0 1
1 0 1
0 0.46244 1
0 0.462318 1
0 0.462119 1
0.0505074 0.461509 1
0.491951 0.459495 1
1 0.452842 1
1 0.42974 1
1 0.339879 1
1 0.0986496 1
0 1 1
0 1 1
0 1 1
0.0721752 1 1
0.508049 1 1
1 1 1
1 1 1
1 1 1
1 1 1
0 1 1
0 1 1
0.0207218 1 1
0.14258 1 1
0.572732 1 1
1 1 1
1 1 1
1 1 1
1 1 1
0.185794 1 1
0.210773 1 1
0.250462 1 1
0.411795 1 1
0.973342 1 1
1 1 1
1 1 1
1 1 1
1 1 1
1 1 1
1 1 1
1 1 1
1 1 1
1 1 1
1 1 1
1 1 1
1 1 1
1 1 1
0 0 1
0 0 1
0 0 1
0 0 1
0.236606 0 1
1 0 1
1 0 1
1 0 1
1 0 1
0 0 1
0 0 1
0 0 1
0 0 1
0.237079 0 1
1 0 1
1 0 1
1 0 1
1 0 1
0 0 1
0 0 1
0 0 1
0 0 1
0.237781 0 1
1 0 1
1 0 1
1 0 1
1 0 1
0 0 1
0 0 1
0 0 1
0 0 1
0.24007 0 1
1 0 1
1 0 1
1 0 1
1 0 1
0 0.215396 1
0 0.215274 1
0 0.215106 1
0 0.214527 1
0.247883 0.212696 1
1 0.206699 1
1 0.186267 1
1 0.118791 1
1 0 1
0 1 1
0 1 1
0 1 1
0 1 1
0.274769 1 1
1 1 1
1 1 1
1 1 1
1 1 1
0 1 1
0 1 1
0 1 1
0 1 1
0.369146 1 1
1 1 1
1 1 1
1 1 1
1 1 1
0 1 1
0.012192 1 1
0.05037 1 1
0.172229 1 1
0.605081 1 1
1 1 1
1 1 1
1 1 1
1 1 1
0.901823 1 1
0.951232 1 1
1 1 1
1 1 1
1 1 1
1 1 1
1 1 1
1 1 1
1 1 1
0 0 1
0 0 1
0 0 1
0 0 1
0 0 1
1 0 1
1 0 1
1 0 1
1 0 1
0 0 1
0 0 1
0 0 1
0 0 1
0 0 1
1 0 1
1 0 1
1 0 1
1 0 1
0 0 1
0 0 1
0 0 1
0 0 1
0 0 1
1 0 1
1 0 1
1 0 1
1 0 1
0 0 1
0 0 1
0 0 1
0 0 1
0 0 1
1 0 1
1 0 1
1 0 1
1 0 1
0 0 1
0 0 1
0 0 1
0 0 1
0 0 1
1 0 1
1 0 1
1 0 1
1 0 1
0 1 1
0 1 1
0 1 1
0 1 1
0 1 1
1 1 1
1 1 1
1 0.894301 1
1 0.542733 1
0 1 1
0 1 1
0 1 1
0 1 1
0 1 1
1 1 1
1 1 1
1 1 1
1 1 1
0 1 1
0 1 1
0 1 1
0 1 1
0 1 1
1 1 1
1 1 1
1 1 1
1 1 1
0.0829938 1 1
0.108568 1 1
0.146761 1 1
0.274205 1 1
0.774838 1 1
1 1 1
1 1 1
1 1 1
1 1 1
