Assets/HMP LUTs/LUTs/HMPLUTs_Saturno.cube
TITLE "Generated by Resolve"
LUT_3D_SIZE 5
0 0 0
0 0 0
0.138933 0.00509651 0.0195468
1 0 0
1 0 0
0 0 0
0 0 0
0.173831 0.0446937 0.0501564
1 0 0
1 0 0
0.291905 0.294453 0.255833
0.311421 0.304952 0.265644
0.511345 0.380102 0.337133
1 0 0
1 0 0
0 1 0
0 1 0
0 1 0
0.169589 1 0
1 0 0
0 1 0
0 1 0
0 1 0
0 1 0
0 1 0
0 0 0
0 0 0
0.142977 0.00877394 0.0232395
1 0 0
1 0 0
0 0 0
0 0 0
0.178042 0.0485237 0.0539712
1 0 0
1 0 0
0.296437 0.298558 0.259922
0.315953 0.309071 0.269749
0.515953 0.384283 0.341283
1 0 0
1 0 0
0 1 0
0 1 0
0 1 0
0.174884 1 0
1 0 0
0 1 0
0 1 0
0 1 0
0 1 0
0 1 0
0 0 0.073167
0 0 0.0815442
0.168032 0.0331121 0.139788
1 0 0
1 0 0
0 0 0.10042
0.014435 0.00793469 0.108446
0.204105 0.0737621 0.171374
1 0 0
1 0 0
0.324819 0.325917 0.379248
0.344411 0.336507 0.389136
0.544961 0.412207 0.461128
1 0 0
1 0 0
0 1 0
0 1 0
0 1 0
0.209415 1 0
1 0 0
0 1 0
0 1 0
0 1 0
0 1 0
0 1 0
0 0 1
0 0 1
0 0 1
1 0 1
1 0 0
0 0 1
0 0 1
0 0 1
1 0 1
1 0 0
0 0 1
0 0 1
0 0 1
1 0 1
1 0 0
0 1 1
0 1 1
0 1 1
0 1 1
1 0 0
0 1 0
0 1 0
0 1 0
0 1 0
0 1 0
0 0 1
0 0 1
0 0 1
0 0 1
0 0 1
0 0 1
0 0 1
0 0 1
0 0 1
0 0 1
0 0 1
0 0 1
0 0 1
0 0 1
0 0 1
0 0 1
0 0 1
0 0 1
0 0 1
0 0 1
0 1 1
0 1 1
0 1 1
0 1 1
0 0 1
