Assets/HMP LUTs/LUTs/HMPLUTs_Adelfo.cube
TITLE "Generated by Resolve"
LUT_3D_SIZE 9
0 0 0
0 0 0
0.00616464 0 0
0.0871748 0 0
0.371847 0 0
1 0 0
1 0 0
1 0 0
1 0 0
0 0 0
0 0 0
0.00895705 0 0
0.0903487 0 0
0.376226 0 0
1 0.0111849 0
1 0 0
1 0 0
1 0 0
0 0.0106813 0
0 0.0118105 0
0.0129244 0.0129244 0
0.0952926 0.0165103 0
0.382315 0.0243381 0
1 0.0437629 0.00637827
1 0 0
1 0 0
1 0 0
0 0.102358 0
0.00192264 0.103532 0
0.0269017 0.105684 0
0.110872 0.110872 0
0.399374 0.12369 0.0075227
1 0.149554 0.0333867
1 0 0
1 0 0
1 0 0
0.0357366 0.422797 0.0357366
0.0525368 0.424674 0.037995
0.0780957 0.426932 0.0407263
0.164889 0.433585 0.0487221
0.449622 0.449622 0.06804
1 0.466728 0.0886549
1 0.172595 0
1 0 0
1 0 0
0 1 0
0 1 0
0.0172427 1 0
0.0937362 1 0
0.361349 1 0
1 1 0
1 0.921309 0
1 0 0
1 0 0
0 1 0
0 1 0
0 1 0
0 1 0
0 1 0
0.31252 1 0
1 1 0
1 1 0
1 0 0
0 1 0
0 1 0
0 1 0
0 1 0
0 1 0
0 1 0
0.0947585 1 0
1 1 0
1 1 0
0 1 0
0 1 0
0 1 0
0 1 0
0 1 0
0 1 0
0 1 0
0 1 0
1 1 0
0 0 0
0 0 0
0.00645457 0 0
0.08748 0 0
0.37232 0 0
1 0 0.00477607
1 0 0
1 0 0
1 0 0
0 0 0
0 0 0
0.00929274 0 0
0.0905928 0 0
0.37673 0 0
1 0.0119478 0.0119478
1 0 0
1 0 0
1 0 0
0 0.0110628 0
0 0.0122072 0
0.0133211 0.0133211 0
0.0957504 0.016968 0
0.382834 0.024918 0.00209049
1 0.0445258 0.0216983
1 0 0
1 0 0
1 0 0
0 0.102571 0.000946059
0.0024567 0.104067 0.0024567
0.027451 0.106249 0.00462348
0.111452 0.111452 0.00984207
0.399939 0.124376 0.0227512
1 0.150317 0.0486915
1 0 0
1 0 0
1 0 0
0.0364996 0.423438 0.0510414
0.0532998 0.425299 0.0532998
0.0788586 0.427573 0.0560311
0.165667 0.434226 0.0640421
0.449943 0.449943 0.0829633
1 0.467247 0.103822
1 0.172625 0
1 0 0
1 0 0
0 1 0
0 1 0
0.0172427 1 0
0.0937514 1 0
0.361395 1 0
1 1 0
1 0.921401 0
1 0 0
1 0 0
0 1 0
0 1 0
0 1 0
0 1 0
0 1 0
0.312703 1 0
1 1 0
1 1 0
1 0 0
0 1 0
0 1 0
0 1 0
0 1 0
0 1 0
0 1 0
0.0951858 1 0
1 1 0
1 1 0
0 1 0
0 1 0
0 1 0
0 1 0
0 1 0
0 1 0
0 1 0
0 1 0
1 1 0
0 0 0.00535592
0 0 0.00578317
0.00683604 0 0.00683604
0.0876326 0 0.00885023
0.372946 0 0.0139467
1 0 0.0286717
1 0 0
1 0 0
1 0 0
0 0 0.00787366
0 0 0.00846876
0.00973526 0 0.00973526
0.0911116 0 0.012314
0.377386 0 0.0188754
1 0.0130007 0.0358434
1 0 0
1 0 0
1 0 0
0 0.0115511 0.0115511
0 0.0126955 0.0126955
0.0138399 0.0138399 0.0138399
0.0962234 0.0174411 0.0174411
0.383536 0.0257115 0.0257115
1 0.0456092 0.0456092
1 0 0
1 0 0
1 0 0
0 0.103212 0.0244297
0.00318914 0.104814 0.0260166
0.0278477 0.10663 0.0278477
0.112245 0.112245 0.033463
0.400702 0.125292 0.0465095
1 0.151385 0.0725872
1 0 0
1 0 0
1 0 0
0.0375525 0.424308 0.0749371
0.0539712 0.425864 0.0767987
0.0799268 0.428458 0.0799268
0.166735 0.435111 0.087953
0.450828 0.450828 0.106874
1 0.467948 0.127489
1 0.172595 0
1 0 0
1 0 0
0 1 0.0175631
0 1 0.01738
0.0171664 1 0.0171664
0.093492 1 0.0147097
0.36141 1 0.00123598
1 1 0
1 0.921462 0
1 0 0
1 0 0
0 1 0
0 1 0
0 1 0
0 1 0
0 1 0
0.312917 1 0
1 1 0
1 1 0
1 0 0
0 1 0
0 1 0
0 1 0
0 1 0
0 1 0
0 1 0
0.0957351 1 0
1 1 0
1 1 0
0 1 0
0 1 0
0 1 0
0 1 0
0 1 0
0 1 0
0 1 0
0 1 0
1 1 0
0 0 0.0843977
0 0 0.0852827
0.00730907 0 0.0860914
0.0887617 0 0.0887617
0.374243 0 0.0941787
1 0 0.110231
1 0 0
1 0 0
1 0 0
0 0 0.0871748
0 0 0.0882124
0.0104219 0 0.0892042
0.0924086 0 0.0924086
0.37882 0 0.0992447
1 0.0155795 0.117189
1 0 0
1 0 0
1 0 0
0 0.0123598 0.0911421
0 0.01355 0.0923476
0.0150454 0.0150454 0.093843
0.0975357 0.0187381 0.0975357
0.385 0.027451 0.106233
1 0.0482185 0.127001
1 0 0
1 0 0
1 0 0
0 0.105119 0.105119
0.00474556 0.106355 0.106355
0.0298161 0.108598 0.108598
0.114015 0.114015 0.114015
0.402502 0.127459 0.127459
1 0.153979 0.153979
1 0 0
1 0 0
1 0 0
0.0401312 0.426444 0.156298
0.0569314 0.428321 0.158541
0.0825208 0.430594 0.161303
0.169345 0.437293 0.169345
0.453101 0.453101 0.18851
1 0.469505 0.208331
1 0.172076 0
1 0 0
1 0 0
0 1 0.095491
0 1 0.0955215
0.0163272 1 0.0951095
0.0928817 1 0.0928817
0.360891 1 0.0794537
1 1 0.00686656
1 0.921279 0
1 0 0
1 0 0
0 1 0
0 1 0
0 1 0
0 1 0
0 1 0
0.313161 1 0
1 1 0
1 1 0
1 0 0
0 1 0
0 1 0
0 1 0
0 1 0
0 1 0
0 1 0
0.0970779 1 0
1 1 0
1 1 0
0 1 0
0 1 0
0 1 0
0 1 0
0 1 0
0 1 0
0 1 0
0 1 0
1 1 0
0 0 0.365347
0 0 0.366171
0.00793469 0 0.367498
0.0898299 0 0.370321
0.377172 0 0.377172
1 0.000289921 0.393362
1 0 0.218173
1 0 0
1 0 0
0 0 0.368307
0 0 0.36939
0.0112764 0 0.37052
0.0940414 0 0.374136
0.382055 0.00122072 0.382055
1 0.0220951 0.399405
1 0 0.217853
1 0 0
1 0 0
0 0.0140078 0.372992
0 0.0149996 0.373892
0.016846 0.016846 0.37557
0.0998856 0.0211032 0.3794
0.388327 0.0315404 0.388327
1 0.0547799 0.407568
1 0 0.216785
1 0 0
1 0 0
0 0.108553 0.386892
0.00827039 0.109895 0.387991
0.0334936 0.112291 0.389914
0.118151 0.118151 0.394766
0.406958 0.13283 0.406958
1 0.160494 0.429938
1 0 0.209903
1 0 0
1 0 0
0.0466621 0.431861 0.431861
0.0631876 0.433509 0.433509
0.0890974 0.436057 0.436057
0.175937 0.442741 0.442741
0.458366 0.458366 0.458366
1 0.472755 0.472755
1 0.168002 0.168002
1 0 0
1 0 0
0 1 0.371038
0 1 0.370901
0.0113222 1 0.370581
0.088014 1 0.368673
0.357198 1 0.357198
1 1 0.289677
1 0.918761 0
1 0 0
1 0 0
0 1 0
0 1 0
0 1 0
0 1 0
0 1 0
0.311727 1 0
1 1 0
1 1 0
1 0 0
0 1 0
0 1 0
0 1 0
0 1 0
0 1 0
0 1 0
0.0990158 1 0
1 1 0
1 1 0
0 1 0
0 1 0
0 1 0
0 1 0
0 1 0
0 1 0
0 1 0
0 1 0
1 1 0
0 0 1
0 0 1
0.0037995 0 1
0.0878157 0 1
0.380163 0 1
1 0.010544 1
1 0 1
1 0 0
1 0 0
0 0 1
0 0 1
0.00863661 0 1
0.0930648 0 1
0.385672 0.00541695 1
1 0.0323033 1
1 0 1
1 0 0
1 0 0
0 0.0120546 1
0 0.0138094 1
0.0158389 0.0158389 1
0.100984 0.0221866 1
0.392691 0.0368505 1
1 0.0649119 1
1 0 1
1 0 0
1 0 0
0 0.111955 1
0.0123598 0.11397 1
0.0375982 0.116381 1
0.123445 0.123445 1
0.413809 0.14107 1
1 0.169284 1
1 0 1
1 0 0
1 0 0
0.0568704 0.440345 1
0.0733043 0.441917 1
0.0992447 0.444495 1
0.186007 0.451041 1
0.465675 0.465675 1
1 0.471015 1
1 0.144106 1
1 0 0
1 0 0
0 1 1
0 1 1
0 1 1
0.0628977 1 1
0.334035 1 1
1 1 1
1 0.901595 0.901595
1 0 0
1 0 0
0 1 0.343572
0 1 0.344091
0 1 0.34464
0 1 0.34522
0 1 0.340749
0.296864 1 0.296864
1 1 0.0244755
1 1 0
1 0 0
0 1 0
0 1 0
0 1 0
0 1 0
0 1 0
0 1 0
0.0944533 1 0
1 1 0
1 1 0
0 1 0
0 1 0
0 1 0
0 1 0
0 1 0
0 1 0
0 1 0
0 1 0
1 1 0
0 0 1
0 0 1
0 0 1
0.0660105 0 1
0.365911 0 1
1 0 1
1 0 1
1 0 1
1 0 0
0 0 1
0 0 1
0 0 1
0.0729534 0 1
0.372229 0 1
1 0.00776684 1
1 0 1
1 0 1
1 0 0
0 0 1
0 0 1
0 0 1
0.0828565 0.00407416 1
0.380774 0.0226291 1
1 0.037583 1
1 0 1
1 0 1
1 0 0
0 0.0966354 1
0 0.0988785 1
0.0228122 0.10161 1
0.109422 0.109422 1
0.401785 0.126589 1
1 0.130266 1
1 0 1
1 0 1
1 0 0
0.0322728 0.419928 1
0.0485237 0.421347 1
0.0733501 0.422995 1
0.157259 0.427237 1
0.4318 0.4318 1
1 0.381231 1
1 0.0241398 1
1 0 1
1 0 0
0 1 1
0 1 1
0 1 1
0 1 1
0.216403 1 1
1 1 1
1 0.810117 1
1 0 1
1 0 0
0 1 1
0 1 1
0 1 1
0 1 1
0 1 1
0.204761 1 1
1 1 1
1 1 1
1 0 0
0 1 0.214801
0 1 0.216022
0 1 0.217563
0 1 0.221302
0 1 0.226444
0 1 0.211795
0.0352026 1 0.0352026
1 1 0
1 1 0
0 1 0
0 1 0
0 1 0
0 1 0
0 1 0
0 1 0
0 1 0
0 1 0
1 1 0
0 0 1
0 0 1
0 0 1
0 0 1
0 0 1
0.840208 0 1
1 0 1
1 0 1
1 0 1
0 0 1
0 0 1
0 0 1
0 0 1
0 0 1
0.840558 0 1
1 0 1
1 0 1
1 0 1
0 0 1
0 0 1
0 0 1
0 0 1
0 0 1
0.840467 0 1
1 0 1
1 0 1
1 0 1
0 0 1
0 0 1
0 0 1
0 0 1
0 0 1
0.836789 0 1
1 0 1
1 0 1
1 0 1
0 0 1
0 0 1
0 0 1
0 0 1
0 0 1
0.807004 0 1
1 0 1
1 0 1
1 0 1
0 0.691691 1
0 0.691951 1
0 0.692149 1
0 0.691752 1
0 0.684718 1
0.636316 0.636316 1
1 0.380728 1
1 0 1
1 0 1
0 1 1
0 1 1
0 1 1
0 1 1
0 1 1
0 1 1
1 1 1
1 1 1
1 0 1
0 1 1
0 1 1
0 1 1
0 1 1
0 1 1
0 1 1
0 1 1
1 1 1
1 1 1
0 1 0
0 1 0
0 1 0
0 1 0
0 1 0
0 1 0
0 1 0
0 1 0
1 1 0
0 0 1
0 0 1
0 0 1
0 0 1
0 0 1
0 0 1
1 0 1
1 0 1
1 0 1
0 0 1
0 0 1
0 0 1
0 0 1
0 0 1
0 0 1
1 0 1
1 0 1
1 0 1
0 0 1
0 0 1
0 0 1
0 0 1
0 0 1
0 0 1
1 0 1
1 0 1
1 0 1
0 0 1
0 0 1
0 0 1
0 0 1
0 0 1
0 0 1
1 0 1
1 0 1
1 0 1
0 0 1
0 0 1
0 0 1
0 0 1
0 0 1
0 0 1
1 0 1
1 0 1
1 0 1
0 0 1
0 0 1
0 0 1
0 0 1
0 0 1
0 0 1
1 0 1
1 0 1
1 0 1
0 1 1
0 1 1
0 1 1
0 1 1
0 1 1
0 1 1
1 1 1
1 0.368719 1
1 0 1
0 1 1
0 1 1
0 1 1
0 1 1
0 1 1
0 1 1
0 1 1
1 1 1
1 1 1
0 1 1
0 1 1
0 1 1
0 1 1
0 1 1
0 1 1
0 1 1
0 1 1
1 1 1
